/* XPM */
static const char *east_bonus[] = {
/* columns rows colors chars-per-pixel */
"256 256 224 2 ",
"   c #020505",
".  c #040B07",
"X  c #050D08",
"o  c #030708",
"O  c #061107",
"+  c #071208",
"@  c #08150A",
"#  c #07180A",
"$  c #0A1B0C",
"%  c #0D1F10",
"&  c #0D230E",
"*  c #0E290F",
"=  c #10260F",
"-  c #102A0F",
";  c #11300F",
":  c #0E2510",
">  c #0F2911",
",  c #102612",
"<  c #112C12",
"1  c #152E18",
"2  c #143315",
"3  c #163A17",
"4  c #183D17",
"5  c #163518",
"6  c #19361A",
"7  c #173B18",
"8  c #193D1A",
"9  c #183716",
"0  c #0F300F",
"q  c #1C3C20",
"w  c #2E3331",
"e  c #313B33",
"r  c #243325",
"t  c #174217",
"y  c #184317",
"u  c #174119",
"i  c #1A431C",
"p  c #1C4B1E",
"a  c #174A17",
"s  c #1E511E",
"d  c #1E591E",
"f  c #204D1D",
"g  c #21521E",
"h  c #215A1F",
"j  c #22621F",
"k  c #1E4521",
"l  c #1E4B21",
"z  c #1F5221",
"x  c #1F5922",
"c  c #204623",
"v  c #224C24",
"b  c #254E28",
"n  c #284F29",
"m  c #225324",
"M  c #235B25",
"N  c #285D27",
"B  c #265429",
"V  c #29552B",
"C  c #265B29",
"Z  c #2A5C2D",
"A  c #295724",
"S  c #364836",
"D  c #2D5E30",
"F  c #345D36",
"G  c #246225",
"H  c #296327",
"J  c #266229",
"K  c #2B632D",
"L  c #266929",
"P  c #2B6A2D",
"I  c #276A26",
"U  c #30642F",
"Y  c #306A2F",
"T  c #2C722D",
"R  c #2A772A",
"E  c #2E6331",
"W  c #2E6A32",
"Q  c #316534",
"!  c #326B35",
"~  c #356D39",
"^  c #386E3B",
"/  c #3E653F",
"(  c #2E7232",
")  c #2E7834",
"_  c #337236",
"`  c #347A35",
"'  c #36733A",
"]  c #39753D",
"[  c #367A3A",
"{  c #3A7B3E",
"}  c #397636",
"|  c #33762E",
" . c #3B7640",
".. c #3D7C41",
"X. c #3F7B48",
"o. c #407E44",
"O. c #5C625E",
"+. c #406A41",
"@. c #5F6860",
"#. c #717A72",
"$. c #637563",
"%. c #2E8132",
"&. c #338334",
"*. c #3B823D",
"=. c #368A3A",
"-. c #3B893D",
";. c #368539",
":. c #41863F",
">. c #3E8243",
",. c #3E8A43",
"<. c #3F8F48",
"1. c #3E9144",
"2. c #418445",
"3. c #428A46",
"4. c #448549",
"5. c #458B4A",
"6. c #498D4D",
"7. c #48874D",
"8. c #439145",
"9. c #46924B",
"0. c #4A924E",
"q. c #46994B",
"w. c #4B9A4E",
"e. c #439B45",
"r. c #478E50",
"t. c #4A8F50",
"y. c #479350",
"u. c #4C9452",
"i. c #4E9A54",
"p. c #4F9B58",
"a. c #4F9658",
"s. c #509655",
"d. c #519C56",
"f. c #519758",
"g. c #539D59",
"h. c #589E5C",
"j. c #4BA24D",
"k. c #4EA253",
"l. c #4FA556",
"z. c #52A256",
"x. c #53AB54",
"c. c #55A35B",
"v. c #59A55E",
"b. c #56A95C",
"n. c #59AA5E",
"m. c #59B15C",
"M. c #57B25C",
"N. c #5E9A62",
"B. c #7A837A",
"V. c #789979",
"C. c #56A660",
"Z. c #5AA561",
"A. c #57AA61",
"S. c #5CAC63",
"D. c #5EAE69",
"F. c #5DB264",
"G. c #5DB962",
"H. c #5EB369",
"J. c #5EBA69",
"K. c #60AD66",
"L. c #62AD69",
"P. c #61A764",
"I. c #61B366",
"U. c #62B966",
"Y. c #63B46B",
"T. c #68B56E",
"R. c #65BA6C",
"E. c #69BB6E",
"W. c #66B570",
"Q. c #69B572",
"!. c #66BB71",
"~. c #6ABC72",
"^. c #6DBD79",
"/. c #73BF7C",
"(. c #77B97B",
"). c #66C26D",
"_. c #6AC36E",
"`. c #6DCA6E",
"'. c #6CC274",
"]. c #6DCA74",
"[. c #6DC379",
"{. c #6DC979",
"}. c #66C072",
"|. c #71C475",
" X c #72C47A",
".X c #74CB7C",
"XX c #78CB7E",
"oX c #71CB75",
"OX c #7AD27E",
"+X c #75D079",
"@X c #7F8880",
"#X c #76CD82",
"$X c #7ACD84",
"%X c #7DCD89",
"&X c #79C682",
"*X c #7CD283",
"=X c #7DD289",
"-X c #78D283",
";X c #848D85",
":X c #859286",
">X c #879688",
",X c #899B89",
"<X c #8DAD8E",
"1X c #81CB8A",
"2X c #83D48B",
"3X c #83DA8C",
"4X c #82D685",
"5X c #8BDD93",
"6X c #88D795",
"7X c #91D099",
"8X c #8DE194",
"9X c #8FE29A",
"0X c #94E39C",
"qX c #95E499",
"wX c #A1CFA2",
"eX c #9BE6A3",
"rX c #9AE7A7",
"tX c #8FE1A1",
"yX c #A1EEAD",
"uX c #A7ECAB",
"iX c #A5F1AC",
"pX c #A7EDB6",
"aX c #ABF2B4",
"sX c #B2F1B7",
/* pixels */
"    o . + # $ & & & & & $ $ $ # # # + + + + + . . . X X X X X X + + . E V O # $ $ & & $ & & , < 2 3 i l p m M M G G G M M M M M m m z s p s *.U.s.f y 7 3 2 2 < : & $ $ $ # + . . o o       c Z             o o . . 5 { < + + O O . . . . . . . . . . . . . . . . . . . + + # $ $ & & & & $ $ $ $ # # + + O O . . . . . . . O . K Z O + + # # # $ $ & & : : < < 2 u l v i p m M G G G M M M M M M m m s p s *.U.s.v y y 3 2 2 < , & $ $ $ # + + X . o       k K             o o . O < { < . . . . . . . . . . . . . . . . . . . ",
"    o . @ $ & > > > > : & $ $ $ $ # # @ + + + + + + + + + + + + + + + { ~ @ # $ $ i { 2 & , < < 2 2.v.S.{ z.F.I.I.I.H.H.S.S.S.S.S.n.S.3.p m S.I.R.Z 8 7 2 2 < < : & $ $ $ @ + + . o o       c Z             o o . : >.5.! + + O + + . . . . . . . . . . . . $ $ . . . . + # $ $ & > > > * & & $ $ $ # # @ + + O O O O + + + + @ [ { @ # # $ $ $ $ 8 >.5 : < < 2 3 2.S.F.{ i.n.I.Y.I.F.F.S.S.I.H.S.n.S.5.s m S.F.R.Z y 8 3 2 2 < : & & $ $ # + + X o o       c Q             o . . & { 5.! + + + X X + . . . . . . . . . . . & < ",
"    . + $ & < z P z 2 > & & $ $ $ # @ @ + + + O + + + + + + + + + + + m v $ $ $ & 8 5.>.5 < < 2 8 g.{ c.i.!.b.F.3.[ ' ' >.Y.3._ ~ W 5.c.p p { R.'.[ 8 7 2 2 < > : & $ $ $ # @ + . . o o     v K             o . . < ,.' ' # + + + + @ , < < < < < 1 5 Q 2 8 >.5.6 . . + @ $ $ & < u M a 2 * & $ $ $ @ @ @ + + O O O O + O + O + m C # $ $ $ $ $ & 8 5.2.5 < < 2 8 g.>.c.i.R.b.m.3.[ ` ' >.Y.5._ _ ! 3.c.l p ..R.'.[ y 7 3 2 < < : & & $ $ $ # + . . o o     c Q             o . . < ,._ ' @ + + + + + , 1 1 1 1 1 1 1 D 1 6 ,.w.",
"  o . + $ & u C.tXF.} E K Z V V B B b b b v v v v v c c v v v v v v b V k & $ & & : < ' 5.8 2 2 8 s.S.!.5.!.=X2X` m m M v.T.J p p p ' c.p p p M ' c.~ 3 2 2 < > : & & $ $ $ @ + . . o o     v E           o o . . @ V i.8 @ @ + + + v 3.] ] ] ] ] { _ 3.E ..>.2.v . X + # $ & > 3 3.3Xn._ K V V B B v v v v v v v v v v v v v v v v B B c & & & & & < ' 5.8 < 2 8 u.S.E.9.R.*X2X} m m M v.Q.K p p p _ c.l p p M } n._ 7 3 2 < < : & & $ $ $ @ + O . o o o   c Q           o o . O @ V w.8 @ @ + + + c 3.{ { { { ] { ! 2.E { 2.` ",
"  o . @ $ & i H.pX{.9.3.>.*.{ [ ' ' ' ~ ~ ~ ! ! ! ! ! ! ! ! ! ! ! ~ _ [ 9.K & & & : < < ] 0.i 3 8 m K K M P ` _ M m M d.S.K z p p p ' c.p p i i i K z.~ 2 2 < > : & < i & $ @ + O . . o o   v K         o o . . + + 5 [ $ # # @ @ v 2.8 $ $ $ $ $ $ & _ < , ! ! & . X + # $ & < 4 q.0XR.8.>.*.{ { ' ' ' ' ' _ ~ ~ ~ ~ ~ ~ ~ ~ ~ ~ ~ ' ' 5.E - & : , < < ' 0.i 2 8 v K K M P ` _ M m m u.K.K z l p p ' v.p p p p a K c.' 3 2 < < : & < i & $ @ + + X o o o   c Q           o . . + O 5 { $ # # @ + v >.8 $ $ $ $ $ $ $ ! < & E { ",
"  o . # $ & 2 G -.L i 4 2 2 > & & $ $ $ # # @ + + + + @ # # # # $ $ $ & 8 5.Q & : < < < 2 ..i.v i i p p s m m m m m u.Z.C z p p i i ' c.p i i i i i V d.~ 2 < > : & V c.5 $ $ @ O . . o o   v K       o o o . O + + 5 { $ $ # @ v >.5 @ # # # # # # $ { 1 O O O . . X + # $ & < 2 s L d 4 2 < * & $ $ $ $ # # # @ @ @ # # # # $ $ $ $ $ 5 3.! < < < < < 2 ] u.v 8 y i p g g m m m m 6.Z.J s p p p p ~ v.p p p i i i Z d.' 2 < < : & V c.3 $ $ @ + X . . o   c Q         o o . . + @ 6 ..$ $ $ @ c >.5 @ $ # # @ + + $ { 1 + + + ",
"  o X @ $ & < 3 y y t t 4 2 < > & & $ $ $ # # # # # # # # # $ $ $ $ & & & 8 5.Q < < < 2 2 8 2.g.m p p p s s z s m u.Z.C p p p p p i ' c.p i i p i y 7 V d.7 < > : & i 0.< $ $ @ O O . . o o v E o o o o o . O + # @ 8 ..$ $ $ $ ..v @ # @ @ # + + + $ { < + + . . . . + # $ & < 2 4 t t t 3 2 < & & $ $ $ # # # # # # # $ $ $ $ $ $ $ & & 6 7.~ 2 < 2 2 2 8 ..d.B i p p p g g s m 6.v.M p p p p p i ~ v.p p p s p i u V z.8 < < > & i u.< $ $ @ + O . . o o c Q o o o o o . . + @ @ 8 >.& $ $ $  .v @ # # @ @ + + + $ ] 1 + + + ",
"  o X + $ & < 2 4 t a a a 4 2 < & & $ $ $ # # # # # # # # $ $ $ $ & & & : : 8 7.~ 2 2 2 2 8 i 4.v.{ { ....2.2.2.h.Z.M p p i p p p z u.u.i p 5.K.' u 4 v i.8 < > : & 8 5.> $ $ @ @ + . . . o v E o o o o . . + @ # # 8 >.& $ $ $ ..8 # # @ @ + + + + $ { < + X X . . X O # $ & < 2 4 y a a t 2 < < & $ $ $ $ # # # # # $ $ $ $ $ $ $ & & & : 8 6.] 2 2 2 3 3 i o.g.{ { ..2.2.2.2.d.v.m p p p p p p m u.d.p s 5.S.' y 7 v d.8 < > > & 8 6.< $ $ # + + . . . o c Q . . o o . X + + @ $ 8 4.: $ $ $ ..8 @ # # @ + + + + @ ] 1 + + X ",
"  o X + $ & > < 3 y G &.%.d 3 < * & $ $ # # # + + + # # # $ $ $ $ & & & : : > 8 u.] 3 3 8 8 i p ..u.u.i.d.d.g.g.s.C p p i i i i m d.S.m y C !.S.v.i 3 v i.8 < > : & 8 5.< $ $ # @ + + O . . v Q . . . . . + + # $ $ 8 2.: $ $ $ ..8 # # # + + + + + $ ] , . . . . . . O @ $ & > 2 4 d %.%.d 3 < & & $ $ # # # # # # # # # $ $ $ $ $ & & & : > 8 u...8 3 8 8 y i { u.u.i.i.d.d.d.s.V p p i i i i m d.S.m y Z ~.H.v.i 4 l i.8 < > > & 8 6.< $ $ # @ + + . . . c ! . . . . . + + # $ $ 8 4.: & $ $ ..8 # # # + + + + X # ] 1 X X X ",
"  o . + # $ < B Q } x.0X5Xj.[ ~ Q E Z V V V V V V V V V V V D D E Q Q ! ~ ! k < k s.o.y y i i p p s s s z z z z z p p p i i i v s.E.3.i y p u.^.v.p 3 l u.8 < > : & 8 5.< $ $ $ # @ + + + . b Q . . . O + + @ $ $ $ k 5.: & & & ..8 # # # + + + + X $ ] , . . o o o . + + $ : m K _ j.9X8Xj.' ! E E D V V V V V V V V V V Z Z D E E Q ! ! ! k < i u.4.i y i i p p s s s d d s s s p p p i i i v u.~.5.y y p u.'.v.p 3 l i.8 < > > & 8 6.< $ $ $ # @ + + + . v ! X . . . + + # $ $ $ k 7.> & & & ..8 # # + + + + + X @ ] < X X X ",
"  o . + # $ Z 9.{ 3.m.0X9Xj.*.[ ' ~ ! E E E D D D D E E E ! ! ~ ' ' ] ] { 4.d.V 3 v c.7.p i p p s m m m m m m m z z l p p i i V c.5.2.y y 8 i m 0.' 2 v y.3 < > : & 8 6.< $ $ $ # # # # # + B ! + + + + + # $ $ & & v 6.< & & & ..i $ # # + + + + X $ ] , . . . o o . . + $ V 9.{ 3.x.9X5Xk.*.{ ' ~ ! Q E E E E E Q Q Q ! ! ! ~ ' ' ' ] { 5.g.V 2 v g.6.l i p p s z m z m z m z m m p p p i i V c.5.2.y y 8 i m y.' 2 l u.8 < < > : 8 6.< $ $ $ # # @ @ # + b ~ + + + + + # $ $ & & v 6.< : : & ..k $ # @ + + + + X # ] < . . . ",
"  o . X + b 2.i 2 t M &.` s 3 2 & & $ # # + + + + + # # $ $ $ & & * * < 2 2 ! v.Q i V v.6.m z z z m M M M M M M m m m l p p i B d.v.~ 8 8 8 8 3 ..] 2 l y.8 < > > & 8 6.< $ $ $ $ $ # $ # # B ~ # # @ @ # $ $ & & > b u.2 > & : ..k $ $ # + + + + + $ ] , . . . o o . . O b 2.i 2 t M &.` s 3 < & & $ # # + + O + + # # $ $ $ & & * > > 2 5 ! c.Q y m c.u.m p m z m M M M M M M M m m p p p i B z.v.~ 7 7 7 8 3 ..] 2 k y.8 < < > : 8 6.< $ $ $ $ $ # # $ # b ~ @ + + @ # $ $ & & > v u.2 < > > ..k $ $ # # + + X X # ] < . . . ",
"    . X + ' B & < 2 4 y y 3 2 < & $ $ # # # # # # # # $ $ $ & : > 5 8 8 3 k v { I.[ p C c.u.M m M M G J J J J M M M m z p p i V n.] 8 3 3 3 3 2 ..] 2 k y.8 < < > : 8 6.< & $ $ $ $ $ $ $ $ V ~ $ $ # # $ $ & & < < V u.3 < > > 2.k $ $ # # + + + + $ ] , . . o   o . . + ^ B & < 2 4 y y 3 2 < & $ $ # # # + + # # # # $ $ & & > 2 3 3 5 k v { Y.[ p m c.d.M M M M M G G J G G M M M m s p i V n.] 8 3 3 3 3 2 ..] 2 k u.8 < < < : 8 6.< & $ $ $ $ $ $ $ $ V ] $ # # # $ $ & & > < V u.3 2 < > >.k $ $ # # + + + + # ] < . . . ",
"    . . + ~ v & > < < 2 2 < < & $ $ $ # + + + # # # # $ $ $ & : 8 u.i.s.~ c.S.c.g.$X2.m C Z.L.g.g.v.Z.Z.S.H.S.v.c.c.c.c.g.s.u.v.] 3 2 2 2 2 2 2 ..] 2 k y.8 < < > > 8 6.< & & $ $ $ $ $ & $ V ' $ $ $ $ $ & & > 2 2 Z d.u 2 2 < 2.k $ $ $ # # + + + $ ] , . . o   o . . O ~ c $ & < < 2 2 < > & $ $ # # # + + + # # # $ $ $ & & 3 0.0.0.Q c.S.c.g.$X2.p C Z.Y.g.c.g.g.c.n.F.S.v.v.c.c.c.g.d.s.n.] 3 2 2 2 2 2 2 ..{ 2 k i.8 < < < > 8 0.< & & $ $ $ $ $ $ $ V ] $ $ $ $ $ & & > 2 2 Z g.u 2 2 < 2.c $ $ $ # # + + + @ ] < X . . ",
"    o . + ~ k $ & & & & & & & $ $ # # + + + + + # # # # $ $ & : c u.V c.5.5.5.~.u.v.!.5.m Z S..Xi.5.c.m.=X5XG.w.3.2.>.n.n.{ ] E 3 2 2 2 2 2 2 2 ..] 2 l i.8 2 < < < i 0.< & & & & & & & & & Q ' $ $ $ $ & & > 2 3 u _ S.z 4 2 2 2.v & $ $ $ $ # # @ $ ] , . . o     o . . ~ k $ & & & & & & & $ $ # # + + + + + # # # # $ $ & & k i.C d.2.5.2.~.u.v.!.5.M K L.$Xu.>.d.b.*X8XU.0.3.2.{ v.n.{ [ E 3 2 2 2 2 2 2 2 ..{ 2 l i.8 2 < < > k u.< & & & & & & & & & Q ] $ $ $ $ & & > 2 3 u _ H.z 7 2 2 4.v $ $ $ $ # # # + $ ] < X X . ",
"    . . + ! k $ $ $ $ $ $ $ $ $ # # + + + + + + + # # $ $ $ & : k c.d.v.>.S.S.u.p p E S.0.J P n.Y.` c.i. X0X].n.,.M z 5.5.i y 3 2 2 < < < < 2 2 ..] 2 l i.i 2 2 2 < k u.2 : : : & & : > > B 0.v & & & & & > < 2 y z Y.6X( u 3 2 5.v & & $ $ $ $ # # $ ] , . . o o o o . . ! k @ $ $ $ $ $ $ $ $ @ + + + + + + + # # # # $ $ & & 8 g.i.c...S.S.d.p p K S.i.L P b.Y._ d.i. X0X.XF.,.M s 2.5.y 4 3 2 2 < < < < < 2 ..] 2 l i.i 2 2 2 < c u.2 & & & & & & > > b 0.v & & & & & * < 2 u z Y.6X( u 3 2 5.v & & $ $ $ $ # # $ ] < X X . ",
"    . X + Q 8 + # # # # $ # # + + + + . + + + + @ # # # $ $ & : < i m l i m C l i i i C v.S.Q.!.S.T.v.3.;.M.2X*XE.L z 5.5.y 8 3 2 < < < < < < < ..' 2 l i.i 2 2 2 2 v u.2 > > > > > < < m c.Z > : & & & > > 2 7 a ` XX XP y 4 3 6.v & & & $ $ $ $ : < { , O . . o o o . + ~ i O @ # # # # @ @ O + O O O + + + + + # # # $ $ $ & < i v v i M Z v y i i C v.S.T.T.n.K.c.9.-.G.5X2X~.G m 2.5.u 4 2 2 < > > > < < < ..] 2 l i.i 2 2 2 2 v u.2 > > > > < < < B c.Z > : & & & & > 2 4 a ` XX'.P i 4 3 6.B & & & $ $ $ $ : < { < + X X ",
"  o . X X E 8 . + + + + + + + . X X X . X + @ # @ @ # # $ $ $ & : < < 2 2 2 3 3 4 7 y a M d.6X6Xv.^.S.3.H [ ~.c.E.i.d.S.7.7 3 2 < < : : : < < < ..' 2 l i.i 3 3 4 3 v u.5 < < < < < 2 V n.I.i 2 > > : * > 2 3 i _ R.3.P z i u 4 0.B > & & & & $ V 2.>.0., + + . o o . . O ! 8 . O O + + + O . . . . . . . + @ $ + @ # # $ $ $ & : < < 2 2 2 2 2 3 7 y a m y.2X6Xc.T.v.0.I &.~.b.R.w.d.n.5.7 3 2 < < : : : > < < ..] 2 l i.i 3 3 7 3 B d.5 < < < < 2 2 V n.I.p 2 > > & > < 2 3 y ! Y.3.P m p u 4 0.V > & & & $ $ V 2.>.i.< + + X ",
"o o X X X E 8 . X X X X X . . . . . X X X # V _ 5 $ $ $ & & : < < 2 3 8 8 i v 3 3 3 7 i p d [ '.[ } i.R.Z.I..X'.S.Z.!.{...4 2 < < : & : & : < < ..' 2 l i.i 4 i _ K m i.3 2 2 2 2 2 V z.{ b.l 2 2 < > > < 2 7 ~ Y.>.J J M z i u y.V > > : & & & [ V k 0., + + . . . . . . ! i . . . . . . . o o . . . . . $ C ' 6 $ $ $ & & : < < 2 3 8 8 i m 3 2 3 7 y i p _ ~._ ! u.~.S.Y..X'.n.v.R.'.{ 3 2 < > : & & & : > < ..] 2 l i.i 7 i W Z m d.3 2 2 2 2 2 Z v.*.b.l 2 < < < < 2 2 4 ! H.>.L L C z i u y.V < > : & & & ' V k i.< + + + ",
"o . X X : ..V X . . . o o o o o o o . . . < *.*.3.' ] { ....>.2.5.5.6.0.0.d.F.k 2 2 3 7 y i Z S.V p m K ! ~ ~ ! J J v.5.i 3 2 < : & & & & & > < ..' 2 l i.i 8 m '.c.C d.8 2 2 2 2 Z c.! >.'.3.i 2 2 < < 2 2 K S.2.g.Y.Y.H.S.{ y u.C < > > & & & { 2.' i.< @ @ + . . . . & >.Z + . . o o o o o o o o o . . < >.>.3.[ { { ....>.2.5.5.9.0.0.z.F.l 2 2 2 3 7 y m n.m i m ! ~ ~ ! ! C C z.4.i 2 2 > & & & & & & > > ..] 2 l i.p 8 m _.c.Z g.8 2 2 2 2 Z c._ >.'.3.i 2 2 < 2 2 3 Z Z.>.g.R.Y.H.S.{ y u.Z 2 < > : : & { 2.' z.< # # + ",
". . X + E >.>., o o             o o o . . $ Z ~ 8 < < < 2 2 5 5 5 3 3 8 8 k V 2 < 2 2 2 3 4 m v.Q V Z K E Q ! ! ! d.5.i 3 2 < : & $ $ $ & & : < ..' 2 l i.p 8 i i.2.C z.i 3 3 3 8 d._ m I.3.b.E 2 2 2 2 2 3 i.>.g.Z.} ` W 2.d.i i.Z 2 < > > & * ..2.~ 0.< # # @ O . . . Q 3.3.< o                 o o . . # V ~ 8 < < < < 2 2 2 2 5 3 8 8 k C 2 < < 2 2 3 4 v z.Q Z K K Q ! ! ! Q u.5.y 3 2 > & & $ $ $ & & : > ..' 2 l i.l 8 p d.2.C z.i 3 3 3 y d._ m I.3.z.E 2 2 2 2 2 7 i.>.d.Z.` ` W >.d.p i.Z 2 2 < > < : { 3.! w.1 # # + ",
"X + + + ! ..>.<                   o o . X + @ $ # # # # $ $ $ $ $ & & & & & & : > > < < 2 2 7 ] s.d.g.c.v.Z.Z.Z.Z.2.y 3 2 < : & $ $ $ $ & & : < ..' 2 l i.i 8 y 7.' C z.i 7 7 7 i z.M m F.v.S.Z 2 2 2 2 2 8 i.{ Y.P i.!.[ ' c.l d.Z 2 2 < < > > { B 2 3.< $ $ @ + O O O ~ ..3.1                   o o . . . + # # # # # # $ $ $ $ $ $ & & & & : : > < < 2 2 3 ~ u.d.g.c.v.v.v.Z.Z.2.y 2 2 < & & $ $ $ $ $ & : > ..' 2 l p.l 8 y 6.' C c.i 7 8 8 l z.M M J.b.F.K 3 2 2 2 3 y i.{ S.P i.^.*.} c.l d.E 2 2 2 < < < { B < 5.5 $ $ # ",
"b V + + 5 D b @ o               o o o X . + + + # # # # # # $ $ $ $ $ $ $ $ $ & & & : > < < 2 2 3 8 y i i i i i i 4 2 2 < & & $ $ $ $ $ $ & : > ..' 2 l i.l 8 y 6.' C z.k 8 y y l z.M p _ S.2.y 3 3 2 2 3 y i.] S.P S.%X,.' c.l z.E 3 2 2 < < < ..B 2 5.2 $ $ # b D + O 6 D B @ o                 o o o . . X O + + + # # # $ $ $ $ $ $ $ $ $ & & & & : < < 2 2 7 7 y y y i i i y 3 2 2 < & & $ $ $ $ $ $ & : * { ' 2 l g.l 8 y 6.' C v.l y y i m c.M s _ F.2.i 7 3 3 3 3 y i.{ Z.L S.1X3.' c.l g.E 3 2 2 2 < < { B 1 5.5 $ $ # ",
"~ ' # + X . . .               o o . . . X X + + + + + + + # # # # $ $ $ $ $ $ $ $ $ $ & : : < < 2 2 2 2 2 3 3 2 2 2 < < & & $ $ $ $ $ $ $ & : > ..' 2 l p.l 8 y 6.' V z.l y i i z c.M a K z.C 7 3 3 3 3 3 i d.] Z.P 9.z.9.>.c.l c.E 3 2 2 2 < < ..B 2 9.5 $ $ $ Q ] # + . . . o o               o o o . . . X X + + + + + @ # # # # $ $ $ $ $ $ $ $ $ & & : < < < 2 2 2 2 2 3 2 2 2 < > & & $ $ $ $ $ $ $ & : > ..' 2 l z.l 8 y 6.' C v.l y i p m v.Z a K z.C 7 7 3 3 3 7 i d.{ Z.K 9.z.9.>.c.z g.W 7 3 2 2 2 < { V 2 9.5 $ $ $ ",
"E C @ + + X X . o o         o o o . X X X X + + + + + + + + + + + + # # @ # # # # $ $ $ $ & & : > < < < < < < < < > & & $ $ $ $ $ $ $ $ $ & : >  .' 2 l g.l 8 y 6.' C v.l i i p m v.M K c.~ 8 7 3 3 3 3 8 i g.] Z.>.Y.6.Y.i.g.z c.! 8 3 2 2 2 < { B 2 9.5 & $ $ V D @ + + X . . o   o         o o o o . . X X X + + + + + O O + O + + + @ @ # # # $ $ $ $ & & : > < < < < < < < > > : & $ $ $ # @ @ @ $ $ & & : ..' 2 l g.l 8 y 0.' C v.l i p p m Z.J W v.~ y 8 3 3 3 3 8 i g.{ v.>.K.5.I.i.c.z z.! y 7 3 2 2 2 { V 2 0.5 $ $ $ ",
"Q V @ + + X X . o o o o o . . . . . . . + + + + + + + O O X X . . O O O + + + + + + # # $ $ $ $ & & & & & & & & & & $ $ $ $ # # # $ $ $ $ & : > ..' 2 l g.l 8 y 0.] C v.l i p p M v.! S.' i y 7 3 3 8 8 8 i g.{ S.2.u.m c.d.g.z c.! y 8 3 2 2 2 2.b 2 9.3 & & $ D E # + + . . . o o o o o o o o o . . . X X X X X X X X . . . . . . O O X + + + + + @ # $ $ $ $ & & & & & & & & & & & $ $ $ # @ @ @ @ $ $ & & : ..' 2 l g.l y y 0.] C b.l p p p M Z._ H.{ i y 8 3 3 3 3 8 i g.{ v.>.9.m d.i.c.m c.~ y y 3 3 2 2 2.V 2 0.8 & & $ ",
"Q Z # # + X X . . o o o . . . X X + + + + + + + + + + + X X X X . . . . . . . . X X + + # # # $ $ $ $ $ $ $ $ $ $ $ $ $ # # # # # # $ $ $ & & >  .~ 2 l g.l y y u.] C v.z p p p M Z.` H.m i y 8 3 3 3 8 8 i g.{ S.5.u.m c.i.d.z c.~ i y y 3 3 ' 5.8 2 0.8 & & $ E Q # # + X X . . o o o o o o . . . . . X X X X X X X X . . . . . . . . o . . X X X + + @ # $ $ $ $ $ $ $ $ $ $ $ $ $ $ # @ @ + @ @ @ $ $ & & : ..' 2 l g.l y y u.] C Z.z p p p M S.{ I.m i y 8 7 3 3 3 8 i g.{ Z.3.9.z d.i.g.m c._ p i y 7 7 ' 9.8 5 0.8 & & & ",
"! E # # + + X X . . . . . O O + + @ # # # # # @ # + + + X X X X . . o o . . . . . . X X + + + @ # # $ $ $ $ $ $ # # # # # # # # # $ $ $ $ & : >  .~ 2 l g.l y y u.] Z b.z p p s C Z.{ H.m p y 8 3 3 3 8 8 i g...S.6.S.>.Y.d.d.l c._ p p i i { 0.k < 8 9.8 & & & Q ! $ # + + X . . . . . . . . . O O + O + + + + X X X X . . o o o o o o o o o . . . X X + + @ @ # $ $ $ $ $ $ $ # # @ @ + + + + + @ @ $ $ & & :  .' 2 l g.k 8 y u.] Z Z.m p p z C S.{ I.C p i y 8 3 3 8 8 i g...S.5.v.` S.i.g.m c.' l p p p ..i.l 2 8 u.8 : : & ",
"~ E $ $ # + + X X X X + + @ @ # $ $ $ $ $ $ $ $ $ # @ + + X X . . . o o         . . . . . X X + + + + @ @ # # # + + + + + # # $ $ $ $ $ & & : >  .~ 2 l d.l y y u.{ K S.m p p s C S.>.R.K m i 8 8 3 3 3 8 i c.>.Y.{ H.I.v.5.g.m c.' z z m 6.c.m 2 2 8 0.8 : : & Q ~ $ $ # + + . . . . . . . + + + + + + + + + + + O X . X . o o o o o             o . . . . + + + + @ # @ # @ + + + + + + O O O + + @ $ $ $ & :  .' 2 l g.l y i u...K S.m p p z C S.>.Y.W m p i 8 3 8 8 8 i g.>.Y.*.H.H.c.3.d.m c.' z z M 0.v.m 3 2 8 u.i > > : ",
"~ Q $ $ # # + + + + + @ # $ $ $ $ & & & & & & $ $ $ $ # + + X . . . o               o . . . . X X X X + + + + + + + + + # # $ $ $ & & & & & : >  .~ 2 l g.l y i u.{ E H.m p p p C S.>.$XY.Z.m y 7 3 3 8 8 i c.>.Y.( c.S.5.' d.m z._ G ( z.H.J i 7 2 8 u.8 > : & Q ' $ $ # # + + O O + + + + + + @ # # # # # # # + + + . . . . o o                     o o . . . X X + + + + X . . . . . . . . O + + @ $ $ $ & : ] ~ 2 l d.l y i u...E H.m l l z C S.>.XXR.S.C i 8 7 8 8 8 i g.>.Y.( c.H.5._ d.m z.` J ) c.I.J i 7 3 8 u.k < < > ",
"] ! $ $ $ $ # # @ # # $ & 8 < > > < < < < < < > : & & $ $ # # + + X X X . . . . . . . . X X X X + + + + + + + + + + # # $ $ $ > ! >.i & & : : >  .~ < k d.l y i u.....{.K p p p C K.3.XX0.R.Z y 8 3 3 3 8 i c.>.Y.] ^.~.Z.' d.m z.` 3.=X#X_ p i 7 3 i d.i < < & ! ] $ $ $ # # # # # # # # # # # # # # # $ # # # # @ @ + X . . o o                           o o o . . . . . . . . . . . . . . . + + # $ $ $ & : ] ~ < k d.l y i u...{ {.W l p l C S.,..Xw.E.K i y 7 3 8 8 i z.>.Y.' ^.~.S._ i.m z.[ 9.2X*X_ s i 8 3 i d.k < < < ",
"] ~ : : $ $ $ $ $ $ $ $ 6 c.6.>.2.5.5.5.5.5.5.3.>.>.>...{ ] ' ' ~ ~ ~ ~ ! ~ ! ! ! ! ! ! ~ ~ ~ ~ ~ ~ ~ ~ ' ' ' ' ] ] ] ........9.b.i.>.& & : : > ..~ < i d.l y i u...3..XW p p p C S.,.4X~.Y.C y 8 3 3 3 8 i c.{ ..K h.$X0.] g.m c.[ z.yXU.G p i 8 3 i g.k < < > ~ ] : & $ $ $ $ $ $ $ $ # # $ $ $ $ $ $ $ $ $ $ $ $ @ @ + O . . o                               o o o o o o o o o o . o . o . . . + @ $ $ $ & & ] ~ < i i.l y i u...3..X_ p p l C S.,.*X~.Y.Z i y 7 8 8 8 i c.[ >.K g.-Xy._ i.m z.;.z.pXE.G p i y 3 i g.k 2 2 2 ",
" .' : : & $ $ $ $ $ $ $ : B k 8 i i i i i i i i i 8 8 3 5 5 2 < < < < , , , , , , , , , , , , , , , < < < < 1 1 1 1 5 5 8 8 8 v 9.i.V & & & : > ..~ < i i.p 8 i u...m J p i i p m S.>.'.{ K p y 7 3 3 3 8 i z._ l m K H.W ..z.M b.[ ` ).*.z p i u 7 k g.k < < > ~ ] : & & $ $ $ $ $ $ $ $ $ $ $ $ $ $ $ $ $ $ $ $ $ # # + O . . o                                                 o o o o o . . . + @ # $ $ & : ] ~ < i i.i 4 y u...z J l p p p m S.>.~.` K l i 8 7 8 8 8 i c.' m m K I.W [ i.m z.*.` _.-.M p i y 7 i h.v 2 2 2 ",
"o.{ < < < > > : : : : : : > < < 2 2 2 2 2 2 < < & & $ $ # + + X . .                                         o   . . . X + # $ $ < 5 & & & & : & ..! < i i.i 3 u u.] i i i i i i m Z...E.L s p y 7 3 3 7 8 i p.! p v K S.~ c.~.J b.[ M b.P p i i u 7 l g.l 2 2 2 ] ..< < < > : : : : : : & : : : : : : > > > > : $ $ $ @ @ + X . . o                                                     o o o . . O @ # $ $ & & ..~ < i i.i 3 7 y.] u i i i i i m S.>.R.J s p i 7 7 8 8 y i z.~ l m K H.! z.~.M c.{ M b.W p p i y 7 l c.v 3 3 8 ",
"S.v.r.6.6.5.5.4.4.4.4.4.4.4.5.5.7.7.7.7.5.5.5.5.! > & $ $ # + X X . .                                         o o o X X + + # $ $ $ $ $ & & & v w.B < m b.l 2 4 0.' u y y y y y m Z.] ~.J p a u 7 7 7 7 y i i.E i p K S.~ 2.i.>.U.! m b.K i i i y 7 l c.v 2 2 Z S.Z.u.t.6.5.5.4.2.2.2.2.2.4.4.4.4.4.5.5.5.5.5.5.Q & $ $ # @ O . . o                                                     o o o . . + + @ $ $ & l i.B < m v.k 2 3 0.' 7 y y y y i m Z...E.J p p y 7 7 8 y i i p.Q i l Z H.! 3.i.*.U.W m c.K p i y y 8 l Z.v 3 3 B ",
"v k k k i 8 8 8 8 3 8 8 8 8 8 8 8 8 8 8 8 8 8 k >.~ > $ $ # @ + X . o                                               o . . X + + # # $ $ $ & 8 0.Z < < K F.m 2 2 5.>.4 7 7 8 8 y v Z.! K.0.p i 7 8 7 y i l z g.E i i K H.E m ' Y...m Z Z.Z i i y y y m v.m 3 2 8 v v k k i i 8 8 8 3 3 3 8 8 8 8 8 8 8 8 8 8 8 i >.! & $ $ @ + . X . o                                                     o o . . O + @ $ $ 5 0.E < < V Z.v 2 2 6.>.4 7 7 8 y y v Z.~ K.0.s i y y 7 y i m M z.E i l K H.E m ` Y.{ p M n.K i i y y y v Z.m 7 8 i ",
"2 2 2 < > > : & & & & & & & & & & & & * & * * * 2 *.~ & $ $ @ + X X . o                                               o o X . O + # # $ $ $ v 3.< > < 3 p 3 2 2 V v.Q 3 4 4 4 8 l v.J J S...y u y u y K c.i.i.m 8 B d.>.m ~ S...m Z g.5.p y y y y y m S.m 7 7 3 2 2 2 < > > & & & & & & & & & & & & & & & & & & < { ! & $ # @ + X . . o                                                     o o . X + @ $ $ c 3.< > > 2 i 2 2 2 V v.! 3 4 7 7 y l v.J K S.2.p y y y y K n.z.d.m i V z.2.m ~ Y.{ z M i.5.p y y y y y m S.V y y i ",
"3 2 2 2 < > > > > > : & & & & & & * > > > > > > * 2 { ~ & $ # @ + X . o                                                 o o . X X + @ # $ $ c 2., & & > < < < < < V v.E 3 3 3 7 i c.2.i B c.' y y y i ' d.M l 8 v i...i ! S...l Z n.0.p y y y 8 y y m S.C y y 7 4 3 2 2 2 < > > & & & & & & & & & & & * & * * & & < { ~ $ $ # + + . . o                                                   o o o . X + @ # $ c 2.: & : > > < < 2 2 Z A.E 3 3 3 7 i g...a C Z...p i i y _ d.m m i m z.>.p ~ H.{ l C c.7.i y y y y y y m S.C i i i ",
"3 2 2 2 2 > > > > * * & & & & & & & & & * * 2 2 > & i 5.: $ $ @ + + . . o                                               o o . X X + + # $ $ c 2.& & & & > < < < < < V v.Q 3 3 4 8 V Z.{ 4 V v.{ y y u ' u.p i B i.{ i E Z.{ l Z n.0.p y 8 7 y y y y m H.C p i i u 4 3 2 2 < > > * & & & & & & & & & & & * * > > & & 8 5.> $ $ # + O . o o                                                   o o . X + + # # c 2.& & & : > > < < 2 2 Z b.Q 3 3 3 3 V Z.{ i V v...p y y _ i.l i C d...p E S.{ p C c.5.i 8 8 y y y y i m H.Z p p p ",
"u.t.t.7.7.7.7.4.4.2.2.o.o.o.o.............o.i.4.2 & 8 5.< $ $ $ @ + X X o o o                                           o o o . X X + @ # $ k 2.& & & & : : : > < < < V v.Q 3 3 7 7 V n.>.i K Z.0.3.5.z.0.p C d...i E v.' p Z n.5.p i [ y.0.0.u.u.u.z..XZ.c.c.g.d.u.u.t.r.7.7.4.4.o.o.o.o.o.X...............u.2.> & 8 5.< $ $ $ @ + + . o o                                                 o o . X + + # # k 2.& & & & : : : > < < 2 Z b.Q 2 3 4 7 C n.>.p Z C.i.6.6.c.i.p C z...p E S.' i C c.4.i i ' y.u.u.u.y.i.z.{.v.g.g.g.",
".. .] ' ' ~ ~ ! Q Q E E E D D D D Z Z Z E E ..' < & i 6.< & $ $ # + + X . . o o o   o o o                                 o . . X X + + # # k 2.& $ $ $ & & : : > < < 2 V v.Q 3 4 u y Z S.6.z m E E E E m m d.>.p ! n.~ i B c...8 y ..v.~ E E ! ! ~ ' ' ] { { { { ] ' ' ~ ~ ! ! Q E E D D Z V V V V V Z Z Z ] ~ > & i 0.< & $ $ # @ + . . o o o o o o   o                   o o           o o . . X X + # # i o.$ $ $ & & & & : > < < 2 V v.E 3 3 7 u C Z.6.z M W E E E m m d...p ! n.' i B g.>.y y ..n.! E E E W ! ~ ~ _ ' ' ' ",
"8 7 3 3 2 2 2 2 < > : & & & & & & & & & & & * > > & i 6.< & & $ $ # @ + + X X . . . . . . . . . . o . . . o . . o o o o o o o . . X X + # # i o.$ $ $ $ $ & & : & > < < 2 V v.Q 4 7 y i E Y.v.2...........d...p ~ S.~ i V z.{ 3 3 { c.V 8 7 8 8 y y i i i i i i y y 7 3 2 2 2 2 < > & & & & $ $ & & & & & & & : : > i y.2 & & $ $ $ @ + + X X . X X . . . o . . o o o o o o o o o o o o o o . . X X X + + # 8 o.$ $ $ $ $ & & : : > < 2 2 Z Z.E 3 4 y i Z S.Z.7.4.2.......i...i ~ n.~ y m z.{ 7 8 ..v.V 3 3 7 8 y y i p p p p p ",
"i i 7 7 7 3 3 2 2 < < : & & & & & & & & & & : > > > k u.2 & & & $ $ $ @ + + + + X X X X X X X X X . X X . . X X X . . . o . . . . X X + @ # i o.$ $ $ $ $ $ & & & : < < 2 2 K Z.Q 3 y p z >.=Xv.2.>.......! i ! n.~ i V z.] 2 2 ] i.v 3 8 8 8 y i i i p p p p i i y y 8 7 3 2 2 2 < < : & & & & & & & & & & : : : > k u.5 : & $ $ $ $ @ @ + + + + X . . X . . . . . . . . . . . . . . . . . . . X X X + + + 8 o.$ $ $ $ $ $ & & & : < < 2 2 E S.E 3 u p z { =XS.5.4.2.>...! y Q n.~ i V d.] 3 3 ] z.m 3 3 8 8 8 y i p p p p p l ",
"i i i y 8 7 3 3 2 < < : & & $ $ $ $ $ & & & : > > > c u.2 > : & & $ $ $ $ @ # @ @ + + + + + + + + + + + + + X X X X X . . . . . . X X + + + 8 ..$ $ $ $ $ $ $ & & & > < 2 2 3 Z v.Q 8 p z c.eX3.l i i 8 8 8 ! v.! i K c.[ 2 2 ] y.k 2 3 3 8 8 y i i i p p p p i i i y y y 8 3 2 2 < < : & & & $ $ $ & & & & : : > > c i.5 > : & & $ $ $ $ # # @ # + + + + + + + + + + O + O + . X X X X X X . . X X X + + + 8 ..$ $ $ $ $ $ $ & & : > < < 2 2 E Z.Q y p z i.eX9.z p i y 8 3 E c.E y Z c.' 3 3 { g.v 2 3 3 8 8 y i i p p p p z z ",
"p p i i i z m p 3 2 < < & & & $ $ $ $ & & : : > < < v u.5 < < > & & & $ $ $ $ $ $ $ $ # $ $ $ # # # @ @ # + + + + X X X X X . . X X X + + + 8 ..$ # $ $ $ $ $ $ & : : < < 2 2 2 D C.! i d 5.|.K z l i i i ~ v.E i K n.' 7 8 ] y.i 2 2 2 5 8 8 i i p l p p p p p p i i i i m m p 2 < < : & & & $ & $ $ & & : : : < < v d.3 < < > : & & $ $ $ $ $ $ # # # # # # # # # # # @ @ @ + + + X X X X X X X X X + + + 8 ..$ $ $ $ $ $ $ $ & : : < < 2 2 3 ! S.' p s 2. XP z l i i i Q g.Z y Z c.' 3 8 { i.v 2 2 2 3 3 8 y i p l s z z z z ",
"l l p p m Z.Z.c.i 2 < < : & & $ $ $ $ & : : > < < 2 b d.3 2 2 < > > & & & & & & $ $ $ $ $ $ $ $ $ $ $ $ # # # # + + + + X . X X X X X + + + 8 { $ # # # $ $ $ $ $ & & > < < 2 2 2 Q { p p { S.m l p i i ] S.K 7 Z n.` u 8 ] 0.i 2 2 2 2 2 3 8 i p 6.Z.0.m l l l l p p p m Z.Z.c.i 2 < > & & & $ $ $ $ & : : : < < < b g.8 2 < < < > : & & & $ $ $ $ $ $ $ $ $ $ $ $ $ $ $ # # # + + + + X X X . X X X + + + 8 { $ # # $ $ $ $ $ $ & : > < 2 2 3 7 ~ >.p p ' K.m l l i i ~ v.Z 3 V c._ 4 8 ] i.k 2 2 2 2 2 3 8 i p 4.Z.0.m z m M ",
"x z l l K Y.{ S.v 2 2 < : : & & & $ & & : > < < 2 2 V g.8 2 2 2 2 < < < > > : & & & & & & & & & & $ $ $ $ $ $ @ # # @ + X X X X X X X X + + 6 9.~ ~ ~ ~ ~ ~ ] ] ] ......2.4.4.6.u.Z.7.p i ~ c.l p p p ] S.E 4 Z z._ [ Z p d.v 2 2 2 2 2 2 5 8 y m Y.v.T.C m m z m m l p J Y.{ n.v 2 < < : & & $ & & & & : , < < 2 2 B g.8 2 2 2 2 2 < < > : : : & & & & & & & & & $ $ $ $ $ $ # # # # + + + X . X X X X + + 6 0.~ ~ ~ ~ ~ ~ ^ ' ]  .....2.4.5.6.u.Z.5.p a ~ S.m p i i ' n.E 8 V z.W ' Z p c.v 2 2 2 2 2 2 3 8 y l S.c.Y.J M M G ",
",.M z z K H.H.R.m 2 2 < > : & & & & : : , < < 2 2 3 V c.i 3 3 3 2 2 2 2 2 < < < < < > > > > > > : & & & & $ $ $ $ # # # + + X X X X X X X + $ c b b b b B B B V V D D E E Q ! ~ ] 2.~ i y ! d.i i l ..Y.E 8 Z z.E ~ n.B i i.8 2 2 2 2 2 2 3 B ~ ..R.5.Y.C m J i.5.M m s C S.S.R.B 2 2 < > & & & & & & : : < < 2 2 3 V c.i 3 3 3 3 2 2 2 2 < < < < < < > > > : : & & & & & $ $ $ $ $ # # # + + X X X X X + + $ c b b b b b B B V V V D E E Q ~ ' ] 2.~ i i ! v.v i i ' S.W y K b.E ! S.V i i.i 2 2 2 2 2 2 3 m ~ [ Y.>.Y.K M ( z.",
"!.P J M z C W U.Z 3 2 2 < > & & & & : , < < 2 3 7 7 Z c.k y 7 7 7 7 7 3 2 2 2 2 2 2 < < < < < < < < > : : & & $ $ $ $ # # + + X X X X X X X + X + + + + + # # $ $ $ $ & & & < 2 2 3 7 8 4 E u.8 v d.Y.~ a ! c.K E d.V 2 8 0.b < < < < 2 2 B v.0.6.9.{ Y.K K [ 6X[.( L M v M W I.Z 2 2 2 < : & & & & : , < < 2 2 3 7 V c.k y y i i y 7 3 2 2 2 2 2 < < < < < < < < < > : & & & $ $ $ $ # # # + + + X X X + + + + + + + + # # # $ $ $ $ & & > > 2 2 3 3 8 7 E c.i v d.H.~ i ! n.W E c.V 2 8 0.v < 2 2 2 2 2 V v.9.3.9.' Y.K P ,.3X",
"#X!.~.d.m p M H.c.V 2 2 < < < : & & < < < 2 3 8 i i Z H.Z i i i E ~ m v l l l k k i i i i i i i i i 8 3 5 5 2 < < & $ $ # @ + + X X X X X X X + + + + + # # # $ $ $ $ & & : < < < 2 2 3 3 K u.3 v g.[ a _ n.Q v z.V 2 2 < V 5.v < < < < k d.{ i i l E S.' !.~.#X#X~.^.g.m p m F.c.V 2 2 < < : & : : , < < 2 2 8 y i C S.Z i p z _ _ V v l l k k k k i i i i i k i i 8 8 8 3 5 5 2 < < : $ # # + + + X X X X + + + + + # # # # $ $ $ $ & & : > < < 2 2 3 3 Z d.i v z.] i ! S.! m c.Z 2 2 < V 5.v < < 2 2 v g.] i i l K S._ !.'.-X",
"` ' 3.H.M p p M ' c.V 2 2 < < < < < < < 2 2 8 z _ C z 5.A.C i z Y.=XA.c.c.g.g.g.g.p.p.i.i.i.i.i.i.i.i.y.9.5.5.2.5.! & $ # # @ O X X X X X X X X X X + + + + # # # $ $ $ $ & & , < < 2 2 2 Z 6.2 3 i i Z n.Q 2 V 0.2 2 < < < V 0.v < < 8 6.' u y i i V Z.] Y.] _ ' ' 4.S.m p p M { n.Z 2 < < < , : , < < 2 2 4 l _ C l 2.n.K s J [.$XA.c.c.c.g.g.g.g.g.p.i.p.i.i.i.i.i.i.0.9.5.3.3.>.>.2.b $ # # + + X X X X X X + + + + + + # # # $ $ $ $ & : : > < 2 2 2 V u.3 7 p i C n.~ 3 Z i.2 2 < < < V u.v < < i y.' 7 7 i i Z S.` Y.` _ ",
"s z E Z.M p i i y ! v.K 2 < < < - < < < 2 3 y K ].v.M z 2.b.K z _ { C M m m z l l l l p l p l z P ) m l i i 8 5 8 ..D $ # # @ + + X X . X X X X X X X X X + + + # # # $ $ $ $ & & : < < 2 C 0.3 3 3 3 ! 5.2 2 V 0.2 2 < < < : ] Q < 8 5.~ 2 3 3 7 8 V c.~ Z.C m m m Q v.l p a a a _ n.E 2 < < < & < < < 2 3 y J ).c.M v 4.F.W M ` _ m m m l l p p p p p p p p l K W l i i 8 8 5 2 < < 8 >.B $ # # + X X X X X X X X X + + + + + # # # $ $ $ $ & : : < < 2 V u.3 3 3 3 ! u.7 2 V 0.2 2 < < < > { ! < 8 5.' 3 3 3 7 y C Z._ A.M m ",
"0.u.g.v.l m ..>.~ i E c.Q v v v v v v b B V p m >.'.c.M l 2.S.u.u.u.i.u.u.u.u.u.u.u.u.u.u.u.u.u. X$XP y 3 2 < < & c { $ $ # # + + X X . . . . . X X . . . . + + + + # # # $ $ $ & & : < < V 0.3 2 2 2 Z 2.2 2 V 0.2 < < > : & ~ Q & ~ 5.2 2 2 2 3 3 V h.W Y.d.d.d.u.g.Z.l M 2.2.~ a E g.Q c c c c v v b B B i l *.].z.C m 5.J.i.u.u.u.u.u.u.t.t.6.6.0.0.0.0.u.u.&X XC 8 2 2 2 < < : & $ 8 2.: # # + X X X . . X X X X . . . + + + + # # $ $ $ $ & : : > > v t.2 2 2 3 ! 0.2 2 V 0.2 < < > : & ~ Q & Q 2.2 2 2 2 3 7 m v.W Y.u.0.",
">.....W i ' S.y.c.i 4 V 6.u.u.u.u.u.f.g.g.Z.u.m m _ J.y.m l { 6.6.6.7.7.7.5.5.4.4.4.4.4.4.4.2.4.S.L.Z i 3 2 < < & v ..$ $ # # + X X X . . o o o . . . . X X X X + + + + # # $ $ $ & & & * V 9.3 2 2 < V 2.< 2 V 5.2 < > : : & ~ D & [ { 2 2 < 2 2 3 B g.m ] 2.4.2.2.>.~ p ] S.y.g.y 3 B 6.u.s.s.s.s.d.g.g.v.6.v l _ !.g.C M ..7.4.4.4.4.4.4.4.4.5.5.5.5.5.5.4.5.Y.Y.m 8 3 2 2 < < : & & < >., # # + X X . . . . . . . . . . X X X + + + # # $ $ $ & & : * v 9.2 2 2 2 W 5.2 < V 6.2 < > : : & ! Q & ! ' > < 2 2 2 3 m c.m ~ { { ",
"V Z Z Z V ..d.{ c.y 3 2 2 2 2 2 2 2 3 7 8 l u.i.m l K v.u.m p z m m v p p p p p p p p p p i i i v v i 8 3 2 < < : v >.$ $ # # + X X . . o o     o o o o . . . . X X + + + # # $ $ $ & & & E b.7 < < > V ..< < V 5.< < : & & & ~ Z & ' ] 2 < < < 2 2 v c.Z C Z K K K Z K C 2.i.] u.3 2 2 2 5 5 6 8 8 8 8 8 i u.6.v l W Y.g.C z p p p p p p p p p p p p p p p p p m m i 3 5 2 2 < < : & & 1 >., # # + X X . . . o o o . . . . X X X X + + + # # $ $ $ & & & E b.8 < < 2 E 5.2 < B 6.< < : : & & ! E $ Q ~ : < < 2 2 2 v v.Z V m M ",
"g.g.g.g.u.>.u.u.] 3 2 2 2 2 2 2 2 2 2 2 3 3 i y.u.m l Z v.g.C m m m v v p p p p p p p p p p i i 8 8 8 2 2 2 < < > _ { $ $ # # + X X . . o       o o o o o . . X X X X + + + # # $ $ $ & & E y.3 > > > V 2.< < V 5.< : & & & & ~ Z & ' [ < < < < < 2 8 2.u.u.i.g.g.g.g.g.u.{ 7.7.! 2 2 2 1 1 2 2 2 2 2 2 3 2 8 6.0.m z W S.i.m l l l l l p p p p p p p p p p i i i y 8 3 2 2 2 < < : & & 2 3., # + + X X . o     o o o o o o . . . X X X + + @ # $ $ $ & & Z i.8 > < < K 3.< < B 5.< > : & & & Q E $ Q ~ : > < < < 2 8 4.y.y.u.d.",
"p i i i i 8 7 4 3 2 2 2 2 2 2 2 2 2 2 2 3 3 7 i 6.p.C m J C.D.c.g.g.g.g.g.g.g.g.g.g.g.g.g.g.d.u.t.6.7.4.2.>.....2.9.3 $ $ # + + . X X o o   o   o o o o o o o . X X X X + + + # @ $ $ & & > < & & > > V 2.2 < B 2.< : & & & & ~ Z & ~ ~ > > > < < < 1 2 8 y i i i i i i i 7 3 5 2 2 2 2 < 2 2 2 2 2 2 2 2 2 3 i u.c.C m K v.v.i.p.g.g.g.g.g.g.g.g.g.g.f.d.0.C i y 8 3 3 2 V ! E 5 & & & Q 2.$ # + + X X . o o o o o o o o o o . . X X X O + + @ # $ $ $ & * 2 * & > * C 2.> < b 5.< > & & & $ Q D $ Q ~ & : > < < < 2 2 8 y i i ",
"7 7 8 7 3 3 3 3 2 2 2 2 2 2 2 2 2 2 2 2 3 3 3 7 k u.v.Z m Z >.>.>.>.>...........>.>.5.6......... .' ' ~ ! E E E E 3 & $ $ # + + X X o o o     o   o o o o o o . X X X X + + + # # $ $ $ & & & & & : > Z i.3 < v 2.: & & & & & ~ K & ! ! : : > > < < < 2 2 3 3 3 7 7 7 8 7 3 5 2 2 2 2 2 < 2 2 2 2 2 2 2 2 2 3 8 v i.v.C z C [ ....>.>.>.>.>.>.>...2.5.u.5.g.Z.C 4 4 3 2 2 0.3.w.B & & K 9.6 $ # + + X . o o o o o o o o o o o o . X X X . + + @ # $ $ $ & & & & & & & V 0.2 * v 3.< & & & & $ Q Z $ Q ~ & : : > > < 2 2 2 3 3 8 ",
"3 3 3 3 2 2 2 2 2 2 2 i ..2.4.5.5.6.6.6.6.5.v 3 y l u.v.K m m M z l p p p i i i p p 5.Y.m 7 7 3 2 2 < < : & & & $ $ $ $ # + + X . . o o o o     o o o o o o . . X X X X + + + # @ $ $ $ $ $ & & & & * E _.V & v >.: & & & & & ' K $ Q W $ & : : > < < < 2 2 2 3 3 3 3 3 2 2 2 2 2 < 2 i ..3.5.5.5.5.6.7.5.2.m y i l 0.z.V l v m z z p p p i i i i i 2.Y.J z 2.v.Z l l l p i.~ 3.B < ! 5.8 $ # + + X X . o o o o o o o o o o . . X X X X + + + @ @ $ $ $ $ & & & & & & D ).V * m 3.< & & & & $ ! D $ E ~ & & : : > < < 2 2 2 3 7 ",
"6.7.7.4.4.4.2.2.2.2.2.i. .V V Z D E E Q E ..i.m u i l 6.S.3.d.c.M l p p p i i i i i 7.^.l 3 3 5 2 2 < < : : & & $ $ $ # # + + X . X o o o o . o o o o o o . X . X X + + + + # # # $ $ $ $ $ & & & & > 7 z.V & v >.& & & & & & ' E $ C 9.] ]  .......2.2.4.4.5.5.5.7.7.7.4.4.4.4.2.2.2.d.2.K K K E E E E E >.c.C y y i 2.z.>.i.v.J z l p p i i i i i 2.'.m y y ~ i.0.q.9.3.w.9.9.k 8 2.8 $ $ # + X X X . o o o o o o o o o . . X X X + + + + @ @ # $ $ $ $ $ $ & & & & 2 d.V * m 2.< & & & & $ ! Q $ V 0.{ { { ......>.2.4.5.5.5.",
"Q E E E E E D D D Z V v > & * > 2 2 2 2 4 C ..z.C y i l >.'.9X=XJ l p i i i i y y y ! g.i 3 2 2 < < < : : & $ $ $ $ # # + + X X X . . . . o o o o o . . X X X X X + + # @ # # # $ $ $ $ $ $ $ & & & > 2 3.b & v >.& & & & & & Z 3.< & k v b b B V V V Z Z D D K E E D D Z Z V V V V V B 2 ; ; > < < < 2 7 K 5.n.C 8 8 i ' ).8X2XW z p i i i i y i y ! c.i 8 3 2 8 8 8 3 2 2 < < & & & $ $ # + + X X X . . o o o o . . . . . X X X X + + @ @ # $ $ $ $ $ $ $ & & & & & > 5.B - m 2.& & $ $ $ $ V 5.2 - v m B B V V V C V Z Z Z E ",
"8 8 8 8 3 3 2 2 2 2 2 2 2 2 2 < 2 2 2 2 l Y.~ { y.7 8 i p W i.R.M p i i i y y 8 8 8 Q g.8 2 < < > : : & $ $ $ $ $ # # + + X X X X . . . . . . . . . X X X + + + + + # # # $ $ $ $ $ $ $ $ $ $ & & & : < 3.v = v w.E B : & & $ & ! >.2 < < < < 2 2 5 5 5 8 8 8 8 8 8 8 8 5 5 5 5 5 2 2 3 8 8 3 < < < < 2 m ~.] ..u.3 8 8 i W i.~.J l i i i y y y y y Q d.8 2 2 2 < < < < < , : & $ $ $ $ # + + X X X X . . . . . . . . . X X X + + + @ # # # $ $ $ $ $ $ $ $ & & & & : < 5.V < m w.K v & $ $ $ & ~ 3.8 2 < < 2 2 2 2 2 3 3 3 7 8 ",
"g.f.a.u.u.u.t.t.t.t.t.t.t.u.i.V < < < 2 3 g.E V u.3 3 8 y i W S.m p i y y 8 8 8 3 3 E i.5 < < : : & & $ $ $ $ # # @ + + X X X X X . . . . . . . X X X + + + # # # # $ $ $ $ $ $ $ $ $ $ $ $ $ & & : , < 3.v = b w.{ 0.< & $ $ $ & ] t.4.7.7.t.t.t.u.u.u.u.u.u.u.u.u.u.u.u.u.u.t.t.u.u.u.s.i.d.V & < < 2 i c.Q m u.5 3 8 y a ! S.m p i 8 8 8 8 8 8 3 Z u.2 1 < < < , , & & & $ $ $ $ # # + + + X X X X X X . X X . . X + + + + + # # # $ $ $ $ $ $ $ $ $ & & & & & : > < 5.V < v w.{ 5.: $ $ $ $ & ] d.6.7.7.7.6.t.u.u.u.u.d.g.g.",
"k k i 8 8 8 8 8 8 8 6 6 5 3 V i.m > < < 2 7.Z B u.3 2 3 7 y K S.V v l l i i i i i i E u.2 < : & $ $ $ $ $ $ # # + + + X X X X X X X X . . . + + + + + # # # $ $ $ $ $ $ $ & & & & & & & & & & & & : , < 3.v - V i.' 0.< & $ $ $ $ & 1 1 5 5 8 8 8 8 8 8 8 8 8 8 8 8 8 8 8 8 8 8 8 8 8 8 8 5 b 0.b : < 2 5 6.D m u.5 2 3 8 y K b.B l l k k k k k i 8 Z 0.2 < , : & & $ $ $ $ $ $ # # + + + X X X X X X X X X X X O + + + @ # # # $ $ $ $ $ $ & & & & & & & & & : : > < 2 9.m * v 9.E 5.: $ $ $ $ $ : 5 2 5 5 5 5 5 8 8 8 8 8 i k ",
"2 2 < < < < < > * & & & & & & ! { & < < 2 5.V m u.2 2 3 3 7 V S.c.h.g.g.g.g.a.u.u.u.p...< : & $ $ $ $ @ # # # + + X X X X X X X X + + + + + + + # # # # $ $ $ $ & & & & & : & : : : : & & : : : , , , < 3.b < i 2.2.! < & $ $ $ $ $ $ $ & & & > > < < < < < < < < < < < < < < < < , : & & & $ D { : < < 2 7.V v 6.2 2 2 3 7 m v.u.p.p.g.g.d.i.u.u.u.i.2.< : & & $ $ $ $ $ # # + + + + + X X X X X X X X X + + + + + # # # $ $ $ $ $ & & & & & : : & : : : : : > < < < 2 9.m < 8 ' { D : & $ $ $ $ $ $ $ & & & & : > < < < < 2 2 ",
"2 2 < < < < < < > * & & & & & Z { & < < < 4.V m 6.2 2 2 2 3 8 l v v v v k k k i 8 8 8 < & $ $ $ $ # # # # # # + + X X X X X X X + + + # # # # # $ $ $ $ $ $ & & & < < < < < < < < < < < < , < < < < < < 0.V 2 2 2 < < : & $ $ $ $ $ $ & : : > > < < < < < < < < < < < < < < < < < < : & : & & V ..: < < 2 4.V v 6.2 2 2 2 2 3 i k c v c k k k i 8 8 8 2 : & $ $ $ $ # # + + + + X X . . X X X X X X X + + + + # # # $ $ $ $ $ & & & : > > > > > > > > < < < < < < 2 2 2 0.V < < > & & & & $ $ $ $ $ $ & & & & : > > < < < 2 2 2 ",
"2 < < < < > > * & & & & & & & Z ..& : < < 4.V v 6.2 2 2 2 2 2 2 2 2 2 < < < < : : & & $ $ $ $ # # # # # # # # + + X X X X X X O O + @ # $ $ $ $ $ $ $ & & & & > < 2 2 2 2 2 2 2 < < < < < < < < < < < < ..d.i 2 2 < < : & & $ $ $ $ & : & * > < > < < < < < < < < < < < < < < < * & & & & & & V ..: < < < 4.V v 6.2 2 2 2 2 2 2 2 2 2 2 < < < , : & & & $ $ $ $ # @ + + + X X X X X X . . . X X X X + + + # # $ $ $ $ $ $ & & & > > < 2 2 2 2 2 < < < < 2 2 2 2 2 2 2 2 { 5.2 < < < > & & & $ $ $ $ & & & & & & * > > < < 2 2 2 ",
"B B B b v v v v k k k k k 2 & Z ..& : < < 4.V v 6.2 2 2 2 2 2 2 2 2 < < < < : : & & $ $ $ $ # # # # # # # # # + + X X . X X O + + # $ : , < < < < < < 2 2 2 3 8 y i l K J 7 3 2 2 2 2 2 2 2 2 2 2 3 2 2 y u.g.i 2 < < : & & & $ $ & & : 2 E B c c c v v v v v v b v v v v v v c k k k 8 8 < & Z ..: < < < 4.V v 6.2 2 2 2 2 < < < < < < < , , : & & $ $ $ $ # # + + + X X . . . . . . . . . X X X + + + # # $ $ : : , < < < 2 2 3 7 y M m 3 2 2 2 2 2 2 2 2 8 v v i 3 2 3 2.5.8 2 < > : & & & & $ & & & < V v i k c v v v v B V ",
"u.u.u.u.u.u.r.6.6.7.7.6.i.2.< Z ..& : < < 4.V v 9.2 2 2 2 2 2 < < < < < , : : : $ $ $ $ $ # # @ # # # $ 8 E 5 + + X X X X . O + # $ V 5.2.3.3.3.3.5.5.9.0.0.i.z.z.b.b.].n.p 8 7 3 3 3 3 3 2 2 2 8 6.Q 4 4 y 6.s.8 < < : : : & & & & & : k c.0.4.4.7.7.t.u.u.u.u.u.u.u.u.u.u.u.6.6.7.4.4.0...< Z ..: < < < 4.V v 6.2 2 2 2 < < < < < < , : : : $ $ $ $ $ # # + + + X X X X . . . . o o o . . X X X + @ @ $ $ $ v 2.>.>.>.,.3.8.9.0.i.z.].z.u 3 3 3 3 3 3 3 3 V z.z.b.! 3 3 8 5.u.i 2 < > & & & & & & & & 8 g.6.4.4.5.7.6.t.u.u.u.",
"8 8 3 3 2 2 2 2 2 2 < < v 5.< Z ..& : > < 4.V m 9.2 2 2 2 5 2 < < < < : : : & $ $ $ $ $ # @ @ @ # # # $ [ 3.' # + + X X X O + # # V 2.8 1 2 2 2 5 3 3 8 8 i p v m m M z.i.a y y 7 8 7 7 3 3 3 3 3 ! H._ y 4 8 4.u.8 < < : : : & : : : > < 8 2 2 2 2 2 3 7 8 8 8 8 8 7 3 2 2 2 2 2 < < < c 0.2 Z ..: < < < 4.V v 6.2 2 2 2 5 2 < < < , : : & $ $ $ $ $ $ # # + + + X X X . . o o o o o o o . . X + + @ # $ $ v 8.v 5 3 8 8 i p l v m C b.i.y 7 4 4 7 7 4 3 4 8 p l ~ F.~ 4 4 i 7.u.i < < > : & & & & : & < 8 2 2 2 2 2 3 3 7 8 i ",
"8 3 2 2 2 2 2 < < < < , k 4.< Z ..& > < < 4.V m y.3 2 2 B g.v < < < < : : & $ $ $ $ $ $ # @ @ @ # # # $ C w.v # + + . X + + @ # $ 2.8 $ $ $ & & & : < < < 2 2 3 7 y i { R.{ ! ! ! W W E E E K E Z p ~ I.[ y 8 8 ..6.8 < < < > > > : : > > < < 2 2 2 2 3 3 7 8 8 8 3 3 2 2 2 < < < < < , c 0.2 Z ..< < < < 4.V v 6.2 2 2 k h.D < < < : : : $ $ $ $ $ $ $ # @ + + + X X X . . o o o o o o o . . + + @ # $ $ B 8.l & : > < < 2 2 3 3 y p >.R.' E E K K K K K K K E Z i ! F._ y 8 i 5.u.i 2 < > > & & : : : < < 2 2 2 2 3 3 7 7 8 y ",
"8 8 3 3 2 2 2 2 2 < < < k 7.< V ..& > < < 4.V m y.3 2 2 B H.B 2 < < < : : & & $ $ $ $ $ $ $ # # # # $ $ < >.< # + + + + + + @ # $ { 2 $ $ $ $ & : > < 2 2 2 2 3 7 y i p 2.S.n.n.b.v.c.c.b.b.c.b.U.2.f ~ I.{ y 8 8 ..0.i 2 2 < < < < > > < < < 2 2 2 2 8 y i i i y y 7 3 2 2 2 2 < < < < v u.2 Z ..< < < < 4.V v 9.3 2 2 l Y.Q 2 < < : : : & $ $ $ $ $ $ # # # + + + X X X . . . o o o o o . X + + @ # $ 5 0.v * > < < < 2 2 2 3 7 y i z 5.S.n.v.b.z.b.b.c.c.b.n.G.{ p ! G.[ i y y 4.d.i 2 < < > > > > < < 2 2 2 3 3 3 4 7 8 y i ",
"9.6.6.6.4.v 2 2 2 2 < < c 7.< V ..: > < 2 7.V m y.7 3 3 i i.l 2 2 < < < : : & & & $ $ $ $ $ $ $ $ $ $ $ < >.< # + + + + + + @ # & 2.5 $ $ $ & & < ! E v v m v 7 4 y i i p v m v v l p p p v m m ! F.{ p ! F.] y 8 8 ..u.v 2 2 2 2 < > < < < < 2 ~ ..7.7.6.6.u.u.u.u.9.6.4.v 2 2 2 2 2 < b s.2 E >.< < < < 4.V v y.3 2 2 8 d.V 2 2 < < : : : & & $ $ $ $ $ $ # # # + + X X X X . o o o o . X X + + # # $ 8 3.< < 2 m Z v v v l 3 7 y i p l m m v v v m m m m m m ! m.{ p ! I.{ i y i 2.d.v 2 < < < < > < < 2 2 7 ' 5.5.2.2.3.3.5.",
"E E D D i.] 7 3 2 2 < < c 6.< Z ..> < < 2 7.D B y.8 3 3 k g.v 3 2 2 < < > > : : & & & & & $ $ $ $ $ $ $ < >.< @ + + + + + + @ # & >.5 $ $ $ & & 8 D.S.u.i.p.v...y i i i p p p p p p p p p z m m m E n.{ p Q F.{ i y i ..b.0.0.0.6.5.~ 2 < < 2 i h...W.4.~ ~ ~ ~ ~ ~ W E i.{ 3 2 2 2 2 2 b d.3 E >.< < < 2 7.Z m y.8 3 3 i g.Z 3 2 2 < < > > : & & & & & $ $ $ $ # # # + + . X . o o o . X X X + + # $ $ 8 3.< < 2 9.E.u.y.y.z. .y y i p p p p l l l f v v m z m g W m.{ i Q I.>.p p p >.c.0.7.5.5.5.' 3 2 2 2 p v.>.H...E E K E ",
"D Z V k 5...u 7 3 2 2 < c 0.2 D ..< < 2 2 6.E B y.i 7 7 l c.m 3 3 2 2 < < > > > * & & & & & & $ $ $ $ $ < >.< @ @ + + + + + @ # & 2.5 $ $ $ & : > k i 2 3 3 l u.g.d.d.d.g.g.d.g.d.d.g.c.v.v.S.S.d.A K F.2.i E F.i.' v i K ! Q E E E 5...2 < 2 k Z.X.Q.! m K E W P K K z 5...7 3 2 2 2 2 B g.3 E >.< < 2 2 7.D m y.i 7 7 i c.K 3 3 2 2 < < < > > : : : & & & $ $ $ $ $ # + O . . . . . . X X X + + # $ $ 8 3.< < 2 m M y 7 7 l y.d.u.i.i.d.d.g.g.z.z.z.z.z.c.c.c.i.J E n.o.i ! R.z.*.m y Z Q E E E E 6.5.y 3 3 v Z.{ S.Z i Z K W ",
"g.i.S.5.6.>.i u 3 3 2 2 ! 5.2 E >.< 2 2 2 6.E B i.i y y m S.C u 7 3 2 3 i 8 8 3 3 3 5 5 5 2 2 2 < < < & < 2.< @ # + + + + + @ # $ { 2 $ $ & & & > > > < < 2 2 i W ! ~ ~ ~ ~ ~ ~ ' ' ' ] { { { { u.c.A Z n.2.m _ 3X5X_ i 4 2 2 2 < < 2  .4.8 2 i 2.g.u.Z _ I.g.g.d.i.S.y.6.4.i 7 3 2 2 2 ' 0.2 D >.2 2 2 2 6.D m i.i 8 y i c.K 7 7 3 3 3 i i i 8 8 8 3 5 5 2 2 < < < < $ @ + O . X X . . X X X + + # # $ i 0.2 - 2 2 2 2 2 2 2 i E Q ! ~ ~ ~ ' ' ' ' ' ' ' ` ` ` i.b.V V c.2.m [ 5X8X_ y 3 2 2 2 < < 3 >.0.f 4 i >.0.3.v K S.i.z.",
"B m 5.p.u.5.p y 7 7 3 ~ u.k < E 5.2 2 2 2 t.E B i.i y i m S.J i i y v u.p.u.u.0.0.0.0.9.9.6.5.3.3.3.0.v < 2.< @ # + + + + + @ # $ { 2 $ $ $ & & : > > < < < 2 2 2 3 3 4 7 8 8 y y i i i a p p a p 5.z.B V I.0.M i.#Xi.p 4 3 2 < < < < < ~ u.B i f M ' P [ i.m m m m >.c.u.u.p i 8 3 2 Q u.v < D 5.2 2 2 3 u.E m i.i i y p v.K 8 i y v u.z.i.i.u.y.0.0.0.6.5.5.3.3.3.0.8 @ @ O O X X X . X X X + + # $ $ 2 s.9.! i 2 2 2 2 2 2 2 2 2 3 3 3 7 8 y y i i i p a a a p 5.c.B V U.0.M i.XXi.i 3 3 2 2 < < 2 2 ..d.M y i p K J ` c.M M ",
"K K 0.v.i.6.l i y u ~ c.B 2 2 k y.E 2 2 3 u.E C i.p i p m S.K p p Z S.t.v p p p p i i i i 8 8 8 5 5 ..K < 2.< @ # @ + + + + + # $ { 1 $ $ $ & & & : > > < < 2 2 2 2 3 3 8 8 8 y y y i i p p i i i p 5.v.V W W s h P S.3.i 2 2 < < < < < 2 ~ c.! K Y &XL.{ i.C J J C 5.A.g.p.z p y 7 Q g.v < 2 k u.! 3 3 7 u.! V i.i i i p v.E i i C Z.u.m l l p i i i 8 8 5 2 2 2 2 2.i # # @ + + X X X X X X + + # # $ $ 3 ' 9.w.i 2 2 2 2 2 2 2 2 2 3 3 8 8 y y y i i i a a p p p 5.c.Z W P m g L b.5.i 2 2 < < < < 2 2 ~ g.K M M ^.D.>.S.( ` ",
"k.1.F.z.i.u.l p i ~ Z.V 2 2 2 2 v 6.! 3 7 u.E V g.l p p >.R.J s W ~.d.z i i u u 4 3 3 2 2 2 2 < > : ] E 2 3.< $ # # + + + + + # $ { 1 # $ $ $ $ & & & & > < < < 2 2 2 2 3 3 4 4 8 y y y y i p i i i i 0.I.C p i a p M z.z.i < < < < < < 2 3 ^ Y.!.! Y.5._ U.H.R.b.<.S.c.g.g.z p p ' c.B 2 2 2 2 c u.' y y g.~ C g.l i i _ H.V p E Y.i.z i i y 7 7 3 2 2 < > > & & & { k $ $ # + O X X X X X X X + + # $ $ $ $ & Q 9.i < < < < < < 2 2 2 2 3 3 3 7 8 y y y i m p i i p y.I.C p p i i m i.v.p < < < < < < 2 2 Q A.F.Z Y.u.` [.'..X",
"pXJ.q._ z.y.{ >.4.Z.Z 3 2 2 2 2 2 k u.B { c.l ! i.m m >.E.*.z ' ~.c.C M m p a y u 4 4 y 8 2 2 < < : { E 2 3.< $ # # + + + + + # & 3._ K E E E ! ! ! ~ ~ ' ' ] ] ] ..........2.2.2.2.2.2.2.6.Y.! 8 y y l S.! i y u t 4 m 2.8 : : : : < < 2 2 8 ! S.V u.K m ' u.#XrXJ.<.) g.g...3.u.K.Z 2 2 2 2 2 < k d.V o.S.V ' c.l l ' H.' p _ ~.c.J C m a i y u 7 7 y 3 2 > : & & { k $ $ # + + X X X X X X X X + # # $ $ $ & & E 0.' ' ] ] ] ] { ......>.2.2.4.4.4.5.5.0.!.~ y y i m S.! i y 7 4 3 v 2.i > > : : < < 2 2 2 Z C.m g._ M { d.5X",
"tXA.) J z.i.Y.p.6.Z 7 3 3 2 2 2 2 2 6.u.u.m Z c.! m v.$X>.s ! R.u.M g.S.c.{ 0.7.4.4.4.c.6.3 2 < < > { ! 2 3.< $ $ # + + + + + + $ K ! V Z Z Z K E E E Q Q ! ! ~ ~ ~ ' ' ] ] ] { { { { { { 4.Y.Q 4 8 y p c.Q 4 4 3 3 2 2 < : : : & : : < < 2 3 i s.v 6.Z f m P A.6Xz.P G g.c.~.Z.d.W 7 3 2 2 2 2 2 2 u.u.d.C Q Z.~ p g. X] p K Y.u.G c.S.v.{ t.t.6.7.6.S.] 2 < > & & ..v $ $ # # + . X X X X X X X + + # # $ $ $ & & B ! ! ! ! ~ ~ ~ ' ] ] ] ] { { ........5.Y.! 4 8 y i z.K 4 4 3 2 2 2 < > : : : : : < < 2 2 i u.m d.! m M _ F.",
"w.<.{ _ Z.Z.Y.K y 7 3 3 2 2 2 2 2 i Z.7.i Z v.! i { 2Xu.p K K.4.p C Y.0.L.{ g.g.d.6.] u.2.3 2 2 < < ..! 2 3.< $ $ # + + + + + + # $ # # # $ $ $ $ $ $ $ $ & & & & : : > > < < < 2 2 2 2 2 2 i 3 3 3 8 p c.K 3 2 2 2 < < : : : : : : : , < < 2 8 t.v 6.! V Z ~ >.q.,._ ( Z.S.!.W p p y 3 2 2 2 2 2 i S.5.v ! S.~ i ' $Xu.i Z Z.2.p m Y.5.Y...g.4.o...o.s.~ 2 < > : : 2.v $ $ $ # + + X X X X X X X X + + # # # $ $ $ $ $ & & & & & & & > > < < < 2 2 2 2 2 3 y 7 3 7 7 y d.Z 2 2 2 2 < < > : & & : : : : < < 2 i u.m i.{ L W _ -.",
"R.Y.H.D.Y.Y.g.m i 8 3 5 2 2 2 2 i u.o.3 V c.! i ~ ~.>.p Z Z...p i m Z.T.Z.g.c.4.u.K.V 8 3 2 2 2 < < ..! 5 3.< $ $ # + + + X + + + # # # # $ $ $ $ $ $ $ $ $ & & & : : : : : > < < < < < < 2 2 2 2 2 3 y d.Z 2 2 2 < < : : : & & $ & & : , < < 6  .i ..h.c.Z.D.Y.Y.Y.H.S.D.D.p.m i i 8 3 2 2 2 1 8 u...8 D K.~ y ! T.{ p Z Z...i i v g.S.v.f.h.K y 3 3 8 2 2 < < > : 2.b & $ $ # + + X X X X X X X X X + + + # # $ $ $ $ $ $ $ & & & & : : > < > < < < < < 2 2 2 2 2 2 8 i.V 2 2 < < < : : & & & & & : : < < 2 8 ..v 2.Z.Z.Z.Z.Z.",
"P L J J M M l i i 8 3 5 2 2 2 i u.X.5 B g.Q 8 Q T.o.p K v.] i i i p m J d.d.m i p o.Z.V 2 2 2 2 < < ..~ 5 5.2 $ $ # + + X X X X + + + + + # # # # # # $ $ $ $ $ $ $ $ $ & & & & : : : , , < < < < 2 2 3 s.V 2 < < > : : : & $ $ $ $ & : : < < < 2 2 8 l m V C K K K K C m m l i i y 8 3 5 2 2 8 u. .6 V v.~ 8 Q T...i Z Z.] y y i i p m u.v.Z d.{ 8 8 3 2 2 < < < > 4.B & & $ $ # + X X X X X X X X X X + + + # # # # # $ $ $ $ $ $ $ $ & & & & & & : : , < < < < 2 2 3 u.V < < < > : : & & & $ $ & : : : < < 2 8 8 i v m m M C ",
"M M m m z p p i y 8 3 5 2 2 k u...5 V d.Q 3 V K...p K S.] y i y y i m u.s.m p i i i ..c.v 2 2 2 < < ..~ 5 5.5 $ $ # # + + X X X X X X + + + + + + # # # # # # # @ $ $ $ $ $ $ $ $ $ $ & : : : : < < < 2 u.V < < > : & & & $ $ $ $ $ & : : , < < 2 2 8 8 i p l z m m m v l l i i y 8 8 3 3 2 k u. .5 V c.Q 5 Z K. .p K S.] y y y y y v 6.c.B i Z v.] 8 3 2 2 2 < < < 5.B & & $ $ # # + X X X . . . . X X X X X + + + + # # # # # # $ $ $ $ $ $ $ $ $ $ $ & & : : > < < 2 0.B < < < : : & & & $ $ $ & & & : < < 2 2 8 8 y i p l l ",
"z z z l p p i i y 7 3 3 2 k u. .5 V d.Q 5 V v.] i K K...i i y 8 7 7 Z u.v i m M p i y ] g.B 2 2 < < ..~ 3 5.5 & $ $ # + X X X X X X X X . X . X X + + + + + + + + # # # # # # $ @ $ $ $ $ $ & & : : < 2 0.V < < : : : & & & $ $ $ $ & : : : < < 2 2 3 8 y i p p l l l l l i i i 8 8 8 3 3 v d...5 V c.Q 5 V v.] y K K...i y y 8 y y V d.Q i i i V v.] 3 3 3 2 2 2 2 6.V & & $ $ $ # + + X . . . . . . . X X X X X X + + + + + + + # # # # # # # # $ $ $ $ $ $ & & & < < 5.b < < : : : & & & $ $ $ & & & : > < 2 2 2 3 8 y i i l ",
"l p p p p i i y y 8 3 5 k g.X.5 V z.Q 3 V v.] 7 V Z...p i y i E ~ V y E V i ~ S.Z y 8 8 ' g.v < 2 < o.~ 3 6.5 & $ $ # + + X X . . . . . . . . . X X X X . X X X + + + + + + + + # # # # # $ $ $ & & : < 5.B < < & & : & & & & & & & & & & : < < < 2 2 3 8 i i i p p i i i i i 8 8 8 3 3 v g.2.8 Z c.Q 6 V c.' 3 Z S...p i i i E ] Z y l u.o.i i y V c.' 8 3 3 3 2 2 6.V > : & $ $ $ # + + . . o o o o o o . . . X X . X X X X X X + + + + + + + + + # # # $ $ $ $ & & < 5.b * < : : : & & & & $ $ $ & & & : < < 2 2 2 3 8 y y i ",
"C C C C C C C m m m v B u.X.8 Z z.E 8 V v...8 V c.~ y i i i i 6.H.i.8 ] S.V l 5.v.C y y 8 ^ p.v 2 2 2.' 8 9.3 & $ $ # # + X X . o o o o o . . . . . . . . . . . . . X X X X X X X + + + + # # $ $ & & < 5.b > < v v 5 5 2 2 1 < < 1 1 2 2 5 6 8 8 8 k k v v m B m m B B B v v v v c k B d.o.8 Z v.Q 6 B c.] 3 V c.' i i i i i 6.E.v.l 8 Z c.~ y y 8 V g.] y i m 7 3 6.V < > & & $ $ # # + . . o o o     o o . o . . . . . . . . . X X X X . . X X X + + + + # $ $ $ & : 3.b * < v v 5 5 2 2 < < < < 1 2 2 5 6 8 8 i i k l v m m ",
"S.S.S.S.'.Y.Z.Z.v.v.c.g.^ 5 D c.Q 8 V Z...i Z c.~ 8 i i f m m m ' d.i 8 ~ z.V y >.v.C y y 8 ~ i.8 2 2.' 8 0.8 : & $ $ @ + X X . . o                   o o o o o o o o o o . . . . . . X + + # # $ $ & & 3.v & < i.H.u.u.0.6.6.6.6.6.6.6.0.u.u.u.d.g.g.c.c.c.v.Z.Z.S.S.S.~.I.v.c.g.g.i.z.] 8 K n.~ y V c.] 8 V c.~ y p p f f m M ~ v.6.] 8 E Z.~ 8 8 8 V v.E K A.m 3 0.V < < < & & $ $ # + O . . o                     o o o o o o o o o o o . . . . . . + + @ @ $ $ & & 3.v & < u.H.0.6.6.5.5.5.5.5.5.6.6.0.u.u.u.d.g.g.c.c.c.C.",
"B m m C S...m m m v l k 5 D c.E 8 Z S.2.i Q S.~ 3 ] d.i.g.c.v.v.S.d.y 3 5 ~ k.B 8 ..v.C y y v z.l 2 4.' 8 y.8 : & $ $ # + O . . o o                                             o o o . . O + @ $ $ $ & 3.c & < l v 8 8 5 5 5 2 5 2 2 2 5 5 3 8 8 8 i k k l v v m m m C Y.>.m v l k k i 8 Q n.~ y Z v...i Z v.~ 7 ] v.c.v.v.n.n.S.g.! S.] y D z.Q 8 y i u.] K Y.m 8 y.Z 2 2 < > & & $ $ @ + . . o                                             o o o . o . . + @ # $ $ & 2.v & * i v 5 5 2 2 2 2 2 2 2 2 2 2 5 3 8 8 8 i i i l l ",
"i i i p Z.' i y y y y 8 Q v.E 3 Z K.5.g ! L.{ y 8 i.] V C C Z Z C v 7 3 5 5 ~ z.V i g.{ i i m z.v 2 4.] i u.8 > & $ $ # @ O . . . o                                                   o . . O + # $ $ $ { ' < * * > > : & & & & & & & & & & : : < < < 2 2 2 3 3 8 8 i l S.' y y 8 8 8 3 E b.~ y Z S.4.p U S.] y i i.>.K K K K Z V v 8 E S.' 3 ' 9.y i i u.' C Z.v i u.E 3 m V m 2 & & $ @ + + . o                                                   o o o . O + @ $ $ $ { ' * & & & : & & & & & & & & & & & : : < < < 2 2 2 3 7 ",
"i i i i Z.! u y y y i l v.~ 7 m v.4.m M Y.4.p ~ K i.E 7 7 3 3 3 3 2 2 2 2 5 3 ~ b.Z u...i i m z.v 3 5...i i.8 > & & $ $ @ + . . . o                                                   o o . . O + @ $ $ 1 2._ < * > > : & & & & & & & & & & : : < < < < 2 2 2 2 3 8 y p Z.' y y 8 8 8 i i.! y V v.4.m m I.4.f ~ W i.! y y 8 8 8 8 8 y y K b.! ! 9.i i i u.' V Z.m i i.Q v c.0.b.l > & $ $ @ + X . o                                                     o . . O O @ $ $ 2 2.! > & : & & & & & & & & & & & & : : > < < 2 2 2 3 3 ",
"i y y i c.! 8 8 y i i m v.C l d.2.M P L !.! m c.5.g.E 7 7 3 2 2 2 2 2 2 2 3 8 8 2.2.u.>.p i B v.v 8 7...l i.i > > & $ $ @ + . . . o                                                     o o . O O @ $ $ $ 1 >.[ 2 > > > > : & & & & & & : : : > > < < < 2 2 2 3 3 7 8 i v.~ y y y 8 y l u.m p d.5.M P P E.~ m d.5.i.Q 8 8 8 8 8 3 8 y y i ' z.] i.p i p u.' m v.m i g.~ m v.E k.m > & & $ @ + . X o                                                     o o . O O # # $ $ < ..' < : > * : : > & & & & & & : : : > < < < 2 2 3 3 ",
") 8 7 y h.E 7 8 y i p M v.K m Z.K 6.n.P Y.! h z.>.c.E 7 7 2 2 2 < < 2 2 3 7 y i ] 4.u...p p m v.m 8 6...l p.k > > & $ $ @ + O . . o                                                       o . . O + # $ $ $ < >.8.>.>.>.>.>.>.>.>.>.>.>.>.>.2.2.3.3.5.5.6.9.s.c.] 3 3 y c.! 8 y y y i v i.C v v.K 0.H.W T._ m d.2.i.Q 7 8 8 3 5 5 8 8 y i E v...i.p i p u.' m v.B l c.' m i.d.i.l 2 > & $ # @ + X o                                                       o . . O + @ $ $ $ < { 3.>.>.>.>.>.>.>.>.>.>.>.>.>.>.>.>.2.2.5.5.9.i.i.",
"l 3 3 7 g.E 3 8 y i p M S.W C S.J 5.i.M I.Y M c.5.v.Q u 3 2 2 < < < < 2 3 u p p ..5.u.>.p l V v.B i u.>.l z.k 2 > & & $ # + + . . o                                                       o o . . + # # $ $ $ < k l l l l l l l k k k k k k k k k l v v v B d.0.m 2 2 8 g.Q 7 8 y y i m b.K m b.K u.v.P Y.} M d.5.g.! 8 8 3 5 2 2 3 8 y i W Z.>.z.l p p u.~ B v.B l v.' p z z p 4 2 > & $ $ @ + X . o                                                     o o . X + + # $ $ $ : i k k l l l l l k k k k k k k k k l v v v m 5.y.",
"2 2 2 3 g.E 3 7 y i l P R.[ J S.J 2.3.M Y.[ M c.5.Z.! 7 3 2 < < < < < 2 3 i { d.H.6.u.2.p l V Z.V i u.>.l z.l 2 > & & $ # @ + X X . .                                                       o o . X + # # $ $ $ $ $ $ $ $ $ $ $ $ $ $ $ $ $ $ $ $ $ $ & & & 2.Q < < 2 3 g.Q 3 8 8 i l K F._ M b.K 7.u.P ~.3.G g.7.g.! 8 8 3 2 2 2 3 7 ~ y.b.H.3.c.l l p u.~ B v.B l v.' m 0.d.9.i 2 > & $ $ @ + X . .                                                       o o . . + + # $ $ $ $ $ $ $ $ $ $ $ $ $ $ $ $ $ $ $ $ $ $ & & & ' ' ",
"< < 2 2 u.D 2 3 8 i m i.5Xk.T H.K 2.3.>.'.R.[ z.5.Z.Q 8 3 2 < < > > < 2 3 y c.u.Z.y.u.2.i p V Z.V i u.>.l c.l 2 < : & $ # @ + X X . o o o o o o o o o o o o o                               o o . . + + # # $ $ $ $ $ $ $ $ $ $ $ $ $ $ $ $ $ $ $ $ $ $ & & 2.E > < 2 2 d.E 2 3 8 i m q.4Xq.J b.K 5.y.5.&X X2.d.6.h.! 8 7 3 2 2 2 2 3 u.y.i.I.3.v.v l p u.~ B v.B l c.' K U.8.H.B 2 < : $ $ # + X X . o o o o o o o o o o o o                                 o . . X + @ # # $ $ $ $ $ $ $ $ $ $ $ $ $ $ # # $ $ $ $ $ & & ' ' ",
"> < < 2 u.Z 2 3 8 i C '.iXn.T H.K 3.3.3.R.E.2.d.5.Z.Q 7 3 2 < > : > < 2 2 8 g.S.Y.u.u.2.i l V Z.V p u.>.l c.l 2 < : $ $ # @ + X . . . . o o o . . . . . . . . . . o                           o . . . + + @ # # # $ $ $ $ $ $ # # # # # # # # # # $ $ $ $ & ..V & < < 2 s.D 2 2 8 i C '.iXb.P b.K 4.y.u.'.'.5.d.t.c.! 8 7 3 2 2 2 2 3 6.S.H.I.5.v.l l p u.~ B v.V l c.~ Z '.Y.R.B 2 < : $ $ # + + X . . . o o o . o . . . o o o o o                           o o . . O + @ # # $ $ $ $ $ $ $ # # # # # # # # # # # $ $ $ & ~ ' ",
": : < < u.V 2 2 7 i { E.i.` L S.K 5.5.` c.d.P i.2.v.E 7 3 2 < < : , < < 2 3 E 4.S.t.u.2.i p V S.Z p u.>.l c.l 2 < : & $ # # + + . . . . . . . . O O O . . . . . . . . o o                       o . . X X + + @ # # # # # # # # # + + + + + + # # # # $ $ $  .V $ : < 2 u.Z 2 2 3 y { _.z.[ J b.K 5.u.{ Z.z._ g.t.c.~ y 3 5 5 2 2 5 3 C ..u.I.5.v.l p p u.~ B v.V l c.~ l 5.|.{ i 2 < : $ $ # + + + X . . . . . . . . . . . . . . . . o                         o . . . O + + @ # # # # # # # # # + + + + + + + @ # # $ $ $ ~ ~ ",
"& : : < 6.V 2 2 7 ~ S._ z z C Z.K 5.i.S.S.S.0.u.>.c.E 8 3 2 < > : : < < 2 3 y i 4.7.u.2.i l C Y.! p u.>.l c.l 2 < : & $ # # + + O O O + O O + + + @ + + + + + O . . . . . . o                 o o . . X X X O + + @ @ # + + + + + + + X O O + + + + + # $ $ ] B $ & : < u.V 2 2 7 ~ n.~ m M M Z.P 5.g.S.S.S.d.g.t.c.! 8 3 5 2 2 2 5 8 y y ! S.5.c.l i i u.' B C.B l c.~ i C b.p 7 2 < & $ # # + + + + + O O O + + + + + + + + + . . . . . o o                   o o . X X + + + + + + + # @ + + + + + . X . . . + + + @ # $ ! ! ",
"$ $ : < 7.B < 2 ! v.E i p l m C.K 7.c.T.W >.g.i.>.g.E 7 3 2 < : : : < < 2 2 8 i 4.7.u.2.p p m 0.H.' u...l c.l 2 < : $ $ # # + + + + + + @ @ @ @ $ $ $ $ # # # # # + O . . . . . o o o         . . . . . . . . O O + + O O O O O . . . . . . . . . X + + # $ ] B $ $ & : 7.V < 2 ! c.Z y p p m S.W 5.z.S.K { Z.c.6.c.~ y 8 2 2 2 2 3 8 i i ! v.>.g.i i i 6.Z.! v.m l c.~ y C z.i 2 < > & $ # # + + + + + + @ @ @ # # # # # # # @ + + O . . . . . . . o     o o . o . X X X X X . O O O + + O O O . . . . . . . . X X + + @ # Q Q ",
"$ $ $ : 4.b < ! i.C 3 8 i i m v.Z 7.c.Y.K { g.i...g.E 7 3 2 < : : : < < 2 2 8 i t.5.s.4.p p p p ~ S.'...l c.l 2 < : $ $ # @ + + @ # @ # $ $ $ $ $ $ $ $ $ $ $ $ $ # # @ + O . . . . . . . . . . . . . . . . . . X X X . . . . . . . . . . o . . X . X + + # ] V $ $ $ & 4.b < Q d.Z 8 8 i i l Z.E 4.d.Z.Z [ v.d.6.c.~ y 7 3 2 2 2 3 8 i i o.g.] u.i i i m t.R.R.B l g.! 8 V g.i 2 < : $ $ # # + # @ @ @ $ $ $ $ $ $ $ $ $ $ $ $ $ # # + + + . . . . . . . . . . . . . . . . X . . . . . . . . . . . . o . o o . X . . + + @ Q Q ",
"# $ $ : 4.b 2 i.B 2 5 3 7 i l c.Z 7.c.W.W ..C.i...g.E 3 2 2 < : : : < < 2 2 8 ] Z.E s.4.i i i i 8 m Z...l c.l 2 < : $ $ # # @ @ # # $ $ $ $ $ & & & & & & & & & $ $ $ $ # @ + + O O . . . . . . . . . . X . . X . X . . . . . . . . o o o o o . . . . X + # ] B $ $ $ & 4.v 2 0.m 2 3 3 8 y l v.K 2.i.Z.K { v.i.7.c.! 8 8 3 2 2 2 3 8 i ~ Z.E ~ u.8 y y i p { Y.V p g.E 7 V g.8 2 < : $ $ # # # # @ @ $ $ $ & & & & & & & & & & $ $ $ $ # # + + X . . . . . . . . . . . . . X . . . . . . . . . . o o o o o o o o . . X + + E E ",
"# @ $ & 2.v 2 5.8 2 2 2 3 7 l c.C 7.g.^.D.Y.g.i.>.g.E 3 2 < < : : : < < 2 5 ~ c.D i u.2.i i y 8 8 7 7.>.l c.k 2 < : $ $ # # # # # $ $ $ & & & * * < > * * * * & & & & $ $ $ $ # @ + + + + + O O + O O O . X . . . . . . . . o o               o . . . . X # ' B # $ $ $ 4.v < 5.8 2 2 3 3 8 l g.V o.y.Y.Z.L.c.y.4.h.! 8 8 2 2 2 2 3 8 ~ Z.Q 8 ~ t.7 8 8 y y m n.V i g.E 3 V g.8 < > & $ $ # # # # $ $ $ & & & > < < < < < < * & & & & $ $ $ # # # + + + + + X + + + + O O O . . . . . . . o o o o             o o o . . + O E E ",
"+ # $ $ o.v 2 5.5 < < 2 2 3 l g.V 4.9.' i.i.P i.>.g.E 3 2 < > : : : < 2 2 Q c.Z i i t...y y 8 7 7 7 r.>.l c.k 2 < : $ $ $ # # $ $ $ & & * > < 2 2 2 2 2 2 2 2 < < > * & & $ $ $ $ $ # # # # # # @ + + O + O O . . . . . . o o                 o o $ : $ X # 2.D # $ $ $ 2.c < 3.8 < 2 2 3 7 i g.V ..3.' z.i.( u.4.g.! 7 3 2 2 2 2 5 V n.! y 8 ! 6.3 3 3 7 8 m n.V i g.E 3 V p.3 < > & $ $ $ $ $ $ $ & & & > < 2 2 2 2 2 2 2 2 < > * * & & $ $ $ $ $ # # # # # + @ + + + + O O . . . . . . o o                 o o $ : $ . + { ] ",
"+ + @ $ o.k < 2.2 : < < 2 2 k g.m 2.4._ 6X%XP i.2.g.D 2 2 < < : : : < 2 v u.u.l i 8 4. .7 7 3 3 7 7 7...l g.k < < : $ $ $ $ $ $ $ & & * < 2 2 7 8 y y 7 7 7 7 4 2 2 2 > * & & & $ $ $ $ $ $ $ # # # @ @ @ + + O . . . . o o o                 o + ' >.' # + 6 1 + # $ $ o.c < 3.6 , < 2 2 3 i g.B  .5.' 7X2X_ i.2.i.Q 3 3 2 2 2 2 i o.d.i 8 8 ! 5.2 3 3 3 7 v v.B i d.E 3 B p.3 < : & $ $ $ $ $ $ & & > < 2 2 7 y y y y y y 7 3 2 2 2 < * & & & $ $ $ $ $ $ $ # # # @ @ @ + + O O . . . o o                   o + ' >.' # + 8 6 ",
"+ + # $ o.c 2 2.2 : > < 2 2 i g.B ..>.M g.d.J c.4.c.D 2 2 < : : : : < 8 u.d.I.! 8 3 2.] 5 3 3 3 3 3 7...l g.k < < : & $ $ $ $ $ & & > 2 2 3 E i.d.d.i.i.i.i.i.i.{ i 3 2 2 > * & & & & $ $ $ $ $ $ $ # @ @ @ + + # @ . . . o o                 o # { Z >.$ X . . + + # $ 4.v < 3.5 : < < 2 3 i g.B  .5.J h.g.P c.4.p.E 3 2 2 2 2 3 5.d.n.Q 3 3 ! 5.2 2 2 2 3 l c.b i i.E 2 B p.5 < : & $ $ $ $ $ & & > < 2 3 E i.d.z.z.z.d.i.i.i.{ y 3 2 2 < < & & & & & $ $ $ $ $ $ $ @ @ # + + # # . . o o o                 o @ { V ..# . . . ",
"X + + $ 4.3...>.< & : > < 2 i d.v  .2.m M G 5.Y.' v.Z 2 < > : & & : < 8 i.' d.~ 3 3 2.' 2 2 2 3 3 3 7...i g.k < < : & $ $ $ $ & & > 2 3 7 ! c.~ Z K K Z Z K K W b.K u 4 3 2 2 > 2 Z i 8 5 5 2 2 2 < < < < < < 1 ~ ~ $ . . o o o               o . Z k.E # X . . . + # $ 7.3...2.< & : < < 2 i g.V  .6.M N L 5.R.] v.D 2 2 2 2 2 8 d.] 0.! 2 3 E 5.2 2 2 2 2 k g.v 8 u.E 2 m p.5 < > & $ $ $ $ & & > 2 2 7 E v.' E W ! P K K K K b.K u t 3 2 2 < 2 E c 8 8 8 5 5 5 2 2 < < < < 2 ~ ~ $ . . o o               o o X Z i.V + . . . ",
". X + # o.V 8 < $ & & : > < 8 i.v E z.g.c.Z.S.{ i.5.i 2 < : & & & : < < ! I.0.v 3 2 ..~ 2 2 2 2 5 2 7...i g.k < < : & $ $ $ & & * 2 3 y ~ S.' m E ! ! ~ ' L p h z.` p p u 4 2 2 v b.0.5.3.3.2.2.>.>.>...{ { ] >.8.>.5 . . . o o o o o o o o o . o < >.& + X . . . . + $ 2.Z 8 1 & & & : < 2 8 g.V E v.c.v.S.H.{ c.6.8 2 < < < < 2 ~ I.u.v 2 2 K 3.2 2 2 2 2 i g.v 7 u.E 2 m p.5 < > & & $ $ & & > 2 3 y ! S.' m Q ~ _ _ ' J p s z.` p a u 4 2 2 v b.i.9.9.5.5.5.2.2.>.>...{ { >.8.>.6 . . o o o o o o o o o o o o < >.$ . . o o ",
". X X + { 8 # $ $ $ $ & : < 3 u.v 7 l m M M J k.0.p 3 2 < & $ $ $ & : < 3 i.C 2 2 2 ..~ < 2 2 2 2 2 4...i d.k < < : & & & & & * < 2 4 K '.^.T.w.I._.b.c.I.S.} ` F.q.x z p y 4 3 3 v i y 4 2 2 2 < < : : & $ $ : Z V $ . . . . . . . . . . . . . . < ..$ X . . . . . X # ..k $ $ $ $ & & : < 3 d.B y z m N C K c.i.l 3 2 < < < < < 2 0.Z < 2 2 K 5.2 < < < 2 8 d.c 3 u.E 2 m p.5 < > & & & & & * < 2 7 K '.~.T.g.R.'.n.z.H.S.` _ m.q.G s a y 4 3 3 l i y 8 4 2 2 < > : & & & & < E D $ . . . . o o . . . . . . . . < ..$ . o o o ",
". . X + ] 8 # $ $ $ $ $ & : 5 u.c 3 y p M P z.y.p 7 2 < & & $ $ $ & & > 2 0.m 2 2 2 ..! < < < < 2 2 4...i d.k 2 < > : : & & : > 2 2 u [ E.u.i.b.j.U.-.I *.Y.^.I. X5Xb.P s a y u 7 3 3 3 2 2 - * & & $ $ $ # # + O O O . . . . . O O O O O O O O . , ..# . . . o . . . + { i $ $ $ $ $ & & > 2 u.v 3 i p M P b.i.l 7 2 < < : & : > < 6.V < < < ' v.2 > < < < 8 d.k 2 u.K 2 m g.3 < > : & & & & > 2 3 y [ E.0.i.b.k.U.-.G [ Y.!.H. X9Xn.P p a y 8 8 4 4 3 3 2 2 < & & $ $ $ # # # # + O . . . . . . O O O O O O O . < >.$ . o     ",
"  . . + ] 8 @ # # $ $ $ & & 2 0.k 3 y M b.XXi.l 7 2 < : & $ $ $ $ $ & & i 0.i < 2 2 3.Q > < < < < 2 2...i d.k 2 < > > : : > > < 2 3 i ' z.G H z.'.+X).j.9.!.v.'.~..XF.S.P s a a z Z N p i m v 2 & & $ $ $ # # # + O O . . O + O + @ @ # # # # # O 1 ..# . . o o o . . + [ 8 # # $ $ $ $ & : 1 0.v 3 y m d.XXd.m y 2 < < : & & & & 8 u.v > < < i V > : > > < 8 u.k 2 u.K 2 m g.3 < > > : : > < < 2 4 i ' c.M H i._.+X).w.8.W.v. X'.&XY.n.L p p i m K J s p m m 3 > & & $ $ # # # + + O O . . O O + @ @ @ # @ @ @ + < >.$ . o     ",
"  . . X ' 6 + + @ # $ $ $ & < 6.i 2 y M [.5XW y 3 2 < & $ $ $ $ $ $ $ 5 3.K < < 2 ' 0.8 < : > < < < 2. .i d.k 2 2 < > > > < 2 2 2 3 u ~ i.M N [ z.].uX2Xx.Q.T v.R.;.G 5.S.W d s { I.z.9.3.c.n.E & & $ $ $ $ # + + O O O O O + @ $ $ $ $ $ $ $ $ # 1 o.# . . o o o . . + ' 8 + # # # $ $ $ & < 6.k 2 4 m ~.8X_ y 3 2 < : & $ $ $ 2 3.E > & & & & & & & : : > 8 u.i 2 u.K 2 B g.3 2 < < > < < < 2 2 4 y _ z.M M _ j.].uX2Xk.Q.) H.[.-.L 5.S.W d p { R.b.0.3.z.n.! > : & $ $ # # # + + O O O O @ # # $ $ $ $ $ $ $ # 1 2.$ . o o   ",
"    . X ^ 6 . + + # # $ $ $ < 5.i 2 3 i 5.c.p 3 2 < : $ $ $ # # $ $ $ E { & & & E 0.8 : : : : : < < o.] y i.k 2 2 < < < < 2 2 3 v ! ~ 5.S.{ 2.3.w.).0X4Xm.n.3.3.Y.!.! m 5.!.v.0.S.g.' d.9.[ 0.! & & $ $ $ $ # # + O O + + # # $ $ & & & & & & & $ 2 2.$ . o o o o o . O ' 6 . + + # # $ $ $ < 6.i < 3 i 5.v.p 3 2 < : & $ $ $ $ Q ] & & & & & & & & & & : : 5 u.i 2 u.K 2 B d.7 2 2 < < < 2 2 2 v ! ' 0.I.{ >.>.9.).0X4XM.F.9.9.~. X~ m 5.R.c.i.S.i.~ d.5.! 0.' > > & $ $ $ # # + + + + + @ # $ $ & & & & & & $ $ 2 2.$ . o o   ",
"    . X ^ 6 . X + + # # $ $ < 5.8 < 2 2 { 5.3 2 < : & $ $ # # # @ $ $ Q E & & , 5.v & & : : & : > < o.] i i.k 2 2 2 2 2 2 3 4 Z c.u.0.u.d.i.z.v.n.S.H.H.F.n.z.i.y.z.S.K p >.$Xv.i.Y.Z.5.2.v.c.V & & $ $ $ $ # # @ + + @ # $ $ $ & * < 2 2 2 ; - & 8 2.$ . . o o o o . X ' 6 . O + + # # $ $ , 7.i < 2 2 ] 0.3 2 < < & $ $ $ $ $ Q E $ $ $ $ $ $ $ $ $ & & : 5 u.i 2 u.E 2 B g.8 2 2 2 2 2 2 2 V c.u.u.i.g.d.z.z.c.A.S.H.S.S.v.z.i.Z.Y.W s >.#XS.0.F.c.5.*.z.c.V > : & $ $ $ # # @ + @ # # $ $ $ & * > 2 2 2 > & & 2 2.$ . . o   ",
"    . X ^ 6 . . . + + @ $ $ : 4.8 > < 2 ' 2.2 < : & $ $ # + + + @ @ @ E E $ $ : 4.8 $ & & & & : : > o.] i i.k 2 2 2 2 2 3 7 K Y.2.i y i p p m M G G L L L G M m m z ..S.E a ! n.{ C m i y y 8 < > & & $ $ $ # # # # # # # $ $ & * 2 3 u i y 3 2 * i 3.$ O . o o o o . X ' 6 . . . + + # # $ : 4.i * < < ! 5.2 < < & $ $ # # # # Q E # $ $ $ $ $ $ $ $ $ & : 5 u.i 2 u.E 2 B d.8 2 2 2 2 2 3 V S...y y i p s m M M G J L G G M m z z 2.T.! p ! S.{ m v i y y 8 2 < : & $ $ $ # # # # # # # $ $ & * 2 3 t a t 2 < & 8 3.$ . . .   ",
"  o . X ^ 6 . . X + + + # $ & 2.8 & < > ! ..< , & $ $ # + O . O + + @ E Z $ $ & 2.8 $ $ $ $ & & : > ..] i i.k 2 2 2 2 3 7 C n.R.[ i i i p p m m M M M M M M m m m l p ..L.K 4 C z.{ i 4 3 2 - < > & & $ $ # # # # # @ # # $ & * 2 4 d ;.1.L y 3 3 2.' $ O . . o o . . X ' 6 . . . X + # $ $ & 2.8 & : & Q 2.< , & $ $ # @ @ + + D Z # # # # # # # # $ $ $ : 5 u.i 2 u.E 2 m i.8 2 2 3 3 3 m z.F._ y i i p p z m M M M M M M M m s p p 2.Y.! i Z z.{ y 3 2 2 < < > & & $ $ $ # # @ @ @ # $ $ & & < 2 a &.e.R y 2 2 { ~ # + . . o ",
"o . . X ^ 6 . . . + + + @ $ & o.5 & : & Q { : & $ $ # + O . . . O + + Z Z $ $ $ o.8 $ $ $ $ $ & : : ..] i i.V 8 i 3 3 3 7 ! c.v.{ i i i p p p z d M M M M m s s p p p p ] S.Z 2 m d.9.2.>.{ { ......{ ] ' ' ~ ~ ~ ~ ~ _ ' [ { { 2.8.x.8XaX_.0.2.5.2.< $ O O . o . . . X ' 6 . . . X + # # $ & 2.8 & & & D ..: & $ $ # @ + + + . D Z + + + + + + + + # $ $ & 5 0.i 2 u.E 3 v i.v l 7 3 7 7 Q v.z.] 8 i i i p p z M M M M m m z p p p p p ..Y.E 3 v i.9.>.>.{ ....{ ] ] ] ' ~ ~ ~ ! ! ! ~ ~ ' ' { { 3.j.4XsX].0.3.5.>.: # + . . o ",
"o . X + ^ 6 . . O + + + @ # & o.5 $ & $ E ] & $ $ # + + . . o . . X . Z V # $ $ o.6 # $ $ $ $ & : : ..' 2 Z 6.u.S.~ 3 7 8 ! .Xn.J p p p p p p l m M M M M m z p p p p i y ~ Z.Z 2 i E Z Z Z Z V V V V B b v v v v v v b b B V V K _ 8.OX0Xb.[ ! Z 2 $ $ # O . . . . . + ' 6 . . . X + + # $ & 2.5 $ $ $ D ..& $ $ # + O O . . . V V . X X X X X + + # $ $ & 2 0.i 2 d.E 3 8 ] n.S...y y y ! .XS.V i i i i p p z M M M M m m m p p p p i y ~ v.V < 8 Z Z Z V V V V V B B b b v v v v v v v b B V Z K ;.`.qXm.` P C 2 $ # + . . . ",
". . X + ' 6 . O + + + @ # # & o.5 $ $ $ Z ~ $ $ # + + . . o o o . X . V V + # $ ..6 + # # $ $ $ & : ..' 2 2 V Y.S.g.8 y i 6.Z.M a p p p p p m 0.v.v.v.v.v.v.v.d.J p p y 8 8 ! v.V > : : : : & & $ $ $ $ # # # # # # # # # $ $ & < 3 p R &.G y 3 < & & $ # O . . . . . + [ 6 . . . + + + # # & 2.5 $ $ $ V  .$ $ # + + . . . . o V V . . X . X X X + # $ $ & 2 0.i 3 d.! 3 3 i Z.v.S.p i p 0.S.C i i i i p p m u.S.S.Z.v.c.g.z.d.J p i y 8 2 E g.V < > : : : & & $ $ $ $ # # # # # # # # $ $ $ & > 2 y L R G y 3 < & $ # + X . . ",
". X + + ' 6 . + + + + + # # & 2.1 $ $ # V ! # # + + X . o o   o o . o V V + # $ ..6 + @ # $ $ $ & : ..' 2 3 i 4.Z.! y y ~ c.V i p p p p p m s.d.E P W E W W W 6.K.J i 8 8 3 2 D i.v & , , , : & & $ $ $ $ $ # # # # # $ $ $ & , < 2 4 p g f y 3 2 < & $ # O . . . . X + ' 6 . + O + + + # # & 2.5 $ $ # V ] $ # # + . . o o o o V V o . . . . X X + @ # $ & 2 u.i 3 g.! 3 8 3 ~ g.] i p [ n.C p p p p p p m s.c.~ ~ ~ ! E E W 6.S.Z y 8 3 2 < D g.B > , : : : & $ $ $ $ $ $ # # # # $ $ $ $ & & < 2 3 y a a t 3 2 : $ $ + X . . ",
"+ + + # ] 6 . + + + + @ # $ : 3.1 # # + V Q + + + X . . o       o . o V V O + $ { 5 + @ # $ $ $ & : ! 6.8 7 y p p i i y o.2.i i p p s s M v.g.m p z l p p p p s 4.S.m 3 3 2 2 < b 0.b : , : & $ $ $ $ $ $ $ # # # # # $ $ $ $ & - < 2 y p g p 4 2 > & $ # O . . O + + # [ 6 . + + # # # # + & 2.1 # $ # b ~ # # + O . . o o o   V V   o . . . . X X + # $ & 2 u.i 2 ~ 0.v 3 8 y i i i i 2.6.a p p p p p m s.g.M m m m z l p p p 4.S.B 3 2 2 < < V i.B & & & $ $ $ $ $ $ $ # # # # # # $ $ $ $ & * < 2 4 i a t 3 2 > $ $ + X . . ",
"+ + + # { 6 O + @ # # # # $ E ..$ # # + V Q + + + X . o           o o V V O + $ { 6 @ # # $ $ $ & : 5 ..5.l i p p p p i 2.2.i p p l z L P.Z.C m z z z l p p p p p o.c.m 2 2 < < : v 6.V < < : : & & & $ $ $ $ $ $ $ $ $ $ & : < < 2 3 y G :.| i 2 < $ $ # + + + + # # # { 8 O + # # # # # $ Z ] $ # # # B ~ + + O . . o o       B B     o o . . X X + # $ $ < 6.~ 2 2 ~ 0.B i i p p i i 2.6.p p p s z C g.c.C m m m m m z s p p p ..g.v 2 2 < < < B 0.B < , & & & & $ $ $ $ $ $ $ $ $ $ $ & & : < 2 3 i M &.T u 2 : $ # + X . . ",
"v V : # _ 5 O + + # # # $ E ..< # # # . b D . + X X . o               V B O + $ ..6 @ @ # $ $ & & > < 3 2.i.m p p p p p 2.4.i p l z P L.P.K M M >.6.>.C ..>.} p i y ] g.k < < , : : v 6.2.2.2.>.>.>.............{ { { { >.2.2.2.3.5.0.z._.iXU.p 2 & $ # + + + $ m E 1 # ~ 6 O + # # # $ & Q { , + # # @ B ! O + O . . o         b B       o o . X + + # $ & : i 6.! 2 2 ] c.K p f p p i 2.6.p l z x P Z.Z.J m M >.0.2.L >.3.` p y 3 ' i.k < < > : & v 0.4.2.>.>.>.>.>.>.......{ ....>.>.>.>.2.3.3.3.9.w.G.rX.Xs 2 : $ # + . . . ",
"5.>.{ v Q Z Q Q Q ! ! ~ { { : # # # @ $ ~ >.$ . . . . .               V B O + $ ..8 @ # $ $ $ & : < < 2 8 4.z.` _ m s p 5.4.a p p M T.T.L N M W 1X X X>.Y.d.I.m y 3 2 Q 6.i & : : : & 2 8 8 i i 3 6 6 6 6 5 5 5 6 6 6 8 8 8 i i k v m J 8..X0.y < & $ # + + + 5 5.>.3.V Q V Q ! ! ~ ' ' >..., O + + + & [ 9., . . . o o o       b b     o o o . . + @ $ $ & : > i u.4.v y 2.H.>._ m p i ..5.p p z J Q.Q.P M M K &X X X3.E.c.Y.m 7 2 2 ! u.k > & & & & 2 8 8 8 8 3 8 8 5 5 5 5 5 5 8 8 8 8 8 i i i i l M ;._.w.u > & $ # + X . o ",
"9.3.E 8 ] V c v v v v v v & + # # # @ b { { v . . . . o o         . o V B O # $ ] Q $ $ $ $ & & > < 2 2 3 i 0..X{.2.d s 0.K...{ >.3.Y.i.3.5.5.y.D.v.'.3.S.,.S.p 3 2 2 < D u.D : $ $ $ $ $ $ ' { $ # # + + + + + + + # # # $ $ $ & & * 2 y s y 2 > & $ # + X . < 5.0.! 8 ! b k c v v v v v < # + + + . v 2...V . . . o o o o     b B   . o . . . + + # $ $ & : < < B d.m i g 0.$X'.2.p p >.v.{ >.5.u. Xc.5.5.5.5.b.z.'.9.Y.3.Y.l 3 2 2 2 E d.E & $ $ $ $ $ $ ! ..$ # # @ + + O + + # # # $ $ $ $ $ & & < 4 a t < & $ $ + + . o o ",
"5 6 + . @ + O + + + + + + + # # # # # v u.4.8 . . X X . . o o . . . o V V O # # < ..Q $ $ $ & : < 2 2 3 8 y _ '.~.g.m z ` n.z.i.i.i.i.d.d.c.v.Z.Z.c.0.W d.i...7 2 < < < : Q Q : $ $ $ $ $ $ ! ..# + + + + + + + + + # # # $ $ $ & & & * < < > & & $ # + X . X . < 8 $ O # . . O + + # # # $ $ # # + . 8 y.5.k . . . . . o o o   V B o . . . . + + # $ $ $ & : < < 2 8 i f f _ '.R.c.m p W d.u.i.g.C.Z.Z.c.c.z.d.d.i.5.W c.d.2.y 2 2 < < < Q ! & $ $ $ $ $ # Q 2.$ # @ + + + + + + # # # $ $ $ $ $ $ & & > < * & $ $ # + X . o o ",
". . . . X + + # $ $ $ $ $ $ # # # # $ $ E k # + X X . X . . . . . . . V V O # $ $ < ..Q & & & > 2 2 3 7 y i m 9.c.! M M M N M g s s z m m m M G M M h g p y 3 2 < < : : : & & $ $ $ # # # O B ! O O O X + + + + + + + O # # $ $ $ $ & & & & $ $ $ # + X . . . . . . . O O O + # # $ $ $ $ $ $ $ # # + # B 8 + O . . . . . . . . V V . . . O + @ # $ $ $ & & : < 2 3 8 i f f M 0.c._ M m z m z z m M M M M M M G M m s p p y 3 2 2 < < > & & & $ $ # # # # O b ~ @ + + + . . X + + + # # $ $ $ $ $ $ $ & & & & $ $ # + + . . . o ",
". o . . + + # $ $ & & & & $ $ $ $ $ $ $ $ $ @ + O O O . . . . . . + O Z V @ $ $ $ & 2 2.Q & < < 2 i v m p p z m M M G G J H H M M m m m m m ' n.0.G g f i 8 2 2 < < : : & $ $ $ # # @ @ + O b Q . . . . . . X + + + < V & @ # $ $ $ $ $ $ $ $ # + + + X . . . . . . . . O + # $ $ $ & & & & $ $ $ $ # @ O O O O O O O . . . O O Z V O + + @ @ $ $ $ & & & : < < 3 i m m f g M G G G G G M M M m m m M M M M { I.i.M s p i 7 2 2 < < : & & $ $ $ # # @ @ + O v ~ O . . . . . . + + @ < E 2 $ $ $ $ $ $ $ $ $ $ # # + + X . . . . ",
"  o o . + # $ $ & > > > * & & $ $ $ $ $ $ $ # + + + + O O O + + + + @ ' ] $ $ $ & i >.v i < < 2 7 5.S.Y.[ 0.c.b.b.n.S.I.Y.T.Q.T.S.v.n.3.m m c.F.~._ g p y 4 2 < < : : & $ $ $ # @ + + O . . v E o o o o . . . . O & { 5.E + @ @ # $ $ $ # # + O . . . . . . o o o o . . O # $ $ & & * * * & & & $ $ $ # # @ + @ @ + + + O O + @ ] ] $ # # $ $ $ $ 8 ..3 & < < 2 7 6.I.I.{ w.n.F.I.Y.Y.Y.I.H.S.S.b.v.S.0.m M S.E. X_ p i 7 3 2 < < : : & $ $ $ # @ + + + . . c ! . . . o o . . O + & *.9._ $ $ # # # # # # # @ + + + + . . O $ : ",
"  o . . + # $ & > 2 z p 2 * & & $ $ $ $ # # @ + O O + O O + O + + @ @ V Z $ $ & & 8 5.2.5 < < 2 y c.>.v.i.E.z.b.;.} } { 5./.i.>.{ ! 3.c.v p { Y..X:.g p t 3 2 < > : & & $ $ $ # @ + . . . o v E o o o o o o . . O < ,.' ~ @ @ @ @ # $ 1 5 5 1 < < < < b $ . o o o o . . + # $ & < 2 a y 2 * & & & $ $ # @ @ O O + + + + + O O @ V Z $ $ $ $ $ $ $ 3 5.>.2 < 2 3 y c.2.g.0.R.z.n.3.*.>.>.5.~.9.} _ W 5.Z.v m >.[.%X3.p i 7 3 2 < > : & $ $ $ # # + + . . . o c Q o o     o o . . O < ,._ ` $ $ # @ @ # < 5 5 5 5 5 2 5 V < 6 { 3.",
"  o . + # $ $ & < J {.J.' E Z V V V B B B b v v v v v v v v v v v v m B i & & & & & , ! 5.8 2 3 y d.I.^.9.R.XXXX! m m M Z.~.W M h p ~ d.p p p M [ n.} y 4 2 2 < > : $ $ $ $ # @ + X . o o   c E o       o o . . + # V i.8 @ @ @ + + v 5....... .] ] E ' < . . o o o . O + $ $ * 2 M J.M.[ ! E E Z V V B B v v v v v v v v v v v v B V V c & $ & & & < ~ 5.i 2 7 y i.I.Y.3.I.+X$X' N G P K.~.P z p p ~ c.v m m L { I.[ i 7 2 2 < > : $ $ $ $ # @ O . . . o o k Q         o o . . + @ V w.8 $ # @ @ @ v 5.......{ { { ! 2.E ' >.[ ",
"  o . + # $ & * 2 L -X{.3.*.{ ` ' ' ' ~ ~ ~ ! ! ! ! ! ! ! ! ! ~ ~ _ ' [ 9.K & & & & : < ] i.l 4 y m K W M P _ _ M m m s.S.P m h g f } g.p p p f p K d.! 3 2 2 < > : < 8 & $ # @ O . . o o   c Q o       o . . . + + 5 ..& $ # @ + c 2.8 & $ $ $ $ $ $ Q : . . o o o . O # $ & - 3 T OX].9.3.>.>...{ { [ ' ' ~ ~ ~ ~ ~ ' ' ~ ~ ~ _ ' ] { 9.K & & & = , < { u.v 4 i m K K m L _ _ M M H c.Q.W M z p p ~ c.l p f g g P n.[ 4 2 2 < : & < i & $ # + O . . o o   k Q     o   o o . . + + 5 ..$ $ # @ @ v 2.8 $ $ $ $ $ $ & _ < $ Z ] ",
"  o . + # $ & * 2 t G x t 2 < & & $ $ $ # # @ @ @ @ # # # # # $ $ $ & & 8 5.Q & & , < < 2 ..z.m y i p p g g g m m m t.v.C z p p f f [ v.p p p p i y V u.! 3 2 < > & V z.2 $ # @ + . . o o   c Q o o   o o . . O + @ 6 ..& $ $ @ c ..1 # $ # # # # + $ ] , . . o o . . O # $ & < 2 p I G t 2 2 - * & $ $ $ # # @ @ @ # # # $ $ $ $ $ & & 8 3.Q * & < < 2 3 >.z.m i p p p p p z m m m s.L.W M z p p i ~ g.p p p p f p Z z.' 3 2 < : & V c.3 $ # @ + . . o .   k Q o o     o . . O + @ 8 >.& $ # @ c 2.6 $ # # # # # @ $ { 1 + + + ",
"  o . + # $ & > 2 3 4 t 4 2 2 > & $ $ $ $ # # # # # # # $ $ $ $ $ $ & & & 8 5.Q : < < < 2 8 2.c.m i p p p s g g M u.Z.V p p p p p p { n.g f s g y 8 3 V i.8 2 < > > k 0.< $ $ @ + O . . .   c Q . o o o o . . + # # 6 o.& $ $ $ ..v O # # # # # + + $ ] , . . o o . . O # $ & < 2 4 y y t 3 2 < * & & $ $ $ # # # # $ $ $ $ $ $ $ & & & & 5 5.! < < 2 2 3 i 5.v.N p p p p p p p s 6.Z.K m s p p p i ~ c.p p p m p i y V z.8 2 < : & i u.< $ $ @ + X . . .   c Q o o o . . . O + # # 8 2.& $ $ $ ..b @ $ # @ @ + + + $ ..1 + + + ",
"  o . + # $ & > 2 3 y a a 4 2 > & & $ $ $ $ # # # # # $ $ $ $ $ $ & & & > : 6 4.~ < 2 2 2 8 i 4.c.{ { { ..2.4.4.v.Z.C p i i i i p m c.g.g h 0.S.~ 3 3 l y.8 2 < > : 8 5.> $ $ @ + + . . . o v Q . . o . . . + + # # 8 2.$ $ $ $ o.q @ # # + + + + + $ ] , . . o o o . O # $ & < 2 4 a s s y 3 2 < & & $ $ $ # # # # # $ $ $ $ $ & & : & & & 8 7.] 2 2 3 3 y p 4.v.>.{ { { ..o...s.h.M p p p p p p m i.u.i p 0.Y.[ 7 3 v d.8 < < : : 8 6.< $ $ @ + + X . . o c Q . o o . . . + @ # # 8 4.: $ $ $ ..k # # # @ + + + O $  .1 + + X ",
"  o . X # $ & & 2 4 M ;.&.s 2 > & & $ $ # # # # @ @ # # $ $ $ $ $ & & & : : : 8 t. .8 3 8 y i p ] 0.0.u.y.i.d.c.g.J p p i i i i v g.I.Z f P '.n.g.7 2 l u.8 2 < < : 8 6.> $ $ # + + X X . . v ! X . . . . + + # $ $ 8 4.& $ $ & 2.k # # + + + + + + $  ., . . o o . . + # $ & < 2 t G =.=.M t 2 * & $ $ $ # # # @ @ # # # $ $ $ & & & & & > > 8 u.o.8 7 8 y i p ] 0.0.u.i.d.d.d.u.V p p p p p p m g.I.M i V ~.S.c.7 3 v g.8 < < > : 8 6.< $ $ # @ + + X . . c ! X . . X X + @ # $ $ 8 7.: & $ & ..k @ # @ + + + + + #  .< X X X ",
"  o . . + $ & v K _ k.0X8Xw.' ! E D V V V V V V V V V V V V Z D E E Q ! ! Q k < k s.4.i y i i a a a p p p s s d s p p i i i i l u.~.5.p p h u.R.d.i 2 l u.8 < < > & 8 6.< $ $ # # + + + + . v ~ X . . . + + @ $ $ $ k 7.: $ $ & 2.k # # + + + + + + $ .., o . o   o . O # $ < B K _ j.qX0Xx.{ ~ E E Z V V V V V V V V V V Z Z E E E E Q ! ! v 2 k s.4.i i i i i i p p s s d d s p p p p i p p m d.'.5.a y p 6.R.c.i 2 v d.8 < < : : 8 0.< $ $ $ @ @ + + + . v ~ X . . . + + # $ $ $ k 6.< : & & ..k # # # + + + + X #  .< X X X ",
"  o . X + $ Z 3.{ 3.b.qX8Xw.*.' ' ! Q E E E E E E E E E ! ! ~ ~ ' ' ] { ..4.g.V 4 v c.t.p p p p p p s z z z z z s s p p p i y m d.2.>.y i i i m 6.! 2 v u.8 < < : & 8 6.< $ $ $ # # @ + + + b ~ + + + + + # $ $ & & v 7.< : & & 2.k $ # # + + + + X $ .., . . o     . . # & E 0.*.,.x.9XqXx.3.{ ' ~ ! Q E E E E E E E E E ! ~ ~ ~ ~ ' ] { 5.z.V 2 v v.u.p i p p p s s z M M M m s p p p i i p Z S.0.3.i y 8 y v 0.~ 2 v i.8 < < > : 8 0.< $ $ $ # # @ @ # O b ^ + + + + @ # $ $ $ & c u.2 > : & ..k $ $ # + + O + X #  .< . X . ",
"  o . . + b 2.8 2 4 M &.) p 2 < & $ $ # # # # @ @ @ # $ $ $ & & * * > 2 2 2 ! v.! i m Z.s.m p s s z x x M M M M m z z p p p i B s.d.Q 3 7 8 8 4 ..{ 3 v u.8 < < > & 8 6.< & $ $ $ # # # # # V ^ # # @ @ # $ $ & & * v u.< < : : 2.k $ $ # + + + + X $ .., . . o   o . . O V 5.i 2 y h &.` d t 2 < & $ $ # # # # @ @ @ # $ $ & & & & > 2 2 3 ! c.U i M v.u.v p p s z x M M M M M M z p p i i i C n.S.' y 8 8 8 3 ..] 2 v i.8 < < > : 8 t.< & $ $ $ # $ # # @ b ] # @ @ @ @ $ $ & & > v u.2 < > > 2.k $ $ @ + + O + O #  .< . X . ",
"  o . . + ' V & < 2 4 y 4 2 < > & $ $ # # # # # # # $ $ $ & & : > 2 7 7 3 k v { I.[ p M Z.g.M z z M G J L L G M M z m s g f p Z n.' 3 3 3 3 3 3 2...3 v i.8 < < > : 8 6.< & $ $ $ $ $ $ $ $ V ' $ $ $ $ $ $ & & > 2 m i.3 < < < 2.k $ $ # # + + + + $ ..< . . o     . . O  .V * 2 3 4 y t 3 2 < & & $ # # # # # # # $ $ $ $ & & & 2 8 y 7 l m { I.{ p m g.u.M z m M M J L P L J G M z p i i y Z R.2.i 7 3 3 3 2 ....2 v i.8 < < > : 8 u.< & $ $ $ $ $ $ $ $ V ] $ $ $ $ $ $ & & > > B d.3 2 < < 2.k $ $ # # + + + + $  .< . X . ",
"    . . + ' v & & < < 2 < < & & $ $ # # # # # # # # # $ $ $ & : 8 u.0.u.! c.K.g.d.$X4.h M Z.K.i.s.c.Z.S.Y.Y.S.v.c.g.g.c.c.z.g.S.] 3 2 2 2 2 2 2 4...3 v i.8 < < > : 8 6.1 & & & $ $ $ $ $ $ Z ] $ $ $ $ $ & & > 2 3 Z z.i 2 < < 4.v $ $ $ # # + + + $ .., . . o     . . O ] b & - < 2 2 2 < > & & $ $ # # + + + @ # # $ $ $ & & 5 u.u.d.~ c.I.v.g.*X4.s M c.S.i.i.d.c.S.Y.Y.I.S.Z.c.d.s.u.0.6.v...y 3 3 2 2 2 2 ....2 v i.8 < < < : 8 u.< & & & $ $ $ & & $ V ] $ $ $ $ $ & & > 2 2 Z c.i 3 2 < 2.v $ $ $ # # + + + $  .< . X . ",
"    o . + ^ v $ & & & & & & $ $ # # # + + + + + # # # $ $ $ & : k u.C d.2.5.4.~.0.Z.^.0.M M v.|.0.3.c.H.6XqXU.0.3.2.{ n.n.o.{ ! 8 2 2 2 2 2 2 2 2...2 v i.8 2 < < < i 0.2 : : & & & & & & & Q ] $ $ $ $ & & > < 2 u } F.z 7 2 < 5.v & $ $ $ $ # # @ $ ..< . . o o   o . O ^ v $ & & & & & & $ $ $ # # + + + + + @ # # $ $ $ $ & 8 u.V d.2.2.2.|.s.S.~.5.M J Z. X0.2.z.F.2X0X).i.0.3.2.c.c.[ ~ E 3 2 2 2 2 2 2 2 ....2 l p.i 2 2 < < k u.< : : & & & & & : & Q ] $ $ $ $ & & > 2 3 u _ H.x 7 2 2 4.v & $ $ $ # # # @ $ ..< X X . ",
"    o . X ~ k # $ $ $ $ $ $ $ # # + + + + + + # # # # $ $ $ & & 8 g.u.c...S.S.s.p s ! I.0.M H z.Y.[ v.v.%XqX].b.*.M s 3.3.i t 4 3 2 < < < < < 2 o.{ 2 l i.i 2 2 2 < k u.2 < , : : > < < < B 0.b & & & & & * < 2 7 s Y.5XT y 3 2 6.v & & $ $ $ $ $ # $ { < . . . o o o o . ~ k # $ $ $ $ $ $ $ # # + + + + O O + + @ # $ $ $ $ & 8 g.u.g.] v.S.g.g g ! I.i.M J b.Y.[ h.b.&XeXOXF.8.I N 9.5.y 8 3 2 2 < < < < 1 < ..{ 2 v p.i 2 2 2 < c u.2 : : : : : > < < V 0.B & & & & & > 2 3 u z Y.5X( i 3 2 7.v & & $ $ $ # # @ $ ..< X X . ",
"    o . + ! i + # # # # # # + + + O O O + + @ @ # # # $ $ $ $ & < i m l i M Z v y i p M z.b.L.Y.S.Q.K.0.-.m.*X*XR.L M 3.3.u 7 3 2 < < < > < < < o.] 2 l i.i 2 2 2 2 v u.5 < < > < < < 2 V c.K < : & & & * < 2 3 y _ .X'.P i 4 3 u.B * & & $ $ $ & < < { , O . . . o o . . Q i O # # # # # # + + O O O O O O O O + # # $ $ $ & & > 8 v i 8 m Z m i p f K n.b.S.Y.I.~.Z.s.8.m.4X*X'.| H w.0.i 8 3 2 < < > < < < < ..{ 2 l p.i 2 2 2 2 v u.5 < < < < < < 2 V b.K < : : & & > < 2 7 p ` #X XP i 7 3 6.B & & & $ $ $ & > < ..1 + + . ",
"o o . . + Q 8 . + + + + + + . . . . . . + + # $ # # # $ $ $ $ & & < 2 2 2 3 3 3 4 7 y i m i.2X6XZ./.S.5.H _ R.b.~.w.d.n.5.4 3 2 < < : : : < < < X.] 2 l i.i 3 3 3 3 v u.3 < < < < < 2 Z F.R.v 2 < < * > < 2 3 8 E H.2.L h a y y u.V > * & & $ $ Z 5.3.w., + + . . o . . O Q 8 . + + + + + O . . . . . . . O @ @ + @ # # $ $ $ & & - < < 2 2 3 3 4 y p p M 0.$X6XS. XS.s.P ` R.z.E.z.n.E.u.i 4 2 < < : : : < < < ..] 2 l p.i 3 7 7 4 B d.5 < < < < 2 2 V F.U.p 2 < > > > < 2 3 y ~ !.9.P M p u 7 0.V > & & & & $ V 5.3.z.1 + + + ",
"o . . . . Q 8 . X X . . . . . . o . . . + $ V ' 8 $ & & & & : < < 2 3 8 8 i m 3 3 3 7 y p z [  X{ ' u.Y.z.n. X{.Y.Z.E.'.] 3 2 < < : : : : , < < ..] 2 l i.p 7 i ~ Z v u.3 2 2 2 2 2 V n.2.n.m 3 2 < < < 2 2 4 ! S.{ M C M m a i d.V < > * & & $ [ K v i., + + . . . . . O ! 8 o . . . . . . . o o o . . . # C ' 6 $ $ $ & : < < 2 2 2 7 8 i B 3 2 3 y i p s _ '.{ [ u.~.n.n.'.R.b.v.'.XX2.i 3 2 > : & : : : < < ..] 2 l i.i 3 i _ K C g.3 2 2 2 2 2 Z v.>.n.z 3 2 < < < 2 2 3 E H.>.J K C z i 7 y.C > > & & & & ' Z l z.1 # @ + ",
"o . X . : ..V + . o o o o o     o o . . . 1 >.>.3.[ { ....>.2.3.3.9.9.0.0.z.F.l 2 2 2 7 y a J I.V p m K K W ! _ K J c.5.y 2 2 > : & & & : : > > ..] 2 l i.l 8 M {.v.V i.8 2 2 2 2 V c.~ { '.3.p 2 2 2 2 2 3 K Z.{ i.I.S.S.S.>.p d.Z 2 < > & & & ] 3.[ z.< # @ + O . . O : 2.Z . o o o o o o o o o o o . . < *.*.3.[ { { ..>.2.3.5.9.9.0.w.z.H.l 2 2 3 8 y p M F.Z f M Y P K K K m M c.0.p 4 2 > : & & & & : > > ..] 2 l p.i 3 m {.v.Z c.8 2 2 5 2 Z c.~ >.'.3.p 2 2 2 2 2 2 V v.>.i.!.Y.H.S...i u.Z 2 > > & & & ] 2.' b.1 # # + ",
"X . X . E 2.2., o o             o o o . . $ Z ~ 8 < < < 2 2 2 5 3 8 8 8 8 l V 2 < < 2 2 3 7 m c.Q V V Z K Q ! ! Q u.5.i 3 2 < : & $ $ $ & : > > ..' 2 l i.l 8 p d.2.V g.i 2 3 3 y d._ p n.3.b.W 3 2 2 2 2 7 i...d.n._ ( K >.d.p d.K 2 2 < > : & { 2.~ i.2 $ $ @ O . O O ! 3.2.,               o   o o . . # Z _ 8 < < < < 2 2 2 5 3 3 8 8 i V 2 < 2 2 2 4 y m b.~ Z Z Z Z K E E E u.5.i 4 2 < : & $ $ & & & : > ..] 2 l p.p 7 i d.3.C v.i 3 3 3 i i._ m H.3.b.W 3 2 2 2 2 3 y.{ y.v._ _ W >.z.l i.Z 2 2 > > * & { 2.Q i.1 @ # # ",
"+ + + . ! ..2.< o               o o o . . O @ $ @ # # # $ $ $ $ $ $ & & & & & & > > < < 2 2 3 ' u.u.g.c.v.n.S.n.v.2.8 2 2 < : & $ $ $ $ & & : > ..' 2 l i.l 8 y 6.' C v.i 7 3 3 p c.M v n.z.F.K 3 3 2 2 3 8 i.{ Y.W i.Q.[ _ d.p d.K 3 2 2 < < : ] v < 5.2 $ $ # O . O # ~ ..2.1                   o o o . O + # @ # # # $ $ $ $ $ $ $ & & & & & : > < < 2 3 8 ' s.d.d.g.c.c.v.v.n.2.y 3 2 < > & $ $ $ $ & & : > ..] 2 l z.l 7 u 6.' V v.k 7 8 8 p g.m m F.v.S.K 3 3 2 2 3 7 i.{ H.L 0.!.{ ' c.l d.K 2 2 < > > > ] v < 5.5 $ $ # ",
"v V # X 5 V b @ o               o o o . . X + + @ # # # # $ $ $ $ $ $ $ $ $ & & & & : : > < 2 2 3 4 y y i i i y y 3 2 2 < : & $ $ $ $ $ $ & : > ..' 2 l i.l 7 y 6.' C v.l 8 8 8 l g.M p W n.2.i 7 3 3 3 3 y i.{ H.W L.2X5.} d.l d.E 3 3 2 2 < < { v 1 5.2 $ $ # b D @ + 8 E V $ o               o o o o . . + + + @ # # # # $ $ $ $ $ $ $ $ $ $ & & : > < < 2 2 4 8 y y y i i i i 3 2 2 < : & $ $ $ $ $ $ & : : ..' 2 l z.l 7 u 6.' V v.l y y y l z.C p W S.2.y 3 3 3 3 3 8 i.{ Z.J v.$X,.' c.z z.E 3 2 2 < < > { B < 5.5 $ $ $ ",
"~ ' # + . . . . o               o o . . . . + + + + + + # # # # # $ $ $ $ $ $ $ $ $ $ & & : > < < 2 2 2 2 2 2 2 2 2 < < : & $ $ $ $ $ $ $ & : > ..' 2 l p.l 8 u 6.' V n.l y y y l g.C p P c.C 7 3 3 3 3 3 i d.{ H.W u.c.0.*.d.l g.E 7 3 2 2 2 < { b 1 5.2 $ $ $ Q ..$ + O . . . o               o o o . . . + + + + + + + + # # # # # $ $ $ $ $ $ $ $ & : , < < < 2 2 2 2 2 2 2 2 2 < < & & $ $ $ $ $ $ $ & : : ..' 2 l z.l 8 u 6.' V v.l i i i z v.Z a P z.C 7 7 3 3 3 7 i g.{ S.J 3.i.3.>.c.m c.E 3 2 2 2 < < ..B < 5.5 $ $ $ ",
"D V @ + X . . . o             o o o . . X X X X + + + + + + + + + # @ @ @ @ # # # $ $ $ $ & & & > < < < < < < < > > : & $ $ $ # @ @ # $ $ & : : ..' 2 l g.l 8 y 0.] Z Z.l i i i l g.C ! n.' i 8 3 3 3 8 8 i g...S.4.W.u.Y.y.i.l g.Q 8 7 3 2 2 2 ..B 2 5.2 $ $ $ Z ! @ + + X . . .             o o o . . . X X X + + + O O O O O O + + + @ @ @ # # # $ $ $ & & : > < < < < < < < < > : & $ $ $ $ # # $ $ $ & & :  .' 2 l g.l 8 y 0.' C v.l i p p m Z.Z E n.~ 8 7 3 3 3 3 8 i c...S.*.S.5.I.u.h.z v.W 7 3 2 2 2 2 ..V 2 5.8 & $ $ ",
"E Z @ + + . . . . o   o   o o o . . . . X X X X X X X . X X X + X + + + + + + + + + # # $ $ $ $ & & & & & & & & & & $ $ $ # # # @ @ @ $ $ & : : ..' 2 k g.k 8 y u.] Z Z.m p p p m c.! H.>.l i 8 8 3 3 8 8 i c...S.5.u.C c.i.d.m c.! i 8 7 3 3 3 5.B 2 6.5 $ $ $ E ~ # # + X . . . o     o o o o o . . . . X X X X X . . . . . . . . . . O O O O + + @ # $ $ $ $ & & & & & & & & & & $ $ $ $ # # # # # $ $ & & : ..' 2 l g.l 8 y u.] C Z.l p p p M S._ S.{ i y 8 3 3 3 3 8 i c.>.S.2.0.v i.i.g.z v.W i 7 3 2 2 2 3.V 2 0.8 & & $ ",
"Q Z # # + X . . . o o o . . . . . . . X X X X X + X X X X X X . . . X . . . . . X X + + # @ # $ $ $ $ $ $ $ $ $ $ $ $ # # # @ + @ @ @ $ $ & : :  .' 2 k g.k 8 y u.{ Z S.m p p p m v.' H.C l i y 8 8 8 8 8 i c.>.S.3.0.m z.d.c.M v.! i i y 8 y [ 0.i 5 6.5 & & $ E ! $ # + X . . . . . o o o o . . . . . X X X X X X X X . . . . . o o o . . . . . X X + + # # $ $ $ $ $ $ $ $ $ $ $ $ $ # # @ + @ @ # $ $ & : :  .' 2 l g.l y i u.] Z Z.m p p z M S...I.m i i 8 3 3 3 3 8 i c.>.S.5.u.m p.i.g.z c.~ i i u 7 3 ' 0.i 5 0.8 : : & ",
"Q E # # + + X . . . . . . . . . X + + + + + + + + X X X X X X o . o o o o o o o . X . X + + + # # # $ $ $ $ $ @ # # # + + + + + + @ @ $ $ $ : :  .~ 2 k g.l 8 i u.{ K S.m p p p M Z.{ H.V p i y 8 3 8 8 8 p c.>.S.3.z.} S.z.c.M v.~ p p i p ..i.v 2 8 0.3 & & $ D ! $ # + + X . . . . . . . . . O O + + X + X X X X X X . . o o o o o o o o o o . . . . . + + + @ # $ $ $ $ $ $ # # @ + + + + + + @ @ $ $ & : :  .' 2 l g.l y i u...Z S.m p p z C S...I.C p i y 7 3 3 3 8 i c.>.S.6.S...S.d.g.z c.~ l p p p ..i.l 2 3 u.k > : : ",
"~ E $ $ # + + X . . . . . + + + + + + + + + + + + + X X X X . o o o             o . . . . . O + + + @ @ + # + + + + + + + X + + + @ @ $ $ & : :  .~ < k g.l 8 y u...K S.m p p s C I.>.Y.K m i 8 8 3 3 8 8 p c.>.D._ v.S.n.0.Z.M v.' z z m 5.c.m 7 3 i i.8 : : & D ~ $ $ # + + X X . . . . . O + + + + + + + + + + + . . . o o o o                 o o o . . . O + + @ + @ @ @ + + + + + O O O + + @ @ $ $ & : :  .' 2 k g.l y i u...E H.m p p z M S.>.R.E m p y 8 3 3 3 8 i c.2.Y.>.Y.Y.Z.9.g.z c._ z z m 5.c.m 3 2 8 u.k < > > ",
"~ ! $ $ # # + + + + + + + + + + # # # # # # # # + + + X X X . o o                     o o o . . . . X X X + X X X X X . X X X X + + # $ $ $ : :  .~ < k g.l y i u. .E F.m p p s J Y.3..XY.v.B 8 8 3 3 8 8 p c.>.H.K i.Z.6...C.C v.' J T i.S.C y 7 3 i d.8 > > & E ~ $ $ $ # + + + + O O + O + @ @ @ # # # # # # + + O . . . o o                         o o . . . X . X + + X . . . X . . . . X + + @ $ $ & : :  .~ 2 k g.l y i u...W H.m p p l M S.3.XXY.Z.C i 8 3 8 8 8 i c.2.Y.( C.D.r.[ g.z z.' G T i.S.C y 3 2 8 d.k < < < ",
"] ! $ $ $ $ # # @ # @ # # # # # # $ # # # # # # # # + + X X X . o                         o o o . . . . X . X X X . X X . X X X + + @ $ $ $ : :  .' < k g.l y i u. .[ [.K p p p C Y.5..X9.U.V 8 8 3 8 8 y p c...D.~ W.!.L...c.m c.` <.-X.X( p y 7 3 l d.i < < & Q ] & $ $ $ # # # # # # @ # # # # # $ # # # # # # @ + O . . . o                             o o o . . . . . . . . . . . . . . . + + # $ $ & : :  .' < k g.l y i d.>.>..XK p p p M K.3..X0.E.K i 8 8 3 8 8 i c.2.Y.{ ^.^.P.[ g.z z.` <.*X.X_ p i 7 3 i g.l 2 2 < ",
"] ~ : $ $ $ $ # # # # $ # # $ $ $ $ $ $ $ $ $ $ $ # @ @ + X X . o                             o o o o o o . . . . . . . . . X X + + # @ $ $ : :  .~ < k g.l u y u. .>.{.W i p p C Y.3.$XY.S.m y 8 3 3 8 y p c.' ..C g.=Xu...z.m b.[ k.yXU.G p i 8 7 l g.i < < > ~ ..: & $ $ $ $ $ $ $ $ # $ $ $ $ $ $ $ $ $ $ $ $ @ @ + O . . o o                               o o o o o o o . o o o o . . X . O + @ $ $ $ & : ] ' 2 k g.k 8 i u.2.9.#XW p p p m S.3.*X~.Y.Z i y 8 3 8 8 i c.{ >.E h.$Xu.[ g.m b.` i.yXU.G p i 7 3 i g.v 2 2 2 ",
"] ] : & & $ $ $ $ $ $ $ $ $ $ $ $ $ $ $ $ $ $ $ $ $ # # + + X X . o                                                 o o o . X X X + # # $ $ : :  .~ < k g.l 7 u u...l C p i i p M L.3.~._ C i 8 8 8 3 8 y p v._ p v K Y.W >.v.M b.{ _ ).-.z p i y 7 l g.k 2 2 < ~ ..: : & $ $ $ $ $ $ $ $ $ $ $ $ $ $ $ $ $ $ $ $ $ $ @ + O . . o                                                     o o o . . O + @ # $ $ & & ] ~ < k g.k 8 y u...M K z p p p m S.>.~.{ K l i y 7 7 8 8 i c.' m m K Y.W { z.m z.` ( ).-.z p i u 3 k c.v 2 5 2 ",
"o...< < < > : : : & & & : : : : : > > > > > > > $ $ $ # @ + + X X . o                                                   o o . . X + # # $ $ : & ] ! < i g.i 3 7 u.] y y y i i i m K.>.E.C p i y 7 7 3 7 y p v.~ p l E Y.! h.~.L n.{ M b.P p p i y 7 v c.k 2 2 3 ..2.2 2 < < > : : : : : : : : : : : : > > > > > $ $ $ $ @ O X . . o                                                     o o o X X + @ # $ $ & & ] ~ < l g.i 4 7 0.{ i p p i i i m Z...Y.J z p i 7 7 7 8 y i g.~ l m E Y._ c.~.J b.{ C b.W p p i y 7 k Z.m 3 3 y ",
"I.Z.u.0.5.5.2.2.2.2.>.2.4.4.5.5.5.5.5.6.6.5.5.5.E $ $ $ # @ + X X . o                                                   o o . . X + @ # $ $ & k 0.v > v v.k 3 4 u.] u y u y y y m Z.] T.C p i y 8 7 7 7 y i g.! i l Z H.! 2.i.{ E.~ m b.K i i i y 8 v c.v 3 3 K I.S.u.u.9.5.5.5.4.4.2.>.2.>.2.2.2.2.4.4.3.5.5.5.! & $ $ # @ + . . . o                                                     o . X X + @ # $ $ & k w.B < B S.v 3 3 6.' u i y i i i m Z.{ E.J p p y 7 7 8 y i p p.Q i v Z H.! 3.d.*.R.~ m b.W p i i y 7 l Z.B 7 8 C ",
"v v k k i i 8 8 8 3 3 3 3 3 8 8 8 8 8 8 8 8 8 i { Q & $ $ # + + X X . o                                                   o . X X + + # $ $ 5 0.Z > > V c.v 2 3 u.2.4 7 7 7 8 y v Z.E v.6.z p y y 7 8 i l m g.E i p E I.E m ' Y.>.m J S.Z i i i y 8 v Z.m 7 7 i m v l k i i 8 8 8 8 3 3 3 3 8 8 3 8 8 8 8 8 8 i >._ & $ $ # + + . . o                                                     o o X X + + # $ $ 5 0.E < < Z H.m 2 2 5...4 7 7 u y i m Z.~ S.0.p i y 8 y y i m C c.Q i i Z S.E M [ Y.>.m C S.K i i i y y l Z.V y i l ",
"2 2 2 < < > : & & & & & & & & & & & & & & & * & < ] ! & $ $ # + + X . o                                                   o o . . X + # # $ c 5.< & & < 8 2 2 2 V Z.! 3 3 3 3 8 v C.V m S.4.p i y 8 y E v.i.u.v y C v.4.m ! S.>.m Z v.9.l i i i 8 8 v Z.m i y y 4 3 2 2 < > > * & & & & & & & & & & & & * & * & 2 { ' : $ # @ + O . o o                                                   o o . X X + # $ $ c 5.> & > 2 p 3 2 2 V v.E 3 7 7 y i m Z.K C Z.2.y y y y y K n.b.g.B y B d.>.m ~ Y.>.z m z.6.p i y y i i v S.C i i i ",
"3 2 2 2 2 < < > > : & & & & & & & & > > > > * & & < ..~ & $ $ # + + X .                                                   o o X X X + # # $ c 4.: & & : > < 2 2 2 Z Z.Q 2 3 3 8 i g...t V S.>.p y y y ] d.v k 8 m d.2.l ! S...l J n.y.z i i i y y y m S.C a i i u 7 3 2 2 2 < < > > > : : : : : : * > > > > * * * 2 *.' & $ # + O . . o                                                   o o . X X + # # $ c 4.: & > > < 2 2 2 2 V v.E 3 7 7 y i g.>.i V v.{ y y i i ' c.M m i B d...i ! Y.>.l M c.u.p y y y i i i m Y.C i i i ",
"3 3 2 2 2 < < > > * & & & & & & & & * * * * > < & & i 9.< $ $ # @ + X X o o                                               o o . . X + + # # c 4.& & & & : > < < 2 2 V v.Q 2 3 3 8 V v.{ u C Z...i i y ' i.i i b u.] i E Z.] l C v.0.z p p i y 8 y y m H.J p p a i u 4 3 2 2 < > > > > > : : & & & * * > * * > 2 * & 8 5.< $ $ @ + + . o o                                               o o o . . X + + # $ c 4.& & & : > > < < 2 2 V v.Q 3 3 3 7 C Z...i C v...i i u ~ d.p p C d...i E S...p m c.6.i 7 7 y i i i i M Y.Z p p p ",
"u.u.t.7.7.7.7.4.4.2.o.o.o.o.o.o.o.o.......o.u.2.< & i 0.< & $ $ # + + X X . . o o o                                       o . . . X + + # # i 2.& & & & & : : > < < 2 V b.Q 3 3 7 3 B c...u V C.u.0.0.n.u.p V i.] 8 E b.' i V v.5.l p { i.0.6.0.u.y.g.{.Z.c.c.c.g.d.u.u.u.6.7.7.4.4.4.2.o.o.o.o.o.o.........u.2.< & 8 5.< $ $ $ @ + . . o o o o                                       o o o o . . X + + # # k 2.& & & & : : > < < < 2 Z b.Q 3 3 3 7 Z Z.2.p K C.y.5.5.z.0.p Z c...i E Z.{ i m c.5.i 8 ' y.y.u.i.d.d.c..XC.p.p.d.",
"......] ] ' ~ ~ ! Q E E E E D D D D Z Z Z E ..~ < > i 0.2 & $ $ $ # + + X X X . X X . . . . . . o . o o o o o o o o o o o o . . X X + + # # 8 o.$ $ $ & & : : : > < < 2 V Z.Q 3 3 7 8 V v.>.y m W ~ ! ! m C c...i E c.! 8 V c.2.i i 2.n.~ E E E W ~ _ ' { { { { { ' ' ~ ~ ! ! ! Q Q E D Z Z V V V V Z V Z V ' ! > & 8 0.< & $ $ $ @ + O . . o o o o o o o       o o o o o o o   o o o o o o . . X X + + # # i 2.& & & & & : : : > < 2 2 Z v.E 2 4 y i Z S.9.z B E E E E m m d.2.p E n.' i m z.>.8 7 ..v.! E E ! ~ _ _ _ ' ' ' ' ",
"8 7 3 3 3 2 2 2 < < : & & & & & & & & & & & * > > > k u.2 & & $ $ $ # # @ + + + + X X X X X X X X X . X X X X X . . . o o o . . X X X + # # 8 o.$ $ $ $ $ $ & : : < < 2 2 Z S.Q 3 4 y i C v.d.2.>.4.4.2...d.2.i ! c.Q 8 B z...y y ..c.V 8 8 8 8 y i p p p p p p i u 7 3 3 2 2 2 < < * & & & $ & & & & & & & & & & & i 0.2 & & $ $ $ # + + . X . . . . . . . . . . . . . . o . o o o o o o . . . X X + + # # 8 2.& $ $ $ & & : : : < < 2 2 Z b.Q 4 y i p K Y.Z.5.2.........u...i Q S.' i V c...7 3 ..c.B 3 3 7 y i i p p p p p l ",
"i y y 8 7 3 3 2 2 < < : : : & & & & & & : : : > < < v u.2 > : & & $ $ $ $ # # @ @ + + + + + + + + + + + + + X . X X X . . . . . X X X + + + 8 o.$ $ $ $ $ $ $ & : , < < 2 2 Z Z.Q 4 y i p ] XXz.2.4.4.4.2.~ i ! n.! 8 V z.{ 3 3 { i.v 8 8 8 y y i p p p p p p i i i y 8 8 7 3 2 2 < < : & & & & & & & & & & & & & & i u.2 > & & $ $ $ # @ + + + + + + X X . . . . . . . . . . X X . . . o . . . X X X + # # 8 o.$ $ $ $ $ $ & : : , < < 2 2 E S.! 7 y p z { =XH.6.5.>.....! 8 E n.~ i V c...7 7 ..g.v 3 3 7 8 y i p p p l l z z ",
"i i i y y 7 3 2 2 < < > : & & & & & & & : : > > < < v d.5 < < > & & & $ $ $ $ $ $ $ $ # # # # # # # @ @ @ @ + + + X X X X X . . X X X + + + 8 o.$ $ $ $ $ $ $ $ : : > < 2 2 2 D Z.! i p l u.qX>.i i i i y 7 Q c.! i K v.] 3 3 ] u.k 2 3 8 8 y y i p p p p p p i i i y y y y 7 3 2 2 < : & & & $ $ & & & & & & : > > k i.3 < : & & $ $ $ $ # # @ @ @ @ @ + + + + + + + + + + X X X X X X X X X . X X X + # # 8 o.$ $ $ $ $ $ & & : : > < 2 2 3 E Z.! y p z u.rXu.z p i y 8 3 E c.! i Z v...7 7 ..g.l 2 3 3 3 8 y i p p p z z z z ",
"p p p i i l v i 2 2 < > : & & $ $ & & : : : : < < < b g.3 2 < < < > > & & & & & $ $ $ $ $ $ $ $ $ $ $ $ $ # # @ + + + X X X X X X X X + + + 8 o.$ $ $ $ $ $ $ $ & : : < < 2 2 3 Q S.[ p p 2.!.M p i i i i ! c.K y E S.] 8 8 ] 0.k 2 5 5 3 8 y i p l l p p p p p i i i i p m C v 3 2 < : : & & $ $ $ $ & & & : > < < c d.3 < < > & & & $ $ $ $ $ $ $ $ # # # # # # # @ @ @ @ + + + X X X X X X X X X X + + # 8 o.$ $ $ $ $ $ $ & : : < < 2 2 3 3 Q S.' p s >. XW z l i i i Q c.Z 3 V v.' 3 8 ..d.l 2 2 2 5 3 8 i i p z z z z z M ",
"z l p p m v.v.z.i 2 < < : : & & $ & & : : : < < 2 2 B g.8 2 2 2 2 2 2 < < > > & : & : & & & & & & & $ $ $ $ $ $ # # + + X X X X X X X + + + 8 o.$ $ $ $ $ $ $ $ $ & : : < 2 2 3 y ' >.s p [ Z.p i i i i ' n.K 3 Z n.[ y 8 ] 0.i 2 2 2 5 5 8 y i z 6.Z.6.m l l p p p p p M K.S.v.l 2 < > : & & $ $ $ & & & : > < < 2 v g.8 2 2 < > * & & & & $ $ $ $ $ $ $ $ $ $ $ $ $ $ # # # # + + + + X X X X X X X + + + 8 ..$ # $ $ $ $ $ $ & & : < < 2 2 3 8 ~ { p p ~ S.m l l p p ~ Z.E 2 V z.~ 3 3 ] u.l 2 2 2 2 5 3 8 i p 4.Z.0.M M M M ",
"x z z p Z Y...F.v 2 2 < > : : & & & : : : < < < 2 2 V c.i 3 3 3 7 i 3 2 2 < < > > : : & & & & & & & & & $ $ $ $ $ # # + + X X X X X X X + + 6 0.' ^ ^ ' ' ' ] ] ] ......2.4.6.u.d.K.0.s a ~ c.p i i i ! c.K y K c._ *.J l g.v 1 2 2 2 2 5 3 y i m T.v.Y.V v v z z m p f K Y.>.F.B 2 2 < : : & & & & & & : : < < 2 2 b c.i 2 2 2 2 < < < > & & & & & & & & & & & $ $ $ $ $ $ $ # # # @ + + + X X X X X + + + 6 0.^ ~ ~ ~ ~ ] ] ] ......2.4.5.7.u.u.Z.4.i y ! S.m p p p [ S.! 7 V z.W ' B i d.v 2 2 2 2 2 2 3 8 i l S.b.!.K M G L ",
"<.M m z Z J.U.E.m 3 2 < > : : : : : : : < < < 2 2 3 V Z.i 8 8 y W R.0.2.2.......X....... .] ] ] ] ' ' ' ~ ~ Q < $ $ # # # + + X X X X X X + $ c b b b B B B V V V V D E E ! ~ ' { 4.' p i ! d.i i i ~ c.V 8 U b.! ] F.C v d.8 1 2 2 2 2 2 3 C ] >.~.5.K.C m C y.3.M m g Z Y.Y.'.m 3 2 < < : : & & & : : , < < 2 2 2 B v.i 4 3 3 2 2 2 2 2 < < < > > * : : : & & & & & & & $ $ $ $ $ # # + + + + X X X X + + $ c b b b b b B V V V V D E E ! ! ~ ] ..! y y E Z.v p p [ S.W y E n.E ! n.v i 0.8 < 2 2 2 2 3 7 V ~ ] F.>.Y.K G ( k.",
"[.( J M m J ( U.Z 3 2 2 < > : : : : : , < < 2 2 3 7 Z Z.l i i i W S.5.{ { ] ] ' ' ' ' ~ ~ ~ ~ ~ ~ ! E E K Z { 2.< $ $ # # + + . X X X X X X + + + + + + # # # $ $ $ & & & * > 2 2 3 7 8 8 E d.i v u.v.Z 3 K b.! ~ v.Z 3 i s.b < 2 2 2 2 2 B Z.i.u.i.{ K.C C _ 4X#X) P M m M W U.K 3 2 2 < > : : : : : , < < 2 2 3 7 V Z.l y y 8 u 7 3 5 2 2 2 < < < < < < < < < > > > : & & & $ $ $ $ # # @ + + + X X X + + + . + + + + # # # $ $ $ $ & & > > 2 2 2 3 7 7 E v.l v u.S.! i ! S.~ W c.V 2 8 6.c < < 2 2 2 3 V n.0.5.9._ Y.P W ,.6X",
"#X!.'.c.m p M F.c.V 2 2 2 < < > , > < < < 2 2 3 8 y Z Y.K p p p l m p y y 7 3 3 3 3 2 2 2 2 2 2 2 2 8 ..5.3.l ' ..< $ $ # # + + X X X . X X X + + + + # # # # $ $ $ $ & & : > < 2 2 2 2 3 E d.i m g.~ 7 K c.Q B b.K 2 2 2 Z 6.v < 2 2 2 k i.' i p m W S.! Y.R.XX-X[. Xc.m p M H.c.V 2 2 < < < , , , , < < 2 2 7 y i K I.K p i p _ _ m v l l l k k i i i i i i i i 8 8 8 3 5 5 2 < < < : $ # # + + + X X X X + + + + + + # # # $ $ $ $ & & : > < < 2 2 3 4 K g.i v p.' y E S.' m n.Z 2 2 < V 5.c < < 2 2 v z.{ a p p K S.' ^.'.-X",
"_ _ 4.H.m p s G { v.Z 2 2 < < < < < < < 2 2 3 p W m m 6.S.K p p l p i i i i y 8 8 8 8 8 8 8 8 8 3 2 v n.[ b.V < Q { < $ $ # # + + X X . . X X X X + + + + + # # # $ $ $ $ & : : < < 2 2 2 K i.y 8 i 8 m c.Q 2 V 0.3 2 2 < < V u.v < 2 i 6.~ 2 8 i p Z v.' S._ _ [ ] 4.S.m p p M ' c.V 2 2 < < < < < < < 2 2 3 l _ C m 5.F.K p M ^.$XA.c.c.c.c.g.g.g.g.p.i.i.i.k.k.i.i.0.9.9.5.3.3.>.>.>.v # # + + + X X X X X X X X + + + + # # $ $ $ $ $ & : : < < 2 2 2 V i.3 3 y y V n.~ 7 Z i.3 2 < < < V 0.v < < i y.] u u i i Z S.{ R._ ( ",
"p p E Z.m p a a a ' v.Z 2 < < < < < < 2 2 3 4 C ).c.M m 5.I.W l l p i i i y y 8 8 8 8 8 8 y y i i 3 c v...c.b < < [ E $ $ # + + X X X X . . X X X X X X + + + + # # $ $ $ $ $ & & : < < 2 Z i.7 2 3 3 ! 0.5 2 V 5.2 < < < < < { Q < 8 5.~ 2 2 3 8 i V c.! c.N A A m K c.l y y 7 7 ! v.E 2 2 < < < < < < 2 2 8 Z ].n.M m 5.F.P s _ _ m m m m l l l p p p p p l z P W v i i 8 8 3 5 2 2 i >.v # # + + X X X . X . X X X X + + + @ # # # $ $ $ $ & : > < 2 2 B u.5 2 3 7 ~ i.3 2 V 0.2 2 < < < < { Q : 8 5.~ 3 3 7 7 y C S._ A.m m ",
"0.0.d.v.z M 2.2._ i E g.Q v v v v v b b B m i l >.].v.M m 5.Y.u.6.6.7.7.6.7.7.7.5.5.7.6.6.6.u.S.g.y 8 K ! K 2 < & K ! $ $ # # + + X X . . . . . . . X X X X X + + + # # # $ $ $ & & & > > V y.3 2 2 2 ~ 0.2 2 B 5.2 < < < , > ' Q & ~ 2.2 2 2 2 3 3 B d.E Y.h.h.f.s.g.c.i m { ..! y E v.' b b v c c v v B B i l >.].v.C m 5.H.y.0.u.u.u.u.u.u.u.u.u.0.0.0.0.u.i.&X XM 8 3 2 < < < , & & i *.& # + + X X X . . . X . . X X X + + + # # # # $ $ $ & : : < > v 0.2 2 2 3 ~ 0.3 2 V 0.2 < < > < : ~ Q & Q 2.2 2 2 3 3 7 C Z.W Y.y.0.",
">.....W p ] I.i.v.i 3 V 6.u.u.u.s.s.d.g.g.n.u.m m _ '.d.M m { 5.4.5.4.4.5.5.5.4.4.4.4.4.4.4.4.g.t.i 7 2 2 < < * & K ! $ $ # # + X X X . . o o . . . . . X X X X X + + @ # # $ $ $ $ & & * V 9.2 2 2 2 Q 6.2 < B 2.< < : : : : ' Q & ' [ 2 2 2 2 2 2 v d.B ..7.4.4.4.2.E y ~ n.0.c.i 8 V u.s.s.u.u.u.u.f.g.Z.u.m m _ E.i.M m ' 2.4.7.7.7.7.5.5.5.5.5.4.2.4.2.5.5.R.I.m 8 3 2 2 < < < & & 1 *.: @ + + X X . . . . . . . X . X X X + + + # # # $ $ $ & & : : l 9.2 2 2 3 ! 0.2 < B 6.2 < > > : & ! E $ ! ' < 2 2 2 2 3 m c.m ~ { { ",
"V Z V C C >.d.{ c.i 8 2 2 2 5 5 3 3 3 8 y l i.d.m m W Y.g.M p p p p p p p p p p p i i y y y y i i y 3 2 2 < < - & Z ! $ $ # @ + X X X . . o o   o o o . . . . X X X + + + @ # $ $ $ & & & W v.3 < < < E 5.2 < B 2.< : : & : & ' Q & ' ] < < < < 2 2 v c.E Z Z Z D K Z V m ..d.] g.y 7 9 9 8 5 2 2 5 5 3 8 l i.d.M l K F.i.m p p p l l l p p p p p p i i p i i p m m i 3 5 2 2 < < < : & 2 2., # + + X X . . o o . o o . . . . . X X + + + # # $ $ $ & & & Z n.i 2 2 2 E 5.2 < B 6.< > : : & & ! D $ Q ' > < < 2 2 2 v C.Z m V M ",
"g.d.g.d.u...6.u.[ 7 3 2 2 2 2 2 2 2 2 2 3 7 l u.d.C m E S.d.m p p l l v v v v v p p i i i y 8 8 4 3 2 2 < < * & * ` E $ # # @ + X X . .             o o o o . X X X X X + + # # $ $ $ & & E y.3 : > < K 3.2 < B 2., : & & & & ~ E & ' [ < < < < < 1 8 5.d.d.g.h.v.c.c.g.u.{ t.t.' 3 2 2 2 2 1 1 2 2 2 2 3 3 i u.i.m z K b.i.m m m m v v v l l p p p p p p i i i i y 3 5 2 2 2 2 < < : & 2 2.< # + X X . . o o o   o o . o o . X X X X + + + @ @ $ $ $ & & Z i.i > < 2 Z 3.< < B 5.< > & & & & ! D $ Q ' : > < < 2 2 8 4.u.u.u.i.",
"l p i i i 8 3 3 3 3 2 2 2 2 2 2 2 2 2 3 3 7 y l u.c.C v C z.z.u.y.y.y.i.i.i.i.i.i.u.y.u.u.u.6.7.5.4.2.....{ { [ *.[ < $ # # + + X X . o               o o o o . . X X X + + + # # $ $ $ & * < & & > > Z 3.< < B 2.: & & & & & ~ K & ~ ' & > > < < < 2 8 i i p l l p i i i 8 3 3 2 2 2 2 2 2 2 2 2 2 3 3 3 3 8 i 5.d.M l C c.S.h.g.g.g.g.g.g.g.g.g.g.v.h.g.6.m y y 3 3 5 3 K { [ k < = & Z *.$ # + X X . o o       o o o o o . . . X X X + + + @ @ # $ $ & * 2 > > > > V 2.< < v 5.< : & & & & Q Z $ E ~ : > > < < < 2 3 8 y i p ",
"y 8 8 8 7 3 3 2 2 2 2 2 2 2 2 2 2 2 3 3 3 3 7 i v u.c.m y m ' ] { { { { { ................ .' ' ~ ~ ! Q E E E K C < $ $ # # + X X . . o             o o o o . . . X X X X + + # # $ $ $ $ & & & & & > E d.2 < v >.: & & & & & _ K & ~ ~ & & : > < < 2 2 3 8 8 8 8 8 8 8 8 8 3 3 2 2 2 < < < 2 2 3 4 7 4 4 3 4 3 i 6.z.C p C ..2.2.>.>...........>.2.u.d.6.i.i.m 3 2 2 2 3 w.w.b._ < , V 3.6 # # + X X . o         o   o o o . . . . X X X + + + @ # # $ $ & & & : : & V 0.2 > v 3.< & & & & $ Q Z $ E ~ & & > > < < 2 2 2 3 7 y ",
"8 3 3 3 3 3 2 2 2 2 2 p ..4.4.5.5.5.6.6.0.5.m y i l 7.d.B k v v m m K ' _ C K E Z i y 7 3 2 2 < < > : & & & $ $ $ $ $ # # + + X X . o               o   o o o . . X X X + + + @ @ # $ $ $ $ & & & & : E _.V & v { : & & & & & ' K $ Q ! $ & & * < < 2 2 2 2 2 3 3 3 3 3 3 3 3 2 2 2 < 8  .2.5.0.0.u.u.u.u.5.m 2 3 i 5.c.Z m M M m z p p i i i i i p 0. XW l >.i.m i i i i w.' 9.~ 2 ~ 3.8 # # + . X . o o               o o . . . . X X + + + + @ @ # $ $ $ & & & : & V U.m * m 3.< & & & & $ ! D $ E _ & & : > > < < 2 2 3 3 7 ",
"6.6.6.7.5.5.4.4.4.4.4.i...V Z D E E E ! ! 2.d.m y i i ..b.c.v.v.S.n.|.E.'.4.S.n.Y.V 8 8 3 2 2 < < < : & & & $ $ $ $ # # + + X X X . o             o o o . . o . . X X X + + @ # # # $ $ $ $ $ & & & : 3 d.B & v { , & & & & $ ~ D # V 9.] ....2.2.4.2.4.4.4.5.5.5.7.7.6.6.7.5.5.5.4.o.u.] V D E W ! ! ! W >.i.v 2 8 i 4.S.5.c.Z.J z p p i i i i i i 2. XC i y ~ 0.3.3.3.,.9.0.w.B l 3.8 $ # # + X X . o o o     o o o o o . . . . X X X + + + @ @ $ $ $ $ $ $ & & & & 2 0.m - B 3.> & & & $ $ ! Q $ Z w.{ ........2.2.4.5.5.6.6.",
"E E D D D D Z D Z Z V v > * * > 2 2 2 2 u K 2.c.C 7 8 8 V V Z Z K ! E.3.n.5.v.! Z.D 3 2 2 < < < , : & & $ $ $ $ $ # # + + X X X . . o o o o o o o . . . . . . X X X X + + + # # # $ $ $ $ $ $ $ & & : < 3.v & v *.: & & & & $ V 2., & k b B V V V Z Z Z Z Z D D Z Z Z Z Z Z Z Z Z V V v < * < 2 2 2 2 2 3 m ..b.V 3 y i ..{.0X2XK l p i i i i i y y K c.i 8 3 3 8 7 3 2 2 < < < , & & $ $ # + X X X . o o o o o o o o o . . . . X X X + + + @ @ @ $ $ $ $ $ $ $ & & & > 3.B < m 3.: & & $ $ $ V 3.2 < v V B B V V V V V V Z Z E ",
"8 8 8 8 8 3 5 5 2 2 2 2 2 3 3 2 2 2 2 2 v R.' ..y.3 3 8 8 8 8 y i p c.K.Y.{ v.C.S.B 2 2 < < : : & & $ $ $ $ $ # # # + + X X X X . . o o o o o o o . . X . . X X X + + + @ # # # $ $ $ $ $ $ $ $ & & : < 3.v = v k.! C < & & $ & Q ..1 < < < 2 2 2 2 5 5 3 3 3 3 8 8 8 8 6 6 5 5 2 2 2 2 2 3 3 2 < < 2 2 k Y.~ ] u.8 8 y p W i.R.M p i i i y y y 8 8 Z d.8 2 2 2 < < < < , : & $ $ $ $ # # + + X X X . . o o o o o o . . X X X X X + + + @ # # # # # $ $ $ $ $ & & & : > 5.V < B k.W m & $ $ $ & ~ 2.8 2 2 2 2 2 2 2 5 3 8 8 8 i ",
"f.f.f.s.u.u.u.t.t.t.6.u.u.u.d.V 2 < 2 2 8 g.E V y.5 2 2 3 3 8 8 8 y l m v i v m l 5 2 < < : & & $ $ $ $ $ # # # # + + X X X X . . . . o o . . . . . X X X X X + + + # # # # $ $ $ $ $ $ $ $ $ & & & : < 3.v = B z.2.i.2 & $ $ $ $ ~ t.7.7.7.6.t.u.u.u.u.u.u.u.u.u.u.u.u.u.u.t.t.t.t.u.u.u.u.d.V - < < < 5 g.E B u.8 3 8 y i K n.m i i y y y 8 8 8 3 V d.5 < < < > : : & & $ $ $ $ # # # + + X X X X . . . . . . . X . X X X X + + + # # # # $ $ $ $ $ $ $ $ & & & : : < 9.V < B k.{ 0.< $ $ $ $ : ] s.7.7.7.6.6.u.u.u.u.u.d.d.g.",
"k i i 8 8 8 8 8 8 8 8 8 8 8 V i.V < < < 2 7.Z m 0.2 2 2 2 2 2 2 2 3 2 2 2 2 2 2 2 < < : : & $ $ $ $ $ # # # # + + + X X X X X . X . . . . . X . X X X + + + + + # # # $ $ $ $ $ $ $ $ $ $ & & & : : : < 3.v = V i.~ 0.< & $ $ $ $ & 1 5 6 6 6 8 8 8 8 8 8 8 8 8 8 8 8 8 8 8 8 8 8 8 8 8 8 8 V 0.B & < < 2 7.D B y.8 3 3 3 7 C z.m l l l k l k k i i Z u.2 < , & & & $ $ $ $ $ # # # + + X X X . X X X X X . . X . X + + + + + + # # $ $ $ $ $ $ $ $ $ $ & & & & : : < 2 0.V < v 0.Q 9.< $ $ $ $ $ : 5 5 5 5 5 5 8 8 8 8 8 i i k ",
"2 2 2 < < < < < > > > : * * * ! 2.> < < 2 5.V m 9.2 2 < < 2 2 2 2 2 2 2 2 < < < > : : : $ $ $ $ @ # # # # + + + X X X X X . . . X X . X X X X + + + + + + # # # $ $ $ $ $ $ $ & & & & & & & : : : : < < 5.b < i 2.2.! < & $ $ $ $ $ $ & & & : < > < < < < < < < < < < < < < < < > , > < > & & Z { & < < < 7.D m u.8 2 2 2 2 v z.g.g.g.g.d.d.u.u.u.u.g.4.< : & $ $ $ $ $ # # # + + + + X X X X . X X X . . X X + + + + + @ # # # $ $ $ $ $ $ & & & & & & : & : : > < < 2 0.V < 8 { ..E : & $ $ $ $ $ $ $ & & & : > < < < < < 2 2 ",
"2 2 2 < < < < < > > : * : > * Z ..* < < 2 4.V v 6.2 < < < < < < < < < < < < : : : : $ $ $ $ @ @ # @ # # + + + X X X X X . . . . . X X X X + + + + # # # # # $ $ $ $ $ & & & & & & : : : : : : < < < < < 0.V 2 2 2 < < : & $ $ $ $ $ & & : : : > > > < < < < < < < < < < < < < < > > < > : & & B ] & , < < 7.Z m 0.6 2 2 2 2 2 i v v v l k k i 8 8 8 8 2 : & $ $ $ # # # + + + X X X X X X X . . X X . . X + + + @ # # # # $ $ $ $ $ & & & : : : : : : : : : < < < < < 2 0.Z < < < & & & & $ $ $ $ $ $ & & & & > < < < < < 2 2 2 ",
"2 2 < < < < > * * & & & & & & V ..& < < < 4.V v 6.2 < < < < < < < , : : : : : % $ $ $ $ # # @ + + + + + + + + X X X X . . . . . X X X X + + + # # # $ $ $ $ $ $ & & & : & : > > < > < < < < < < < < < < ..s.i 2 < < < : & $ $ $ $ & & : > > * & > > < < < < < < < < < < < < < > * & & & & & & B { & , < < 4.V v 0.2 2 2 2 2 2 2 2 2 2 < < < < : : : & & $ $ $ # # + + + X X X X . . . . . . . . X X . X + + @ # # # $ $ $ $ $ & & & : : > > > > > > > > < < < < 2 2 2 2 ] u.8 < < < : & & $ $ $ $ $ & & & & & > > < < < < 2 2 2 ",
"B B b b v v v c k k k k i 2 & V ..& > < < 4.V v 6.2 < < < < > > : : : : : $ $ $ $ $ @ # + + + + + + + # # # + + X X X . . . . X X X + + + # # # $ $ $ $ $ & & & : : < < < < < < < < < < < 2 2 2 2 5 2 2 y 5.u.8 < < < : & & & & & & & : 2 E b k k c v v b b b b b b b b v v v v v k k k i < $ B { & , < < 4.V v 6.2 2 2 2 2 2 2 2 < < < < : : : & & $ $ $ $ # # + + X X X . . . . . o o . . . . X X + + + # # # $ $ $ $ $ & : : : < < < < < < 2 2 < 2 2 2 2 2 2 2 8 2 2 2 ..u.8 < < < : : & & $ & & & & < V v k k c v v v b B B ",
"d.i.u.u.u.u.6.6.6.7.7.7.u...& V ..& > < < 4.V v 6.2 < < < < < : : : : : $ $ $ $ @ # @ + + + + + + + + # 8 ! 5 + + X . . . . X X X X + + # # $ $ $ $ $ & & & > > < < < 2 2 2 2 2 2 2 2 2 2 2 2 2 3 3.E 4 4 i 5.0.8 < < < : & & & & & & : i v.u.4.4.7.r.t.u.u.u.u.u.u.u.u.u.u.6.6.6.5.4.4.0...& B ..: > < < 4.V l 6.2 2 2 2 2 2 2 < < < , : : : : $ $ $ $ $ # # + + X X X . . . . o o o o o . . . X + + + # # $ $ $ $ $ & & : > > < < 2 2 2 2 2 2 2 2 2 2 2 2 2 2 3 5.~ 2 2 2 2.u.i 2 < < : : & & & & & & 8 z.0.4.4.7.6.t.u.u.u.u.",
"8 8 8 3 2 2 2 2 < < < < c 5.< V ..& > < < 4.V v 6.2 < < 2 5 < > : : : $ $ $ $ $ # # # + + + + + + + # $ ' 3.' # + X X . . X X X X + + # # $ $ $ $ $ & & & > < < 2 2 2 2 2 2 2 3 3 3 3 3 3 3 3 3 3 ! F.~ y 4 8 2.0.8 < < < : : : & & & : < 8 2 2 2 2 5 3 3 7 7 7 7 3 3 3 2 2 2 2 2 2 < < c 5.< V ..: < < < 4.V l 6.2 2 2 2 8 2 < < < : : : & $ $ $ $ $ $ # @ + + + X . X . . o o o o o o o . . . + + + @ # $ $ $ $ $ & & & > < 2 2 2 2 2 2 3 3 3 3 3 3 3 3 3 3 3 7 E n.! 2 2 8 2.i.i 2 < < : & & & & & : < 8 3 2 2 3 3 3 7 8 y i ",
"8 3 3 2 2 2 2 < < < < : k 5.< V ..: > < < 4.V v 9.2 2 < b h.v > : : : $ $ $ $ $ # # # @ + + + + @ # # # B w.v # + X X X . X X X O + # # $ : 8 8 8 i i k v v m B m V C C V V Z Z Z Z Z Z Z Z K K V p ~ F._ 8 3 8 ..u.i 2 < < < : : : : : < < < 2 2 2 5 3 3 3 3 3 3 3 3 2 2 2 2 < < < < : q 5.< V ..< < < < 4.V l 6.2 2 2 v v.D < < : : : & & $ $ $ $ $ $ @ # + + + X X X . . . o o o o o o . . . + + # # $ : 8 8 8 i i l v m B V C V V V Z Z Z Z Z K K K K K K K C i E n.~ 7 7 y 2.d.i 2 < < < : : : : , < < 2 2 2 2 3 3 7 7 y i ",
"8 8 8 3 2 2 2 2 < < < : k 6.< V ..: < < 2 4.V m 9.3 2 2 v I.B < < : : : $ $ $ $ $ $ # # @ @ # # # # # # , *., + + X . . X X X + + + # # : [ 3.>.2.3.3.9.0.w.i.i.z.z.z.z.z.b.c.c.c.c.c.c.c.c.b.n.I.:.p ! n.~ 8 8 8 2.d.v 2 < < < < > > > < < 2 2 3 3 7 8 8 8 7 7 7 7 7 3 3 2 2 2 2 < < < k 7.1 V ..< < < < 4.V l 9.2 2 2 l I.E < < > : : : & & $ $ $ $ $ # # @ + + + X X X . . . o o o o o . X X + + # # < [ 3.>.2.3.5.9.0.i.i.d.z.z.z.z.z.z.z.c.c.v.v.v.v.v.v.v.F.>.i E F.{ i y y 2.u.i 2 < < < > > < < < 2 2 2 3 3 4 7 8 y i i ",
"y.y.u.y.5.l 2 2 2 < < : k 6.< V ..> < < 2 7.Z m y.3 2 2 8 u.k < < < : : : & $ $ $ $ $ $ $ $ $ $ $ # $ $ , { : @ + X . . X X X + + # # $ _ } < < < < 2 2 3 8 y i i i i i p l l l l p p l l l m m ! n.] i E n.{ p i i 4.d.v 2 < < < < > < < 2 2 8 ] 5.6.5.5.6.6.9.9.9.6.6.5.m 3 2 2 < < < c 0.2 V ..< < < 2 7.D l y.3 2 2 7 u.B 2 < < > : : & & & $ $ $ $ $ $ # # # + + + X . . . o o o o . . . + + # # $ } _ < : , < < 2 3 8 i i p p l l l l l l l l l l l l l l K n.*.l ! U.{ i y i >.i.k 2 < < < < < < 2 2 2 y { 5.0.5.5.5.5.6.",
"E E E E z.] 3 3 2 2 < < c 6.2 D >.< < 2 2 7.D B y.7 5 2 i i.k 2 2 < < > : : & & & & $ $ $ $ $ $ $ $ $ $ < >.: @ + + . X X X X + + # # < :.< & & , < < 2 2 y M z i y i i i i i i i i i p p p p p p K b.[ i Q I.2.m f p ..z.6.5.5.4.4.] 2 2 2 2 l v.2.Y.2.! E W W W W W W d.{ 7 3 2 2 < 2 b s.2 Z >.< < < 2 7.E m i.8 3 3 7 u.V 2 2 < < < > > & & & & & $ $ $ $ $ # # # + + X . . . o o o . . . + + # # < >.< $ & : < < 2 2 8 M m i i i i k k i i p p p p p p p p p E G.3.m ! F.>.p i i ..g.5.4.4.4.2.' 8 2 2 3 v S.>.Y...E E E E ",
"E Z Z l 6...u 7 3 2 2 < c u.2 E >.< 2 2 2 6.E B i.8 3 3 k g.l 2 2 2 2 < < > > & & & & & & & & $ $ $ $ $ < >.: @ @ + O X X X + + + # # < *.< $ & > < < 2 3 K #XY.u.u.u.u.u.u.i.i.i.i.i.d.d.z.z.z.0.m V b.o.v ' E.c.;.v y V E E E E E 6.2.8 2 3 v Z...Y.Q v K E E W W W m 5.>.u 3 2 2 2 2 b g.3 Z >.< < < 2 6.E m i.i 7 3 7 u.V 2 2 2 2 2 < > > & & & & & & $ $ $ $ $ # # + + . . . . o . . X . + + # # < { , $ & > < 2 2 2 K %XR.i.i.i.i.d.i.i.i.i.i.i.i.i.d.z.z.i.K ! I.5.v E I.i.` l y Z E E D Z E 5.5.i 3 3 v Z.] S.Z i K W ~ ",
"z.g.F.6.u.2.i u 3 3 2 2 Q 6.2 E 4.2 2 2 2 6.E B i.i 7 7 l c.m 7 3 3 3 7 i 8 3 3 3 5 5 5 2 2 2 2 < < < & 2 2.> @ @ + + X X X + + + # # < *., $ & : < < 2 2 C ~.v.{ { ] ] ] ] ] { { { { { { { { ' 9.z.B V n.5.Z [ 5X5XP 3 2 2 2 2 2 < 3 ..6.i 3 i 2.u.u.Z } Y.d.g.z.z.F.i.0.4.i 7 3 2 2 < ~ 0.2 Z >.< 2 2 2 6.E V z.p 7 7 8 u.V 3 3 4 3 8 i i 8 8 3 3 5 5 5 5 2 < < < < $ # + O . . . . . . X X + + # # < { , $ & > < < 2 2 C [.C...................{ ..{ { { { ..i.S.K K n.5.m _ =X4XK 7 2 2 < < < < 3 ..i.v 4 i >.0.5.v K H.z.c.",
"m m 2.z.i.6.p i 7 7 3 Q u.v 2 Q 6.2 2 2 3 6.E B p.i y y v Z.V y y y m i.g.u.9.9.9.9.9.5.5.5.5.5.5.5.w.m < 2.< @ @ + + X X X + + + # # < :.< $ & : > < 2 2 3 p i 7 7 7 8 7 8 y y y i i i i i i i p 2.d.B K R.w.M 0..X0.y 3 2 2 2 < < < 2  .i.m y i p ! P { d.m m m m >.b.0.5.i y 7 3 2 Q u.v 2 E 5.2 2 2 2 t.E C c.l y y i g.V 3 y u m d.z.u.u.u.y.u.0.0.6.5.5.5.2.3.0.8 # # + X . . . . . X X + + + # < .., $ & : > < < 2 3 p p y y u 8 u u u y y i i i i a p p z 5.v.m C J.0.m 9.'.0.y 2 2 2 2 < 2 2 2  .d.m 4 y p W J ' z.m m ",
"J J 5.v.d.u.l k i 7 ! c.m 2 2 v i.! 3 3 7 u.E B p.i i i m S.C i p K K.u.l i i i i i i i 8 8 8 3 3 5 >.K < 2.< $ @ @ + + X X X + + # # & 3.v & & & > > < 2 2 3 3 7 7 8 8 8 8 y y y i i i i i i i i i 3.v.K ! P p p J c.2.y 3 2 < < < < 2 2 ^ g.K M J  XD.>.z.J P J J 3.b.i.t.l p i 7 ! d.v 2 2 v i.E 2 2 3 u.! C c.l i i p c.Z y i C S.u.v p i i i i 8 8 5 2 2 < < < 2.k # # + + X . . X . X X X + + # & >.v & & & : < < 2 2 3 7 8 8 8 8 y y y y y i i i i p p p p p 2.c.V K K p p J b.2.8 2 2 < < < < 2 2 ~ z.K M Z [.S.*.A.P P ",
"l.q.F.b.z.u.z l i ~ Z.V 2 2 2 2 v u.] y y d.Q V g.l i p ..Y.C s ~ |.g.z y u 7 7 3 3 2 2 2 2 < < > & { K 2 3.< $ # @ + X X X X + + + # $ i 3.v & & & & > < < 2 2 2 2 3 3 3 3 7 8 8 y y y y i p i i i p i.R.C i i y y m d.v.l < < < < < < 2 2 ! S.H.K !.u.' !.Y.~.M.q.U.b.d.u.z l i ~ v.B 2 2 2 2 v u.' y y s.Q V z.l p p ' Y.Z p K !.u.l y u u 7 3 3 2 2 < : & & $ $ ..k $ $ # + + . X X X X X X + + # # 8 *.v & & & : < < 2 2 2 2 2 3 3 3 3 4 7 7 7 u y y a z p i i i 5.H.M y i i i m i.v.k < < < < < < 2 2 Q S.J.K Y.6._ [.R.{.",
"pXR.9.( z.i.{ ..5.Z.E 3 3 2 2 2 2 v c.C ..c.l ! i.l m ..Y.' s [  XZ.C m z i y u 7 3 3 7 8 2 2 < < > { E < 3.< $ # @ + + X X X X + + # # $ i 3.! E W ! ~ ' ' { { ........>.>.2.2.2.2.2.2.2.9.R.~ y i a m n.E 8 7 7 3 3 m 4.i > > : : > < < 2 3 E S.Z c.! m { 0.#XrXF.<.( z.d.>.4.7.Z.Z 2 2 2 2 2 2 v d.V ..c.v ! i.l z { R.{ s _ ~.c.C m l i i i y 7 3 7 < > : & & & ..v $ $ # + + X X X . X X X X + + # # i 3.! E Q ! ' ' ] ] ........>.2.2.2.2.2.4.2.2.2.9.Y.~ u y y p c.E 7 u 4 4 3 v >.i > : : : < < < 2 2 D Z.m i.! M { d.3X",
"rXA.( M g.i.!.c.u.E 8 3 3 2 2 2 2 3 u.u.u.m E Z.! l h. X{ s ! ^.g.C g.Z.d.[ 6.5.4.2.2.h.t.3 2 < < > ..E 2 3.< $ $ # + + X X X X + + + # $ $ 8 Z Z Z E E Q ! ! ~ ' ' ' ] ] { { { { { { ....5.Y.! u y y p z.Z 3 3 3 2 2 2 2 < > : : : : > < 2 2 v z.M d.U p m P k.#X9.J M g.z.~.v.u.E 7 3 2 2 2 2 2 3 s.d.u.v Z v.E p s. X..s P R.u.M g.v.g.[ 0.t.6.7.7.Z.~ > : : & & 2.v $ $ $ # + X X X X X X X X + + # # # 8 V Z D E Q ! ! ~ ' ' ] ] ] ..................5.H.E 3 7 7 y d.K 3 3 3 2 2 2 < > : : & : : > < 2 2 i i.B y.P s M _ F.",
"j.1.[ W Z.Z.R.K i i 8 8 5 2 2 2 2 l Z.4.i Z Z.' i { =Xu.p W Y.7.p m Y.5.S.{ v.c.c.u. .u.o.5 2 < < > ..E 2 3.< $ $ # # + X X X X X + + # # # # # $ $ $ $ & & & & & > > > < < < < 2 2 2 2 2 3 i 7 7 7 8 y d.V 2 2 2 2 < < < : : & & : : : < < 2 i d.v i.! p m M P ( K M m g.S.~.W p y 8 3 5 2 2 2 2 v K.6.i Z v.! 8 ~ #Xu.p K Y.5.p m Y.5.Y...g.4.X. . .t.Q < < : : & 2.v $ $ $ # + + X X X X X X X X + + # # # # $ $ $ $ $ & & & : > > > < < < < 2 2 2 2 2 3 y 3 3 3 3 y d.K 2 2 2 2 < < > : : & & & : : < < 2 i u.B y.' J W _ -.",
"U.U.F.S.Y.Y.g.m i i 8 3 3 2 2 2 i u...3 V v.~ i ~ Y...z W Y...p i v f.S.v.c.v.7.u.S.V 3 5 2 < < < < ..Q 2 5.< $ $ # # + X X X X X X + + + # # # $ $ $ $ $ $ & & & : : : : > < < < < < < 2 2 2 2 2 2 3 8 d.V 2 2 2 < < : : : & & $ $ & : : < 2 8 ..i o.{ p p z m m m m m >.L.c.M i y 8 8 2 2 2 2 i d.2.8 Z Z.! 8 E Y...p Z S.2.p i v Z.Y.K.Z.P.K 8 6 2 2 2 < < < > : 2.v $ $ $ # + + X X X . X X X X X + + + # # @ $ $ $ $ $ & & : : : : > > < < < < < < < 2 2 2 2 2 2 3 i.Z 2 2 < < > : : & & $ $ $ : : : < 2 8 ..v >.v.c.C.Z.Z.",
"P K J C M m l i i 8 8 3 3 5 2 k u.X.5 B c.Q y Q Y...p W S.] i i i i v V d.g.C i l ..Z.B 2 2 < < < < ..Q 5 5.5 $ $ # # + X X X X X X X X + + + # # # # $ $ $ $ $ $ $ $ & & & & & & : : : < < < < < 2 2 2 u.V < < < < : : : & $ $ $ $ & & : < < 2 5 2 8 i i p p l l m v m m m l i i 8 8 3 5 2 2 i u...5 V c.~ 8 K Y...i Z Z.] i i i i m Z g.L.~ v.] 8 2 2 2 2 < < > : 2.b & $ $ $ # + + X X X . X X X X X X + + + # # # # $ $ $ $ $ $ & & & & & & & : : : : > < < < < 2 2 u.V < < > > : & & & $ $ $ $ & & : < < 2 8 8 i l m m M C ",
"M m m m l p i i i 8 8 3 3 3 k u...5 B d.Q 8 Z S. .i Q I.] i i 8 8 i v u.s.B i i i i ..c.b 2 < < < < o.Q 5 5.5 $ $ # # + X X X X X X X X X X + + + + # # # # # @ $ $ $ $ $ $ $ $ $ $ $ & & : : : < < < 2 0.B < < < : : & & $ $ $ $ $ & & : , < < 2 2 8 8 i i i p p p l l p p i i 8 8 8 3 3 2 k u. .5 V d.Q 8 Z S...a K S.] 8 8 y y y v s.K.Z f Q Z.~ 2 2 2 2 2 < < > 2.b & & $ $ # # + X X X X . . . X . X X X + + + + # # # @ # $ $ $ $ $ $ $ $ $ $ $ $ : : : : < < < 2 0.V < < > : & & & & $ $ $ $ & & : , < < 2 3 8 y i p p z ",
"m m z l l p i i 8 8 8 3 3 v i...5 B d.Q 5 V Z.] i E K.] i i 8 8 8 8 K s.b i m m i i i ] d.v < < < < o.! 5 6.5 $ $ @ # + + X X . . . . . X X X X X X + + + + + + # # # # # # # @ $ $ $ $ $ $ $ & & & < < 6.b < < < : & & $ $ $ $ $ $ $ & : : < < 2 2 2 8 8 y i i p p p p i i y y 8 8 3 3 3 v i. .5 V d.D 6 V Z...i K S.] y 8 8 8 8 8 V g.~ p i 8 V g.~ 3 3 2 2 2 < < 5.B & & $ $ $ # + + X X X . . . . . X X X X X X X + + + + + # # # # # # # @ # $ $ $ $ $ $ & & & < < 5.B < < : & & & & & $ $ $ $ & & : : < < 2 2 3 8 y i p l ",
"l l p p p i i i 8 8 3 3 v d.o.3 V d.Q 5 V Z.] 7 Z S.] i i y i D ~ V i E V y W Z.Z i y 8 ' g.v < 1 < o.~ 5 0.5 & $ $ # + + X X . o o o o . . . . X X . X X X X + + + + + + + + + + # # # # $ $ $ & & & < 5.b < < > & : & & $ $ $ $ $ & & & : > < < 2 2 2 3 8 i i i i i i i y y 8 8 8 3 3 v g.o.5 V d.D 2 V v...y K S.] i y y i D ~ m y v d.o.y 8 8 B c.] 8 7 3 2 2 < 5.V : : & $ $ # # + . . . . o . . o . . . . X X X X . X X + + + + + + + + + + + # # # $ $ $ $ & & < 5.B * , & & & & & & & $ & & & & & : > < < 2 2 3 7 y i i ",
"V V C C C V V B v v v m u...8 V z.Q 8 V v. .8 Z c.~ y y y y i 6.I.c.i ' b.V k 4.v.C y y 8 ' g.b 2 < o.~ 3 0.5 & $ $ # + + . . . o o o o     o o . . . . . . . . X . X X X X X X X X + + + # # $ $ $ & < 3.b - < v v 5 5 2 2 1 < < 1 2 2 2 5 6 8 8 8 i k v v v B m m m V m m B B v v v V d.o.8 V d.D 5 B c. .y Z Z.] i y y i i 7.Y.g.l y E Z.~ 8 8 8 V Z.] i y v 3 2 6.V < > & & $ $ # + + . . . o o o o     . . . . . . X X X . X X X X X X X X X X X + + # # $ $ $ & > 3.b & < l v 5 5 2 1 < < < 2 2 2 5 5 5 8 8 i i l v v m m ",
"Z.Z.S.S.~.I.n.v.c.g.g.g.~ 5 Z c.! 8 V Z...i Z Z.~ 8 i i p p v B ~ c.i 8 ! k.V i ..b.Z y 8 8 ' d.8 2 2.^ 8 u.5 & & $ $ # + X . . o o                   o o o o o o o . . o o o . X X X X + + # # $ $ & > 3.v & < u.S.t.6.6.6.5.5.5.5.6.6.6.0.u.u.u.d.g.g.h.c.c.v.Z.Z.Z.S.~.I.v.c.c.g.d.g.] 8 D v.! 8 V c.] 8 Z n.] i p p p f m m ! v.u.] 8 D Z.! y i i Z S.Q C C.m 7 0.Z < < > & & $ $ # + O . . o o o         o o o . . o . o o o o . . . . . . . . X X + + # # $ $ $ : 3.v & < u.H.0.0.6.5.5.5.5.5.5.5.6.0.0.u.u.i.g.g.c.v.v.Z.",
"m m m V S...m m m v l k 5 Z c.Q i Z S.2.p Q S.' i { d.i.g.g.c.v.S.d.i 8 8 ! k.C 8  .Z.C y y v z.c 2 2.' 8 y.3 & & $ $ @ + . . . o o                                             o . . . X + + # # $ $ : 3.v & & i k 5 5 5 2 2 2 2 2 2 2 2 2 5 5 3 8 8 8 i i k l v v m V S...m v l k i i 3 E n.~ i Z S.o.8 V v.' 8 ] z.g.g.c.v.v.S.v.' S.~ 8 D v.~ i i p d.] Z Y.V y u.E 2 2 < : & & $ $ # + X . . o         o                                   . . . . . X + @ # $ $ & 2.v & < k v 8 5 2 2 2 2 2 2 2 2 2 2 2 5 3 8 8 i i i l l ",
"i i i i Z.' i i i i 8 8 E c.E 8 Z S.4.v ! Y...y i i.] V V C C C V v 8 3 8 6 ~ z.C 8 g...y y v z.v 2 4.' 8 y.8 : & $ $ # @ O . o o o                                                 o . . X + + # $ $ & { [ , & & & & & & & & & & & & & & & : : > < < < 2 2 2 2 3 8 y i Z.' i y 8 8 8 8 E v.! y Z K.4.p U Z.] 8 8 u.{ V V V Z Z J m y D v.~ 8 ..i.i i i u.' m Z.m i i.E 3 B C v < & & $ # + + . . .                                                   . . . X + @ $ $ $ ] [ < & > * > & & & & & & & & & & & & & > < < 2 2 2 3 7 ",
"8 y y i v.~ y i i i i i d.~ y V Z.5.m M L.4.m _ W i.E 7 8 3 3 3 3 2 3 3 3 8 8 ~ z.C u...i y m v.v 3 4. .i y.8 > & & $ $ @ + X . . o                                                     o . X + @ $ $ $ < ..! & & & & & & & & & & & & & & & : : : < < < < 2 2 2 3 3 8 i v.' i y 8 8 8 i d.! 8 V S.7.m m S.2.y Q K u.E 7 8 8 7 8 8 y y 8 Z n.~ ~ u.p i i u.' m Z.B i d.! i z.0.c.l & & $ $ @ + . . .                                   o         o   o o o . . + + @ $ $ < ..' < * > & & & & & & & & & & & & & : > > < < 2 2 3 3 ",
"y 8 8 i c.! y i y y i l d.C l g.5.J P K W.! m z.5.g.Q i 8 3 2 2 2 2 2 2 3 8 8 i 4.2.u...i i m v.m 7 7...i i.8 > & & $ $ @ + X X . .                                                     o o X + + # $ $ $ < { ~ < & > > & & & : : : & & : : : : > < < < 2 2 2 2 3 3 3 8 c.~ y y y y 8 k d.B i d.6.J P J Y.! p s.3.d.Q 8 8 8 3 8 8 8 8 y i ] z.' y.p i i u.' m Z.B i d.! l z.Z z.v > & & $ # + X . .   o                                                 o o . X + @ # $ $ < { [ 2 > > : & & & & & & & & & & & > > < < 2 2 2 3 3 ",
"( 3 3 8 h.! 8 8 y i i m z.K m n.K 0.S.W T.! z i.>.g.! i 8 3 2 2 2 2 2 2 3 8 i i ..5.u.X.i i m v.B 8 7...k i.i > > & $ $ @ + X X . .                                                       o . X + + # $ $ $ < ] 3.>.>.>.>.>.>.>.>.>.>.>.>.>.>.2.2.2.5.5.6.0.d.c.' 2 2 3 g.! 8 y y y i v d.V v n.K 0.H.W Y.! g i.>.d.! y 8 3 3 2 2 3 8 i p ~ c.{ i.i i i u.' m Z.B k c.! i 0.d.i.k < > & $ # + + X . o o                                                   o o X X + # # $ $ < { 3.>.>.>.>.>.>.>.>.>.>.>.>.>.>.2.2.2.5.5.5.6.i.i.",
"l 2 5 3 f.Q 3 8 y i p M b.W M n.K 0.d.M K.W m g.5.c.! y 7 2 2 < < < 2 2 3 y p p >.6.u...i i m v.B y 6...l g.k < > & $ $ @ @ + X X .                                                       o o . X + # # $ $ $ : i k l l l l l l k k k k k k k k k k v v v v d.5.k 2 2 5 g.Q 7 8 y i p m c.K m b.L 5.d.C Y.! h d.5.g.! 8 8 3 3 2 2 3 8 i p _ Z.>.i.i i i u.' m Z.B l c.~ y i p p 7 2 < & $ # # + X . . o                                                   o o . X + + # $ $ $ : i k k k k k k k k k i i i i k k k k l l v v 9.0.",
"< 2 2 5 g.Q 3 8 y i l P U.` J S.K 5.5.M I.*.M z.5.Z.Q 8 3 2 2 < < < < 2 3 i ] i.Y.y.u.2.i i m v.V i 6...l z.k < > & $ $ $ @ + X X o o                                                     o o . X X + # # $ $ $ $ $ $ $ $ $ $ $ $ $ $ $ $ $ $ $ $ $ $ & & & o.E > < < 2 s.Q 3 8 y i z P G.! M n.L 2.5.M T.3.M g.6.c.! 8 7 3 2 2 2 3 7 ~ i.S.Y.3.d.i i i u.] V Z.V l c.~ v 6.z.u.l 2 < & $ $ # + X . .                                 o                     o o X X + @ # $ $ $ $ $ $ $ $ $ $ $ $ $ $ $ $ $ $ $ $ $ $ & & & ] ' ",
"< < 2 2 s.Q 2 3 8 i M w.8Xk.P F.P 5.5.2.'.E.*.c.5.Z.Q 7 3 2 < < < < < 2 3 i g.u.S.i.g.2.i i V Z.V i u.>.l c.k 2 > & $ $ $ # + X X . . o o o o o o o o o o o o                               o . . X + + @ # $ $ $ $ $ $ $ $ $ $ $ $ $ $ $ $ $ $ $ $ $ & & & o.E > < < 2 s.E 2 8 y i M k.3Xq.J n.K 2.5.2.|.^.>.g.t.Z.~ 8 8 3 5 2 2 8 8 u.i.z.Y.5.g.i i i u.] V S.V l c.' Z R.0.U.V 2 < & $ $ # + X . . . o o o o o o o o o o o                               o o . X X + @ # # $ $ $ $ $ $ $ $ $ $ $ $ $ $ $ $ $ $ $ $ $ & & ] ' ",
"< < < 2 u.D 2 2 8 i J |.aXG.T F.P 4.5.6.!.~.3.z.5.Z.Q 7 3 2 < < : < < 2 2 y h.S.Y.u.g.2.i l V Z.V i u.>.l c.l 2 > : $ $ $ # + X X X . . o o . . . . . . . . . . o                             o . X X + + # # # $ $ $ $ $ $ $ $ $ # # # # # # # # @ $ $ $ & ..E * < < < s.D 2 3 8 i J oXiXb.J n.K 2.5.5.E.~.3.g.t.Z.~ 8 8 3 5 2 2 3 8 t.S.Y.Y.5.g.i i i u.] C S.V l v.' K {.!.R.B 2 < & $ $ # + X X . . . . . o . . . . . . . . o                             o . X X X + + # # # # # $ $ $ $ # # # # # # # # # # # $ $ $ & ' ~ ",
": : < < u.Z 2 2 8 i ..|.z.;.P S.K 4.6.` Z.z.( d.5.Z.Q 7 3 2 < < : < < 2 2 8 E 4.S.y.f.2.i i V Z.V i u.>.z c.l 2 < : $ $ # # + X X X X . . . . . . . . . . . . . . . . o                       o o . X X + + @ # # # # # # # # # # # # # + + + + + # # $ $ $ ..E & : < < t.Z 2 2 8 i 2.|.c.` J b.K 2.6.` n.z.( d.6.Z.~ y 8 3 5 2 2 3 8 Z ..d.K.3.g.i i i u.] V S.V l Z.] z 6.'.] i 2 < & $ $ # + + X X . . . . . . . . . . . . . . . o o                         o . X X X + + # # # # # # # # # # # # + + + + + + + # # $ $ ~ ~ ",
": : : < t.V < 2 3 ~ K.' M M J S.K 4.i.S.D.I.0.i.4.Z.E 7 5 2 < > : > < < 2 8 i i 5.6.f.2.i i m H.E i u.>.z c.l 2 < : $ $ # # + + + . X X X O + + + + + + + + + + X X X . . o o                 o o . X X X + + + + + # @ # + + + + + + + X X + + + + + # $ $ ] Z & & : < 6.V < 2 3 ] I.' M M M v.K 2.u.Z.S.F.0.d.5.Z.~ y 8 3 2 2 2 5 8 i i ~ v.>.g.i i i u.] V Z.V l Z.' p K v.i 2 2 < & $ # # + + + + + O O + + + @ + @ + + + + X X . . . . o o                 o . X X X + + + + + + + + + + + + + + + X X + + + + + # # $ ~ ! ",
"$ & : , 7.V < 2 Q c.K p p z M Z.K 7.c.L.W >.c.i.2.C.E 7 2 2 < : : : < < 2 8 8 i 4.6.f.2.p p p 6.H.] u.>.l c.l 2 < : $ $ # # + + + + + + + + @ @ # # # # # # # @ + + + . . . . o o   o o   o o . . . X X X X + + + + + + + + + . X . X X X . . X X + + # # $ ] V $ & : < 7.V < 2 Q c.K p p z M v.K o.d.D.W ..c.s.2.c.~ 8 7 5 2 2 2 2 8 i i ! c...g.i i i 7.Z.! Z.B l c.' i Z C.i 2 < , & $ $ # + + + + + + @ # @ # # $ # $ # # # + + + . . . . o . . o     . o o . . X X X X X + + + + + + + + X + . X . . . X X X X + + # # ! Q ",
"$ $ & : 4.V < Q i.V 3 8 i p m Z.K 7.c.L.K { c.d.2.c.E 3 2 2 < : : : < < 2 5 8 i u.7.s.2.i i i p ~ D.{.>.l z.k 2 < : $ $ $ @ + + + + @ @ # $ $ $ $ $ $ $ $ $ $ $ $ # # + + O . . . . . . . . . . . . . . X X X X . X X X X X X . . . . . . . . X X X + + # # ^ V $ $ & , 7.V : Z u.B 3 7 i p m v.K 2.d.L.K [ c.s.2.g.! 8 7 3 2 2 2 2 8 8 i ..g. .g.i i i m 7.Y.R.m i h.~ y V C.i 2 < : $ $ # # # # # # # # $ $ $ $ $ $ $ $ $ $ $ $ # # @ + + . . . . . . . . . . . . . X X X X X X X X X X X X . . . . . . . . X . X X + + @ ! E ",
"$ $ $ : 4.b 2 i.V 2 2 3 8 i l v.K 7.c.T.K >.v.d.4.c.E 3 2 2 < : : : < < 2 5 8 ] S.K u.2.i i i i y B Z.>.l g.k < < : $ $ $ # # # # # $ $ $ $ $ & & & & & & & & & $ $ $ $ # @ + O X . . X X . X . . X . . X X X X . X X X X . . . . . o o o o . . X . X + + + ^ n # $ $ : 7.V 2 0.v 2 2 3 7 i l c.K 4.c.Y.P { c.s.2.g.! 8 7 3 2 2 2 3 8 8 Q Z.E ] d.i i i i i ' H.m i g.! 7 V c.8 2 < : $ $ # # # # # $ $ $ $ $ & & & & & & & & & $ $ $ $ # # + + X X . . X X X X . . X X X X X X X X . X X X . . . o o o o o o o . X X X + + Q E ",
"# @ $ $ 2.v 2 0.8 2 2 2 3 8 l c.Z 7.g.^.S.Y.g.i.>.c.E 3 2 < < : : : < 2 2 8 ~ v.Z i t.o.i i i i y 8 7.>.l g.k < < : $ $ $ # # # # $ $ $ & & & > * < < < < < > * & & & $ $ $ # # + + + + + + + X X X X X + + X X X X . . . . o o             o o . . . X + + ~ b + $ $ : 4.b 2 9.8 < 2 2 3 7 l c.K 4.g.Q.S.K.d.i.2.g.Q 8 3 2 2 2 2 3 8 ! v.E 8 ~ u.y 8 y y i v c.m i g.! 3 V c.8 < > & $ $ # # # $ $ $ $ & & & > > < < < < < > > & & & $ $ $ $ # # + + + + + X X X X X X + X X X X X . . . . . o o             o . . . . + + Q Z ",
"# # $ $ o.v 2 9.8 < < 2 2 3 k h.Z 7.u.` i.y.W g.2.g.E 3 2 < < : : < < 2 2 ~ c.V 8 8 7...8 y 8 8 8 8 7.>.l g.k < < & $ $ $ # # $ $ $ & & & > < 2 2 2 2 2 2 2 2 2 < > * & & $ $ $ $ # # # # # # + + + + + + + + X X X X . . . o                 o X $ , $ . + o.Q + # $ & 4.b 2 9.8 < < 2 2 3 i g.Z 2.y.` i.0.K y.2.g.Q 3 3 2 2 2 2 3 Z n.Q 8 8 ! u.8 7 7 7 8 v c.B i g.Q 3 B g.8 < > & $ $ $ $ $ $ $ & & & > < 2 2 2 2 2 2 2 2 2 < > * & & $ $ $ $ # # # # # # # + + + + + + + O + X X . . . o                 o . $ : $ . + { ^ ",
"+ # @ $ ..c < 5.8 > < < 2 5 i g.C 2.6.' 7X1X_ c.5.g.D 2 2 < , : : < < 2 v d.u.i 8 3 4. .3 7 3 3 8 3 7...l g.k < > & $ $ $ $ $ $ $ & & > < 2 2 3 8 y y y y 8 8 8 3 2 2 < * & & & $ $ $ $ $ $ $ $ # @ @ @ @ + + + O . X X . o                   o @ { 2.] # . 8 1 + # # $ 2.b < 5.8 > < < 2 5 i g.V o.y.` 6X%XW u.2.g.E 3 5 2 2 2 2 l 4.c.l i 8 Q 6.3 3 3 3 3 l c.v i g.E 2 B g.3 < : & $ $ $ $ $ $ & & > < 2 2 7 8 y y y y y 7 7 3 2 2 < * & & & $ $ $ $ $ $ $ $ # @ @ @ @ @ + + + . X . . . o                 o + ] >.' # . 8 6 ",
"+ + # $ o.c < 5.5 : > < < 2 i g.m ..4.J h.h.P v.4.g.D 2 2 < : : & > < 8 d.v.I.Q 3 2 2.] 3 3 3 3 3 3 4...i g.k < > : $ $ $ $ $ $ & & > 2 2 3 E i.i.i.i.i.i.i.i.i...i 4 2 2 > > > & & & $ $ $ $ $ $ $ @ @ @ @ + + $ # . X . o o               o . $ *.Z 2.$ . . . + + # $ o.v 2 9.8 : < < < 2 8 g.V ..6.K Z.g.P c.5.g.E 2 2 2 2 2 5 5.g.I.! y 8 Q 5.2 2 2 3 3 k h.v i a.E 2 m g.3 < > & $ $ $ $ $ & & < 2 2 3 E d.d.d.d.d.i.i.i.i...y 3 2 2 < > : & & & $ $ $ $ $ $ $ $ # @ @ + + # # . X . . o                 o @ { Z ..# . . . ",
"X + + # 2.3...5.< & : > < 2 8 i.m X.3.m C J 6.Y.' c.V 2 < < : & & : < 8 g.' d.~ 2 2 o.] 2 2 2 5 3 5 4...i g.k < > & & $ $ $ $ & & > 2 2 7 ! c.' K K P P P K K K b.K u 4 3 2 2 < 3 E k 8 8 3 5 5 5 5 2 < < < < 2 ' ~ $ . . o o             o o . + K k.Z + . . . . + + # 2.3.>.5.2 & : > < 2 8 d.B  .9.M L P 5.Y.{ v.Z 2 2 < < < 5 u.] s.' 4 3 E 5.2 2 2 2 2 k g.v 8 u.E 2 m g.3 < > & $ $ $ $ & & < 2 2 3 E v.[ E E K K K K K K c.K u 4 3 2 2 < 8 E c 8 8 8 8 5 5 5 2 2 < < < 1 ! ~ % . X . o     . .       o o X Z k.V + . . . ",
". X + # o.V 8 < $ $ : : < < 3 u.v E A.c.v.S.L.[ d.2.8 2 < : & & & : < 2 ~ I.0.l 2 2 ..~ 2 2 2 2 2 2 4...i g.k < > : & $ $ & & & > < 2 7 ! n._ m E ~ ' [ [ L p s k._ p a u 4 3 2 m S.u.5.3.3.3.2.2.2.>.......{ 3.9.>.6 . . . o o o o o o o o o o . < >.$ . . . . X X + # ..Z 8 2 & & : : < < 3 u.B Z c.c.Z.L.Y...c.5.i 2 < < < < < Q K.d.B 3 3 E 4.2 2 2 2 2 i g.v 7 u.E 2 v g.8 < > & & $ $ & & > < 2 7 E n.' M ! ~ _ ' _ Z p s z.` p a u 3 3 2 V F.u.5.5.5.3.2.2.2.>.....{ ] >.8.>.8 . X . o o   w w   o o o o o < >.$ . . . . ",
". X X + ..i @ $ $ $ $ : : < 3 u.v 8 m M C J K z.6.i 2 < > & & $ & & : < 2 i.V 2 2 < ..~ < 2 2 2 2 2 2...i d.k < > : & & & & & * < 2 3 Z !.Y.S.i.Y.|.Y.S.Y.S._ W b.q.G s a i 7 4 7 v y 4 3 2 2 2 < > : : & & $ , E E $ . . . . . . . . . . . . . . < { # . . . o . X X + { k # $ $ $ & : : < 5 u.B 7 l m C K W v.u.p 3 2 < > : : < < 5.Z 2 2 2 E 5.< < < 2 2 i g.v 3 u.E 2 m g.3 < > & & & & & > < 2 3 V !.Y.I.z.E.|.F.b.H.Z.} _ n.q.G s p y 4 3 8 v y 8 4 3 2 2 < > : & & $ $ , Z D $ . X X . . + O.O.+ . . . . . < ..$ . . . . ",
". . X + ..8 @ # $ $ $ & : > 5 u.v 3 i p M P z.0.p 3 2 < & & $ $ $ & & > 2 0.B 2 2 <  .~ < < < < 2 2 2...i d.k < < : : & & & & > 2 3 7 ~ H.5.0.k.k.E.-.T ;.I.Y.n.~.5XZ.P s p i y 8 3 3 3 2 2 < > & & $ $ $ # # + + + O . . . . . O + + + + + + + . < ..$ . . o o . . X + ] 8 # $ $ $ $ & : > 5 u.v 3 y p M W n.u.p 4 2 < : & & : : > 5.V < < < ~ c.2 > < < 2 8 d.v 3 u.E 2 m g.3 < < : & & & : < 2 3 7 ~ Y.5.0.c.z.U.-.L ` Y.Y.H. X0XS.P p i y 8 7 3 3 3 2 2 < < & & $ $ $ # # # + + + + . X X . e B.B.e . + + + . < ..$ . . o o ",
". . X + ] 8 + # # $ $ $ & : 2 6.k 2 y m z.$Xi.l 7 2 < > & $ $ $ $ $ & : 8 0.i < < 2 2.Q > < < < < 2 o...i d.i < < > : & & > > 2 2 4 y ' i.m m 0._.*X_.w.3.Y.z.~.~.&XR.S.K p p p z Z Z p p m m 3 > & $ $ $ # # + + + + + + + + + @ @ # # # # # # + < ..$ . . o o o . X + ] 8 + # @ $ $ $ & : 2 6.v 2 8 m z.*Xd.z 7 2 2 < & & & & & 3 0.v > > > 8 v > : > > < 8 d.k 3 u.E 2 m g.3 < < > & & > < < 2 7 i ' d.m m i.'.OX).q.,.Y.z.[.'.1XU.S.K p i y p V Z l p m m 3 > & $ $ $ $ # # + + + + + X . r #.;X;X#.r @ # # + 1 o.$ . . .   ",
"o . . + ] 6 O + # # $ $ $ & < 6.i 2 7 m  X5XW y 5 2 > & $ $ $ $ $ $ $ 5 2.Z < < < ' 0.8 : : : < < < o.{ i i.k < < < < > > < < 2 3 u i _ i.m m _ k.].uXXXw.Y.T n.'.,.P 9.S.W d s { I.c.0.2.z.n.! > & & $ $ # # + + + O + + + @ # $ $ $ $ $ $ $ $ # 1 2.$ . . o o o . . + ] 8 + @ # # $ $ $ & < 6.v 2 7 z ~.5XW 7 2 2 < & & $ $ $ 5 5.E : & & & & & & : & : > 8 u.k 2 u.E 2 B g.8 2 < < < < < < 2 3 u i ' z.m m _ k.].uX4Xj.!.) n.'.-.J 5.S.W s i ' F.n.0.3.c.n.! > & & $ $ $ # # + + + + O @ e #.;X;X;X;X#.S & $ # 1 o.$ . . o o ",
"  o . X ] 6 . + + # # $ $ $ < 5.i 2 3 i 0.c.p 3 2 < & $ $ $ # # # $ $ E ] : : & E 9.8 : : : : : < < o.] i i.k < < < < < < 2 2 2 m ~ ' u.I.{ >.>.q.).8XOXx.b.3.9.~. X' M 4.Y.c.0.S.u.~ u.5.~ 0.' > : & $ $ # # @ + + + + + # # $ $ & & & * & & & $ 2 2.$ . . o o o o . + ' 8 O + + # # $ $ $ < 7.k 2 3 y 5.v.p 3 2 < : & $ $ $ $ Q ..& & & & & & & $ & & : > 6 u.i 2 u.E 2 B g.8 2 2 < < < 2 2 2 m ' [ u.Y.{ { >.9.).qX3Xm.G.9.9.R./.! z 3.R.c.y.S.u.~ g.9._ 5.' > : & $ $ $ # # + + + @ e @.@X;X;X:X:X:X>X;X$.S & 2 2.$ . . . o ",
"  o . X ] 6 . + + + # # $ $ < 4.8 < 2 2 { 5.3 2 < : $ $ # # # # # # $ Q Q & & : 5.v & & & & : : < < X.] 8 i.k 2 2 2 2 2 2 2 2 B d.u.i.g.c.z.b.b.b.v.b.b.c.z.z.z.k.S.Q.! p ...XZ.u.S.c.>.{ g.c.V > : & $ $ # # # @ + # # # $ $ & & * > 2 2 2 > * & 2 2.$ . . o o o o . X ' 6 . + + + # # $ $ , 7.k < 2 2 ] 6.3 2 < : & $ $ $ $ # Q Q $ $ $ $ $ $ $ $ $ & & : 5 u.i 2 u.E 2 m g.8 2 2 2 2 2 2 2 V v.d.d.c.c.z.z.c.v.b.S.F.S.n.c.z.i.Z.T.! z >.$XS.i.I.c.4...c.c.V > & & $ $ $ # # # + # @ e @.;X;X:X:X>X,X,X:X$.S & 2 2.$ . . . o ",
"  . . X ^ 6 . O + + + # # $ : 4.8 : < < ' 2.2 < : & $ # # + + + + # # D E $ & : 4.8 $ $ $ $ & : : < ..] 8 u.k 2 2 2 2 2 3 3 V n.{ i p p z m M M M M G G M M G M M M 2.T.! a W Z.{ m l 8 3 8 8 2 > : & $ $ $ # # # # # # # $ $ & * 2 3 u a u 3 2 & 8 4.$ O . o o o o . X ' 6 . . + + + # # $ : 4.i > < < ~ 5.2 < : & $ $ # @ @ @ Q Q $ $ $ $ $ $ $ $ $ $ & : 5 u.8 2 u.E 2 B g.8 2 2 2 2 3 3 V S...i p p m m M M G G L L G G M M M z 2.T.! p ~ H.2.M v y 7 y 8 < < : & $ $ $ $ # # # # # @ $ S B.>X>X,X,XV./ 7 0 * 8 3.$ . . .   ",
"  . . X ' 6 . . + + + + # $ & 2.8 & : > ! o.< : & $ $ # + O . + + + + Z E $ $ & o.8 $ $ $ $ $ & : > ..] 8 y.k 2 3 3 2 3 3 V z.F.! i i p p z z m m M M M M M M m m m s ..L.Q y C i.{ 7 2 2 < < < : & & $ $ # # # # # # # $ $ & & < 3 s =.e.L i 3 2 { ! # + . o o o . . X ' 6 . . X + + + # $ & 4.8 : < > Q 4.< : & $ $ # @ + + O D E # # # # # # # # $ $ $ & 5 u.8 2 u.E 2 m d.i 3 3 3 3 3 B c.H.~ i i p l m m M M M M M M M M m m m p ..Y.! a K v.{ 7 2 2 2 < < : & & $ $ $ # # # # # # # $ $ r B.,X<X<XS.R y 2 2 { ~ # O . . o ",
"  . . + ] 6 . O X + + + # # & o.6 & : & Q ..: & $ $ # + + . . . . X + Z Z $ $ $ o.8 # $ $ $ $ & : > ..] 8 i.K y p 7 3 7 7 ! c.z.^ y i i p p s z z z m m m m z z z p p i ' S.D 2 v i.5.>.......{ { ] ] ' ~ ~ ~ ~ ~ ~ ~ ~ ' ' [ { *.3.j.8XsX_.0.3.5...: # + . . o . . . + ' 6 . . X + + + # $ & 4.8 & : : E 2.: & $ $ # @ O O + . D D + + + + + + + # # $ $ & 2 0.8 2 u.E 2 v z.m v y 7 7 7 Q c.g.] y i p p l z m M M M M M M m m p p p p ' S.! y m i.5...>.........] ] ' ~ ~ ~ ~ ~ ~ ! ! ~ ~ ' ' N.wXwXuXsX].w.3.3...: # + . . . ",
"o . . + ] 6 . . + + + + @ # & o.5 $ & $ D  .& $ $ # + + . . . . . X . V V # $ $ ..8 @ $ $ $ $ $ : : ..] 2 V 5.u.S.' 7 7 u !  XZ.C i i i p p p z M M M M M M m s p p i y 8 ! v.V 2 i E D Z Z V V V V B B b b b v v v v b b B V V K W -.*X0XM.` ! Z 2 $ # + + . . . . X + ' 6 . X X + + + # # $ 2.8 $ & & D ..& $ $ # @ + O . . . Z Z . X X X X + + + # $ $ & 2 0.8 2 u.E 3 y >.n.I...y 8 y Q  XS.V i i i p l z z M M M M M M M z p p i i 8 ! v.Z 2 8 E D Z Z V V V V B b b v v v v v v v v B V C K V.(.oXqXM.[ P C 2 $ $ + . . . ",
"o . . + ] 6 . + + + + # # # $ o.5 $ $ $ Z ] $ $ # + + . . o o o . X . V V @ # $ ..6 @ # $ $ $ $ : : ..' 2 2 V I.v.g.i i p 0.Z.C i i i i p p m u.Z.Z.Z.v.v.v.c.i.C i y 8 7 3 E z.V < > : : & & & $ $ $ $ $ # # # # # # $ $ $ & : < 3 a R &.G a 4 2 < & $ # + X . . X X + ' 6 . + + + + # # # $ o.6 $ $ $ D ..$ $ # # + . . . . o V V . . X X X X X + # $ $ & 2 0.8 2 u.E 3 8 l K.S.S.p i i 6.K.Z i i i p p l m u.S.Z.Z.Z.Z.v.v.z.K p i y 8 2 D d.B < > < : : & & $ $ $ $ # # # # # # # # $ $ & & * F  .I R G a 3 < & $ $ @ + . . ",
". . X + ] 6 . + + + + # # # & 2.5 $ $ $ V ~ $ # # + . . o       o o o V V + # $ ] 6 + # # $ $ $ & : ..] 2 7 y ..g.! i i [ Z.C p i i p p p m d.g.~ ~ ~ ~ ! W E 5.v.V 8 8 3 2 2 Z d.B < : : : & & $ $ $ $ $ $ # # # # $ $ $ $ & : < 2 7 a s a a 4 2 < & $ # + X X X X X + ' 6 . + + + + + # # $ 2.5 $ $ $ Z  .$ # # + . . . o o   V V . . . . . . X + @ # $ & 2 0.8 2 u.! 7 y i ..Z.] p i ' Z.C p p i p p l m s.v._ ~ ~ ~ ~ ! W 5.S.V y 8 3 2 < V u.b > < , : : & $ $ $ $ $ $ $ # # # # $ $ $ & : < 2 y a s s a 3 2 * $ $ # + . . ",
". . X + ' 6 . + + + + # # # & 2.5 $ $ # V ~ # # + . . .           o   B V + + $ ] 6 + # # $ $ $ & : ~ 0.y 4 y i i y i i 4.6.p p p l l l m g.g.m m m z z p p p i ..c.B 3 2 2 2 < B 0.b & : & $ $ $ $ $ $ $ # # # # # # $ $ $ & : < 2 2 y a a a t 2 < & $ # + X X X X + # [ 8 . + + + # # # # & 4.5 # $ $ V ] $ # + + X . o       V V   . . . . . X + # $ $ & 2 0.8 < ! i.m i i p p i i p 2.6.p p p p l l m f.c.C m m m m m z p p 2.Z.m 3 2 2 < < b 0.B & : & & $ $ $ $ $ $ # # # # # # # $ $ & & < < 3 t a s a 4 2 * $ $ # O . . ",
". X X + ] 8 O + + # # # # $ Z { $ $ $ # V ~ @ + + . . o               B V O + $ ] 6 + # # $ $ $ & > 3 2.5.p y i i i i i 4.6.p p p l z C g.h.M z m M m z z p p i y  .g.v 2 2 < < < b 6.b : & & & & $ $ $ $ $ $ $ $ $ $ $ $ & : , < 2 3 i M =.( i 2 < & $ # + + X X O + # { 8 + # # # # # # $ D ] $ # $ # V ~ # # + . . .         n V   o o . . . X + # $ $ & < 4.Q < 2 ] d.Z i i i i p p 4.0.p p p l z C g.c.C m M M M m m z p p i ..c.v 2 < < < : b 0.B < & & & & $ $ $ $ $ $ $ $ $ $ $ $ $ & : < 2 3 a T e.T t 2 & $ $ @ O . . ",
". . X + Q 6 O + + # # # $ Z { , @ # # @ B ! O + . . .                 B V O + $ ] 6 + # $ $ $ $ & > < 8 4.u.m i i i i i 4.0.p p l z K Z.v.C m M 2.y.3.P >.>.~ i 7 3 ~ u.k < < < , : c 5.2...{ { ..{ { { { { { { { { { { ....>.2.3.3.9.q.G.rX'.s 2 > $ $ # + + # c Z < @ _ 8 + # # # # # $ E { : @ # # @ b ! @ + + . . o         n V   o . . . . X + # $ $ & & 8 5.! 2 8 ] c.Z i p p p p 2.0.p p l z J c.v.C m C 3.u.3.P >.2.' p y 3 ~ i.l > < , : & c 5.2.....{ { { { { { { { { { { { { ....>.>.3.5.0.k.oXiXx.y 0 & $ # + . . . ",
". X . + b V E Q ! ~ ~ ~ { ] : + # # # : ] 5.: O . . .                 B V O # $ { 6 # $ $ $ $ & & > < 2 8 4.i.W K p p p 4.6.p p z M Q.T.C m M W &X X&X9.Y.i.K.p 3 2 2 Q 6.i < : : : & 2 8 8 8 8 8 8 6 5 5 5 5 5 6 6 6 8 8 8 8 i l v m C *.).9.y < & $ # + + X 1 3.{ 2.B Q Z Q ! ~ ~ ~ ~ ..{ : + + + # & ' 5., O . . . o         n V   o . . . X X + # $ $ & & < i u.7.v 8 ..v._ E m l p 2.0.p p z M L.L.C m M W %X.X&X3.R.k.I.l 8 3 2 Q u.k & : : & & 2 8 8 8 8 3 6 5 5 5 5 5 5 6 6 8 8 8 8 8 i k l m J q._.;.3 > & $ # + . . o ",
"X . . + V v k c c v v v c $ + + + # + B 2...b . . . .                 B V O # # ] Z $ $ $ $ $ & : < < 2 3 i 5.'.E.] l p 5.S.>.2.2.5.!.i.2.3.5.0.S.b.'.9.S.>.S.i 3 2 2 < Z y.D & & & $ $ $ $ ! [ $ # + + + + + + + + + # # $ $ $ & & > 2 4 p y 2 > & $ # + X . , 2.3.Q 6 ! V c c c v v v v : + + + + + b 2...B . . . .           n V   o . . . . X + # $ $ & : < < B u.B 8 y 2.{.'.4.v p 2.S...>.>.5.!.i...2.5.0.H.b. X9.H.>.S.l 3 2 2 < Z u.E : & $ $ $ $ $ Q o.$ # # + + + + + + + + # # $ $ $ & & > 2 y s t 2 & $ $ @ X . .   ",
". . . . + . . . . . . . . + + + + + + c 0.4.8 . . .                   b V O # # 5 2.m $ $ $ & & : < 2 2 3 8 Q R.Y.g.l l ~ g.d.d.d.d.g.d.d.z.z.z.z.i.5.E u.y...7 2 2 < < > Q Q & $ $ $ $ $ $ ! { # # + + + + + + + + + + # # $ $ & & & < < < < > & $ # + X X X X < 5 + . + . . . . . . . . O + + + + + k 0.2.k . . . .           n V   . . . . . + + # $ $ & : < 2 2 8 8 8 8 Z R.Y.S.m l ! g.d.d.d.g.g.g.g.c.c.v.v.c.u.~ g.d.o.8 2 2 < < < E ~ & $ $ $ $ # # U 2.$ # # + + + + + + + + + # # $ $ $ & & * < < < & & $ # + . . o   ",
". . . . X X X X . X X . O + + + + + + $ ' B + . . o                   b V + # # # 6 3.v $ $ & & : < 2 2 3 8 v u.S.~ l v m m m m m m m m m M M M M m l k i y 7 3 2 2 < < : & & $ $ $ # # # + b E + + + X X X X X X X + + + # # $ $ $ & & & : & & $ # + X X . . X . . . X X X X . . . . . + + O + + + + # ~ b + X . . o           b V   . . . . + + # $ $ & : > < 2 2 2 8 8 8 i 0.Y.{ m m m m m m m m m M M M M G M M m v l i 8 3 2 < < < , : & $ $ $ @ @ # + c ~ # + + + X X X X X + + + + # # $ $ $ & & & & & & $ # + + . . o   "
};
