/* XPM */
static const char *exitb[] = {
/* columns rows colors chars-per-pixel */
"256 256 238 2 ",
"   c #000000",
".  c #010609",
"X  c #01090C",
"o  c #0B0B0B",
"O  c #010E12",
"+  c #021116",
"@  c #03151B",
"#  c #09171C",
"$  c #04181F",
"%  c #191919",
"&  c #021720",
"*  c #041B23",
"=  c #0A1D24",
"-  c #041F29",
";  c #05222C",
":  c #092329",
">  c #0A242C",
",  c #052631",
"<  c #092631",
"1  c #062935",
"2  c #0A2B35",
"3  c #062D3B",
"4  c #0A2E3A",
"5  c #112A32",
"6  c #06303E",
"7  c #0B323E",
"8  c #12323B",
"9  c #333333",
"0  c #073444",
"q  c #0A3543",
"w  c #0C3946",
"e  c #083749",
"r  c #07394B",
"t  c #0A3B4B",
"y  c #133945",
"u  c #183B46",
"i  c #133E4B",
"p  c #073D51",
"a  c #093E51",
"s  c #0C404F",
"d  c #16424E",
"f  c #074054",
"g  c #0A4254",
"h  c #0A465A",
"j  c #0B495D",
"k  c #134452",
"l  c #1A4754",
"z  c #134B5D",
"x  c #1B4C5A",
"c  c #1E515F",
"v  c #214B57",
"b  c #21525E",
"n  c #0C4D62",
"m  c #0E4F68",
"M  c #124D61",
"N  c #0D5066",
"B  c #0E546B",
"V  c #0E586F",
"C  c #165366",
"Z  c #1C5464",
"A  c #12566C",
"S  c #13586D",
"D  c #1B5A6C",
"F  c #0E5A72",
"G  c #0F5E78",
"H  c #125C73",
"J  c #1B5E72",
"K  c #115F78",
"L  c #235462",
"P  c #255C6B",
"I  c #285B69",
"U  c #245F71",
"Y  c #0F617B",
"T  c #1B6276",
"R  c #12637B",
"E  c #1B657C",
"W  c #28616F",
"Q  c #246374",
"!  c #2B6474",
"~  c #286779",
"^  c #24697C",
"/  c #2C6B7C",
"(  c #326675",
")  c #356E7B",
"_  c #336C7C",
"`  c #525252",
"'  c #646464",
"]  c #777777",
"[  c #80807F",
"{  c #146A84",
"}  c #176C85",
"|  c #1F7086",
" . c #16728C",
".. c #1A728C",
"X. c #1B7691",
"o. c #177894",
"O. c #1B7A95",
"+. c #1C7E9A",
"@. c #236D83",
"#. c #296E82",
"$. c #326F80",
"%. c #287489",
"&. c #3B7484",
"*. c #347688",
"=. c #3B7B8C",
"-. c #247B94",
";. c #2B7C93",
":. c #357D92",
">. c #437C8A",
",. c #407F91",
"<. c #1E819D",
"1. c #3B808F",
"2. c #27829C",
"3. c #398499",
"4. c #1E85A2",
"5. c #2386A2",
"6. c #288BA7",
"7. c #248CAB",
"8. c #348CA5",
"9. c #3C8EA3",
"0. c #2891AE",
"q. c #3991A9",
"w. c #3D93AB",
"e. c #2A98B6",
"r. c #389AB6",
"t. c #2DA1BF",
"y. c #39A2BE",
"u. c #438394",
"i. c #488796",
"p. c #448B9D",
"a. c #4C8A98",
"s. c #4B8D9B",
"d. c #538D9C",
"f. c #448EA2",
"g. c #4291A5",
"h. c #4A93A4",
"j. c #4396AB",
"k. c #4998AC",
"l. c #5494A3",
"z. c #5798A8",
"x. c #5B9BAC",
"c. c #469CB3",
"v. c #579EB2",
"b. c #639DAB",
"n. c #58A0AF",
"m. c #48A3BA",
"M. c #5CA4B5",
"N. c #57A6BA",
"B. c #6BA3AD",
"V. c #64A4B3",
"C. c #68A9B9",
"Z. c #72AAB7",
"A. c #73ADBB",
"S. c #78B1BF",
"D. c #2FA5C4",
"F. c #36A6C5",
"G. c #3CB4D4",
"H. c #44ABC6",
"J. c #4EABC3",
"K. c #57ACC2",
"L. c #46B0CD",
"P. c #58B4CA",
"I. c #48B9D6",
"U. c #58BCD5",
"Y. c #69B6C9",
"T. c #74B3C2",
"R. c #7BB5C3",
"E. c #70B9CC",
"W. c #75BDCD",
"Q. c #7BBAC8",
"!. c #67BCD3",
"~. c #48C2DF",
"^. c #57C2DD",
"/. c #79C0CF",
"(. c #69C4DA",
"). c #75C2D3",
"_. c #7BC3D3",
"`. c #78C9DB",
"'. c #56C8E4",
"]. c #66CBE3",
"[. c #76CDE3",
"{. c #70D6EE",
"}. c #78D3E8",
"|. c #818181",
" X c #85BAC7",
".X c #84BECB",
"XX c #85C0CC",
"oX c #8CC2CD",
"OX c #8DC5D2",
"+X c #85C9D9",
"@X c #8ECCD9",
"#X c #93C9D6",
"$X c #95CAD5",
"%X c #9ACBD6",
"&X c #9CCED9",
"*X c #9AD1DD",
"=X c #A1CFD9",
"-X c #A4D3DC",
";X c #AAD5DE",
":X c #87D5E7",
">X c #87D6E9",
",X c #98DAE9",
"<X c #A5DAE6",
"1X c #ACDAE3",
"2X c #B3DDE6",
"3X c #B4DDE6",
"4X c #98E2F1",
"5X c #99E3F3",
"6X c #A7E2EE",
"7X c #B8E0E7",
"8X c #B5E2EA",
"9X c #BCE3EB",
"0X c #A7E8F5",
"qX c #B6EAF5",
"wX c #BCEBF5",
"eX c #BAF1FB",
"rX c #C3E6ED",
"tX c #C8E7EE",
"yX c #C5E8EE",
"uX c #CAE9EF",
"iX c #C3EBF4",
"pX c #CCECF2",
"aX c #C4EFF9",
"sX c #D2EEF3",
"dX c #D8EFF4",
"fX c #CBF2F9",
"gX c #D5F0F5",
"hX c #DBF2F6",
"jX c #D4F5FB",
"kX c #DDF5FA",
"lX c #DDF9FD",
"zX c #E2F3F7",
"xX c #E3F6FA",
"cX c #EAF7FA",
"vX c #E4F8FC",
"bX c #ECFAFC",
"nX c #F4FDFE",
"mX c #FEFFFE",
/* pixels */
"                                                                                                                                                                                                                                              + 3 H 3.W.8XbXmXmXmXmXmXmXkX<XN.%.n ; X                                                                                                                                                                                                                                           ",
"                                                                                                                                                                                                                                        . * g #.V.-XhXnXmXmXmXmXmXmXmXmXmXmXbXiXOXz.Q e * X                                                                                                                                                                                                                                     ",
"                                                                                                                                                                                                                                  O ; g *.V.-XhXnXmXmXmXmXmXmXmXmXmXmXmXmXmXmXmXmXbXpX$XM.^ w @ .                                                                                                                                                                                                                               ",
"                                                                                                                                                                                                                            O , z :.A.1XkXmXmXmXmXmXmXnXlXeXjXmXmXmXnXeXeXlXnXmXmXmXmXmXnXsX$Xx.~ t @ .                                                                                                                                                                                                                         ",
"                                                                                                                                                                                                                      X ; z :.T.1XxXmXmXmXmXmXmXbXfX5X[.^.~.0XmXmXmXnX{.~.^.[.0XjXnXmXmXmXmXmXnXsX&Xx.Q 4 +                                                                                                                                                                                                                     ",
"                                                                                                                                                                                                                . * k *.A.2XxXmXmXmXmXmXmXbXaX,XU.y.e.e.e.F.5XmXmXmXbX].D.0.7.e.H.(.6XkXnXmXmXmXmXmXnXsX$Xz.P 2 X                                                                                                                                                                                                               ",
"                                                                                                                                                                                                            @ i *.A.1XxXmXmXmXmXmXmXbXaX:XP.0.+. .{ {  .O.0.,XmXmXmXbXU.4. .{  .o.+.7.y.(.<XgXnXmXmXmXmXmXnXpX$Xl.P 4 +                                                                                                                                                                                                         ",
"                                                                                                                                                                                                    . @ y $.A.1XxXmXmXmXmXmXmXbXwX+XK.6...R F B n n n B G +.:XmXmXmXvXP.o.G N B V F G R } -.r.Y.,XfXbXmXmXmXmXmXnXsX$Xz.Q 4 O                                                                                                                                                                                                   ",
"                                                                                                                                                                                              . $ i &.A.2XxXmXmXmXmXmXmXvX9X+Xm.2.{ V j a 0 1 , ; * , e n  .:XmXmXmXvXJ.} N h e e e a g j n V R ..8.K.@XiXbXmXmXmXmXmXnXsX&Xz.P 3 O                                                                                                                                                                                             ",
"                                                                                                                                                                                        . * k &.S.3XxXmXmXmXmXmXmXkX1XW.g.@.A h 0 , * O .             O p { +XmXmXmXvXJ.R j 1 . . . X O @ * ; 3 e g n K -.m.+XiXbXmXmXmXmXmXnXsX&Xx.I 2 O                                                                                                                                                                                       ",
"                                                                                                                                                                                  . * k =.R.9XcXmXmXmXmXmXmXkX1XT.3.D w , * O .                         3 R +XmXmXmXvXm.H g +                     . O @ ; 0 M #.k.XX9XbXmXmXmXmXmXnXgX=Xb.! 7 O                                                                                                                                                                                 ",
"                                                                                                                                                                            . * l u.R.9XvXmXmXmXmXmXnXhX<XC.*.z 3 @ .                                   , K +XmXmXmXvXm.A 0 .                               . @ , a J p.Q.8XxXmXmXmXmXmXnXhX-Xb.W 4 +                                                                                                                                                                           ",
"                                                                                                                                                                      . * l u. X9XbXmXmXmXmXmXnXgX*XV./ s ; O .                                         * H `.mXmXmXvXc.N 1                                         . @ 3 z =.T.2XxXmXmXmXmXmXmXhX-XV.! 7 O                                                                                                                                                                     ",
"                                                                                                                                                                . * d u. XrXbXmXmXmXmXmXnXsX%Xx.! w @ .                                                 @ S `.mXmXmXvXc.N ;                                                 X ; l =.A.1XkXmXmXmXmXmXmXkX-XV.( y @                                                                                                                                                               ",
"                                                                                                                                                          . : x i. XrXbXmXmXmXmXmXnXpX$Xz.W 7 +                                                         X N _.mXmXmXxXk.n *                                                       X * k *.C.-XhXnXmXmXmXmXmXkX1XZ._ i * X                                                                                                                                                       ",
"                                                                                                                                                    . : x i.XXtXbXmXmXmXmXmXnXpX#Xl.P 4 +                                                               . n _.mXmXmXxXj.j +                                                             . @ w _ V.-XgXnXmXmXmXmXmXxX2XT.=.k $                                                                                                                                                   ",
"                                                                                                                                              . ; c s.oXuXnXmXmXmXmXmXbXtXoXs.L 2 +                                                                     . n _.mXmXmXxXj.h +                                                                   . @ w ~ x.&XgXnXmXmXmXmXmXxX3XA.&.i * .                                                                                                                                           ",
"                                                                                                                                        . ; x a.oXpXnXmXmXmXmXmXbXtXXXs.Z > X                                                                           . j _.mXmXmXxXj.h O                                                                         . @ q ! x.&XsXnXmXmXmXmXmXxX3XT.=.d * .                                                                                                                                     ",
"                                                                                                                                  X > b a.oXuXnXmXmXmXmXmXbXrXXXs.Z ; X                                                                                 . j _.mXmXmXxXj.g O                                                                               . @ q ! x.&XsXnXmXmXmXmXmXvX3XT.=.z - .                                                                                                                               ",
"                                                                                                                            X > L d.$XpXnXmXmXmXmXmXbXrX.Xi.c > X                                                                                       . j _.mXmXmXxXj.t .                                                                                     . @ 7 W z.%XsXnXmXmXmXmXmXbX9XR.>.d * .                                                                                                                         ",
"                                                                                                                      O < L d.$XsXnXmXmXmXmXmXbX9XQ.u.x * X                                                                                             . j _.mXmXmXxXj.t .                                                                                             O 2 P l.$XpXnXmXmXmXmXmXcX9XR.u.x * .                                                                                                                   ",
"                                                                                                                O < I l.%XsXnXmXmXmXmXmXbX9XQ.u.l * .                                                                                                   . j _.mXmXmXxXj.e .                                                                                                   O 2 P l.$XpXnXmXmXmXmXmXbXrX Xu.l * .                                                                                                             ",
"                                                                                                          O 2 I z.%XsXnXmXmXmXmXmXvX9XQ.u.x ; .                                                                                                         . j _.mXmXmXxXg.e .                                                                                                         O 2 P l.OXpXnXmXmXmXmXmXcXrX.Xu.l * X                                                                                                       ",
"                                                                                                    + 7 W b.=XdXnXmXmXmXmXmXvX9XR.,.l ; X                                                                                                               . h _.mXmXmXxXg.e .                                                                                                               O 2 L d.OXtXbXmXmXmXmXmXbXyX.Xs.L 2 X                                                                                                 ",
"                                                                                              + 7 ! b.-XhXmXmXmXmXmXmXxX2XT.=.k * .                                                                                                                       g _.mXmXmXxXg.e .                                                                                                                     O < c s..XrXbXmXmXmXmXmXnXpXOXd.L ; X                                                                                           ",
"                                                                                        + 4 ! b.-XhXmXmXmXmXmXmXvX8XT.=.k * .                                                                                                                             s _.mXmXmXxXg.e .                                                                                                                           X ; c s.XXtXbXmXmXmXmXmXnXpXOXd.x ; O                                                                                     ",
"                                                                                X * i _ B.;XhXmXmXmXmXmXmXvX8XR.u.x ; .                                                                                                                                   t _.mXmXmXxXg.e .                                                                                                                                 O < L s.XXyXbXmXmXmXmXmXnXpXOXl.P 4 @                                                                               ",
"                                                                          . @ d &.A.2XxXmXmXmXmXmXmXxX2XT.1.x ; X                                                                                                                                         t ).mXmXmXxXg.e .                                                                                                                                       O 2 Z s..XrXbXmXmXmXmXmXnXsX%Xz.P 4 O                                                                         ",
"                                                              X O @ @ ; k &.Z.2XxXmXmXmXmXmXmXkX1XT.=.x ; O                                                                                                                                               t ).mXmXmXxXg.e .                                                                                                                                             O < Z i..XrXbXmXmXmXmXmXnXsX$Xz.! w ; @ X .                                                             ",
"                                                        + 1 h T E #.h.R.3XzXmXmXmXmXmXmXxX8XT.3.M , O                                                                                                                                                     t _.mXmXmXxXf.e .                                                                                                                                                   X 4 Q k.OXuXnXmXmXmXmXmXnXhX<XC.;.T D C e * .                                                     ",
"                                                    . 3 R n.<XtX9XyXbXmXmXmXmXmXmXxX8X/.g.E h ; .                                                                                                                                                         e W.mXmXmXxX9.e .                                                                                                                                                       X , j %.v.OXtXbXmXmXmXmXmXmXkXrXuXuX*Xf.g O                                                   ",
"                                                    , Y Y.cXmXmXmXmXmXmXmXmXvX9X`.c.%.H h ; X                                                                                                                                                             e W.mXmXmXxX9.e .                                                                                                                                                           X ; e A ;.N.,XpXnXmXmXmXmXmXmXmXmXpXq.e .                                                 ",
"                                                  . p <.8XmXmXmXmXmXmXnXjX5X(.r.+.R n r $                                                                                                                                                                 e W.mXmXmXxX9.e .                                                                                                                                                               . 6 n E 5.H.[.qXvXmXmXmXmXmXmXmX).K -                                                 ",
"                                                    3 O.,XmXmXmXmXmXmXbXeX>X^.F.4.R n 1                                                                                                                                                                   e W.mXmXmXxX9.e .                                                                                                                                                               . 6 N } 0.H.'.}.eXnXmXmXmXmXmXkXN.N @                                                 ",
"                                                    * H r.iXmXmXmXbXjXvXbXlX0X}.I.r...C 4 +                                                                                                                                                               e W.mXmXmXxX9.e .                                                                                                                                                             + q S -.r.^.>XqXjXjXwXeXnXmXmXnX`.} ,                                                   ",
"                                                    . a O.1XmXmXmXfX].].>X5X0X5X5X{.U.r.-.H w * .                                                                                                                                                         t W.mXmXmXkX9.e .                                                                                                                                                         + 7 C | 6.H.^.{.>X>X[.^.I.].bXmXmXnXK.h X                                                   ",
"                                                      ; } 1XmXmXmXaXG.0.7.0.r.y.L.^.].[.(.K.q.@.z 2 +                                                                                                                                                     t W.mXmXmXkX9.e .                                                                                                                                                   . # q C | 8.H.L.H.r.6.2.2.-.+.4.U.bXmXmXnXN.1                                                     ",
"                                                      X S 1XmXmXmXaXr.} V h e e h H -.q.J.!.`.).N.3.J q # .                                                                                                                                               t W.mXmXmXxX9.e .                                                                                                                                               . $ w J ;.w.m.r.3.^ z q ; * ; 6 n { P.bXmXmXnXn.*                                                     ",
"                                                        k 1XmXmXmXwX6.n , .       X @ 1 t C #.3.N.Y.Y.N.:.L 2 +                                                                                                                                           t W.mXmXmXxXg.e .                                                                                                                                         . # 7 D %.9.w.3.^ z 7 * O .           * n m.cXmXmXnXz.+                                                     ",
"                                                        k 1XmXmXmX9X-.0 .                 . O $ 2 i ! u.N.K.N.u.P 8 # .                                                                                                                                   t W.mXmXmXxXg.e .                                                                                                                                   X = i P *.3.3./ x 4 # X                     . e k.cXmXmXnXz.+                                                     ",
"                                                        s 1XmXmXmX8X| *                             . O > l $.h.N.N.f.! u #                                                                                                                               t W.mXmXmXxXj.t .                                                                                                                             . : l / 3.3.#.Z 8 # .                               1 j.xXmXmXnXz.+                                                     ",
"                                                        s ;XmXmXmX8XE $                                     X = y I =.h.k.p.( u # .                                                                                                                       s /.mXmXmXxXj.h O                                                                                                                       . = l ! *.*.P i : O                                       ; g.xXmXmXnXl.+                                                     ",
"                                                        t ;XmXmXmX8XE @                                             O = 8 b _ i.p.&.v 5 O                                                                                                                 t _.mXmXmXxXj.h O                                                                                                               . + 5 v ! / I u = X                                               ; f.xXmXmXnXl.+                                                     ",
"                                                        t -XmXmXmX8XT O                                                     . # 8 L =.p.u.( u # .                                                                                                       . g _.mXmXmXvXk.j +                                                                                                         . = u P / ! l 5 O                                                       @ p.xXmXmXnXl.+                                                     ",
"                                                        w -XmXmXmX2XD X                                                             X : d ( =.1.( d = .                                                                                                 . h /.mXmXmXvXk.j @                                                                                                   X : d P U L y = .                                                             + p.xXmXmXnXl.O                                                     ",
"                                                        w -XmXmXmX2XD .                                                                     + 5 v ( *.! v 5 +                                                                                           X j W.mXmXmXvXc.n *                                                                                           . # 5 x P L u : O                                                                     + p.xXmXmXnXd.O                                                     ",
"                                                        w -XmXmXmX2XS .                                                                           . # 5 v ! _ ! d > X                                                                                   @ N ).mXmXmXvXc.n ;                                                                                     O 5 l L L x 8 # .                                                                           + p.xXmXmXnXs.X                                                     ",
"                                                        w -XmXmXmX2XD .                                                                                   . = u I &.&.I u = O .                                                                         @ B ).mXmXmXvXm.C ;                                                                             X = u L ! U l > X                                                                                   + p.xXmXmXnXs..                                                     ",
"                                                        w -XmXmXmX2XD .                                                                                           + 8 L &.u.=.( l 2 # X                                                                 ; V ).mXmXmXvXm.A 4                                                                   . O = 8 b ! / L u = X                                                                                         + p.xXmXmXnXs.X                                                     ",
"                                                        7 -XmXmXmX2XS .                                                                                                 . : v &.s.h.u./ x 4 # .                                                         1 H _.mXmXmXvXN.H e X                                                           X : u P / *./ v 5 + .                                                                                               + p.cXmXmXnXa..                                                     ",
"                                                        7 =XmXmXmX2XD .                                                                                                       . # u _ h.v.k.:.! l 7 = O .                                             . 0 K _.mXmXmXvXJ.K g +                                               . + = 4 i c / :.*./ l : X                                                                                                       + p.cXmXmXbXa..                                                     ",
"                                                        2 =XmXmXmX2XS .                                                                                                               + 8 I p.N.K.n.3.#.Z y * O .                                     O t R `.mXmXmXvXP.{ j ,                                       . + : y Z #.3.g.g.:.U u # .                                                                                                             + p.xXmXmXbXi..                                                     ",
"                                                        7 &XmXmXmX2XD .                                                                                                                     + 8 I p.K.!.P.m.9.#.D i > @ .                             ; h { +XmXmXmXbXP...B a @                           . + * 4 s Z #.3.c.N.m.9.! y $ .                                                                                                                   + p.xXmXmXbXi..                                                     ",
"                                                        w =XmXmXmX2XD .                                                                                                                         . + 8 P p.K.(.(.!.K.w.;.J i > + .                 . * p n ..+XmXmXmXbX(.-.R n a , @ + X . . . . . X # > t S @.2.j.J.P.P.J.9.Q i * .                                                                                                                         + p.cXmXmXbXa..                                                     ",
"                                                        w &XmXmXmX3XD .                                                                                                                               . # 8 Q g.P.`.}.}.(.P.c.3.^ C t 6 ; * * - ; 0 g n K +.:XmXmXmXbX(.0.X.R B n h g f p f h n C E ;.q.J.U.`.[.(.P.w.^ i * .                                                                                                                               + p.cXmXmXbXs.X                                                     ",
"                                                        w &XmXmXmX3XD .                                                                                                                                     . $ y U 3.K.`.>X5X5X,X:X).K.8...K n n n V R ..0.,XmXmXmXnX}.F.7.+. .{ R R { X.8.m.E.+X,X5X5X>X[.P.w.#.k ; X                                                                                                                                     + p.cXmXmXbXs.O                                                     ",
"                                                        w &XmXmXmX3XD .                                                                                                                                           . + 2 Z :.K.:XwXlXbXlXaX,X).m.8.-.-.5.0.G.6XmXmXmXnX>XI.F.t.e.0.r.J.).,XiXvXnXbXjX5XU.9.T w * X                                                                                                                                           + p.cXmXmXbXs.O                                                     ",
"                                                        w &XmXmXmX8XD .                                                                                                                                                   + q ^ j.).qXlXnXnXbXjXeX,X:X`.(.].qXmXmXmXnX5X].].[.>X,XwXkXnXmXmXbXfX@XN.%.k * .                                                                                                                                                 + p.cXmXmXbXs.O                                                     ",
"                                                        w &XmXmXmX8XD .                                                                                                                                                       X 1 z %.v.+XqXlXnXmXmXnXbXlXfXlXmXmXmXmXfXaXjXbXnXmXmXmXbXiX*XC.3.D 7 +                                                                                                                                                       + p.cXmXmXbXs.O                                                     ",
"                                                        q &XmXmXmX8XD .                                                                                                                                                           . * w S ;.N.:XaXbXmXmXmXmXmXmXmXmXmXmXmXmXmXmXbXaX@XN.3.J g 1 O                                                                                                                                                           + p.cXmXmXbXs.+                                                     ",
"                                                        7 &XmXmXmX8XD .                                                                                                                                                               . 1 h H X.r.(.6XjXbXmXmXmXmXmXmXmXmXbXfX,X(.r.X.K n 0 +                                                                                                                                                               + p.cXmXmXbXs.+                                                     ",
"                                                        w &XmXmXmX8XD .                                                                                                                                                                   ; g V  .7.F.U.}.eXbXmXmXmXmXbXqX{.U.F.6. .F h 1 X                                                                                                                                                                 + f.cXmXmXbXs.+                                                     ",
"                                                        w &XmXmXmX8XD .                                                                                                                                                                     ; h F { <.e.G.].eXmXmXmXnX0X'.G.e.<.{ V j 1 .                                                                                                                                                                   + f.cXmXmXbXs.+                                                     ",
"                                                        w %XmXmXmX8XD .                                                                                                                                                                     . 0 n F { +.e.G.5XmXmXmXbX{.G.e.+.{ V j e O                                                                                                                                                                     + f.cXmXmXbXs.+                                                     ",
"                                                        7 %XmXmXmX8XD .                                                                                                                                                                       O 6 h N R +.e.>XmXmXmXvX].e.2.E B j 0 O                                                                                                                                                                       + f.cXmXmXbXs.+                                                     ",
"                                                        w $XmXmXmX9XD .                                                                                                                                                                         . ; a N R 5.[.mXmXmXvXU.5.} A h 1 X                                                                                                                                                                         + h.cXmXmXbXs.+                                                     ",
"                                                        q $XmXmXmX9XD .                                                                                                                                                                             - g B X.`.mXmXmXvXP.X.H j 3 .                                                                                                                                                                           + h.cXmXmXbXs.+                                                     ",
"                                                        w $XmXmXmX9XD .                                                                                                                                                                             . 6 n } `.mXmXmXxXJ.} C t @                                                                                                                                                                             + h.bXmXmXbXs.+                                                     ",
"                                                        w $XmXmXmX9XD .                                                                                                                                                                               * h R ).mXmXmXxXm.E n 1                                                                                                                                                                               + h.cXmXmXbXs.+                                                     ",
"                                                        w %XmXmXmX9XD .                                                                                                                                                                               @ g R W.mXmXmXkXc.K j *                                                                                                                                                                               + h.cXmXmXbXp.+                                                     ",
"                                                        w $XmXmXmX9XD .                                                                                                                                                                               O a H E.mXmXmXkXc.H h *                                                                                                                                                                               + h.cXmXmXcXp.+                                                     ",
"                                                        7 $XmXmXmX9XJ .                                                                                                                                                                               . e H E.nXmXmXkXj.A g +                                                                                                                                                                               + h.bXmXmXcXp.+                                                     ",
"                                                        7 #XmXmXmX9XJ .                                                                                                                                                                                 6 V E.mXmXmXkXw.N e .                                                                                                                                                                               + h.bXmXmXcXi.+                                                     ",
"                                                        7 #XmXmXmX9XJ .                                                                                                                                                                                 1 B Y.nXmXmXkX9.N q .                                                                                                                                                                               @ h.bXmXmXcXi.O                                                     ",
"                                                        1 OXmXmXmX9XJ .                                                                                                                                                                                 , N Y.nXmXmXkX9.n 6                                                                                                                                                                                 @ h.bXmXmXcXu.O                                                     ",
"                                                        , OXmXmXmX9XJ .                                                                                                                                                                                 ; N Y.nXmXmXkX9.n 1                                                                                                                                                                                 + h.bXmXmXcXu.O                                                     ",
"                                                        ; oXmXmXmX9XT .                                                                                                                                                                                 * N Y.nXmXmXkX9.n ;                                                                                                                                                                                 + h.bXmXmXxX3.O                                                     ",
"                                                        ; oXmXmXmXrXT .                                                                                                                                                                                 * N Y.mXmXmXkX9.n ;                                                                                                                                                                                 @ h.bXmXmXxX3.O                                                     ",
"                                                        ; XXmXmXmXrXT .                                                                                                                                                                                 * N Y.mXmXmXkX9.n ;                                                                                                                                                                                 @ h.bXmXmXxX3.+                                                     ",
"                                                        ; XXmXmXmXyXT .                                                                                                                                                                                 $ N Y.nXmXmXkX9.n ;                                                                                                                                                                                 @ k.nXmXmXxX3.+                                                     ",
"                                                        ; XXmXmXmXtXQ .                                                                                                                                                                                 * N Y.nXmXmXkX9.n ;                                                                                                                                                                                 @ z.nXmXmXxX1.X                                                     ",
"                                                        ; XXmXmXmXtXQ .                                                                                                                                                                                 * N Y.nXmXmXkX9.n -                                                                                                                                                                                 @ z.nXmXmXxX=..                                                     ",
"                                                        ; XXmXmXmXtX^ .                                                                                                                                                                                 * n Y.nXmXmXkX9.n ;                                                                                                                                                                                 @ k.nXmXmXxX1.O                                                     ",
"                                                        ; .XmXmXmXuX^ .                                                                                                                                                                                 * N Y.mXmXmXkX9.n ;                                                                                                                                                                                 @ v.nXmXmXxX1.X                                                     ",
"                                                        ; .XmXmXmXuX^ .                                                                                                                                                                                 ; N Y.mXmXmXkX9.n ;                                                                                                                                                                                 @ v.nXmXmXxX1.O                                                     ",
"                                                        ; Q.mXmXmXuX^ .                                                                                                                                                                                 , N Y.mXmXmXkX9.n ;                                                                                                                                                                                 * v.nXmXmXxX1.O                                                     ",
"                                                        ; Q.mXmXmXuX^ .                                                                                                                                                                                 ; N Y.mXmXmXkXw.n ;                                                                                                                                                                                 ; n.nXmXmXxX1.O                                                     ",
"                                                        ; .XmXmXmXpX^ .                                                                                                                                                                                 ; N Y.nXmXmXkXw.n 3                                                                                                                                                                                 ; M.nXmXmXxX=.X                                                     ",
"                                                        ; Q.mXmXmXpX^ .                                                                                                                                                                                 1 N Y.mXmXmXkXw.N 3                                                                                                                                                                                 ; M.nXmXmXxX*..                                                     ",
"                                                        ; Q.mXmXmXpX^ .                                                                                                                                                                                 3 B Y.mXmXmXkXw.N q .                                                                                                                                                                               ; M.nXmXmXzX*..                                                     ",
"                                                        ; Q.mXmXmXpX^ .                                                                                                                                                                               . e V Y.mXmXmXkXc.N 0 .                                                                                                                                                                               ; M.nXmXmXkX$..                                                     ",
"                                                        ; Q.mXmXmXpX^ .                                                                                                                                                                               . e V Y.mXmXmXkXc.B t X                                                                                                                                                                               ; M.nXmXmXkX_                                                       ",
"                                                        ; Q.mXmXmXpX^ .                                                                                                                                                                               + a F E.nXmXmXxXc.S g @                                                                                                                                                                               ; M.nXmXmXhX_                                                       ",
"                                                        ; Q.mXmXmXpX^ .                                                                                                                                                                               @ g H E.nXmXmXvXm.H h *                                                                                                                                                                               ; M.nXmXmXhX/                                                       ",
"                                                        ; Q.mXmXmXpX^ .                                                                                                                                                                               ; h K !.nXmXmXvXm.R j 1                                                                                                                                                                               ; M.nXmXmXhX/                                                       ",
"                                                        ; R.mXmXmXpX^ .                                                                                                                                                                             . 0 j R !.nXmXmXvXJ.{ n e .                                                                                                                                                                             ; M.nXmXmXhX/                                                       ",
"                                                        * R.mXmXmXpX^ .                                                                                                                                                                             @ a N { ).nXmXmXvXP. .N g @                                                                                                                                                                             , C.nXmXmXhX~                                                       ",
"                                                        * R.mXmXmXsX#.X                                                                                                                                                                           @ 0 h V  .).nXmXmXbXP...H h 1                                                                                                                                                                             , C.nXmXmXsX!                                                       ",
"                                                        * T.mXmXmXsX#.X                                                                                                                                                                       + 1 a h N R +.`.mXmXmXbXU.+.R N g , X                                                                                                                                                                         , C.nXmXmXsX!                                                       ",
"                                                        * T.mXmXmXpX#.X                                                                                                                                                                     X 0 h n V R ..7.[.mXmXmXbX(.7...H n h e @                                                                                                                                                                       , C.nXmXmXsX!                                                       ",
"                                                        * S.mXmXmXsX#.X                                                                                                                                                                   X 0 h N G { o.7.D.>XmXmXmXnX[.e.2. .R V n a ; .                                                                                                                                                                   , Y.mXmXmXsXQ                                                       ",
"                                                        * A.mXmXmXsX#.X                                                                                                                                                                 + 0 h N R  .4.e.D.G.5XmXmXmXnX{.G.e.7.+.} K n g , .                                                                                                                                                                 , Y.mXmXmXsXQ                                                       ",
"                                                        * A.mXmXmXsX#.X                                                                                                                                                               $ e h N K  .4.e.F.I.{.aXmXmXmXnX0X'.I.F.e.5...K N g 3 +                                                                                                                                                               1 Y.mXmXmXsXW                                                       ",
"                                                        * A.mXmXmXgX#.X                                                                                                                                                           O ; a n F { o.7.D.U.}.0XlXmXmXmXmXmXbXaX5X[.U.y.6.X.R V n a , X                                                                                                                                                           1 T.mXmXmXsXW                                                       ",
"                                                        * A.mXmXmXgX#.X                                                                                                                                                     . @ 3 f n V } 2.m.!.:XqXkXnXmXmXmXmXmXmXmXmXmXmXnXkXqX:XP.r.2.} F n t 1 @ .                                                                                                                                                     1 Y.mXmXmXpXW                                                       ",
"                                                        * A.mXmXmXgX%.X                                                                                                                                                 X * e n K %.9.K.+X9XkXnXmXmXmXmXmXmXmXmXmXmXmXmXmXmXmXmXmXmXnXkX8X+XN.8.| K n t , O                                                                                                                                                 1 T.mXmXmXpXP                                                       ",
"                                                        * A.mXmXmXgX*.X                                                                                                                                           X * 3 h E 3.C.@X9XxXnXmXmXmXmXmXmXnXxXfXqXjXmXmXmXnXwXeXjXbXmXmXmXmXmXmXmXnXhX8XOXC.3.| n e - O .                                                                                                                                         1 E.mXmXmXpXP                                                       ",
"                                                        * A.mXmXmXhX*.O                                                                                                                                   . O ; e D :.M.OX9XzXnXmXmXmXmXmXmXnXkXwX,X`.U.I.~.0XmXmXmXbX{.I.U.(.:X6XfXvXnXmXmXmXmXmXmXnXkX8XXXv.;.H t ; + .                                                                                                                                   3 W.mXmXmXpXD                                                       ",
"                                                        * C.mXmXmXhX:.@                                                                                                                             X $ q Z :.V.#X9XxXnXmXmXmXmXmXmXnXkXwX:X!.H.e.7.7.7.e.D.>XmXmXmXbX].t.e.7.e.e.y.J.).,XwXxXnXmXmXmXmXmXmXnXhX3XXXx.*.M 3 * .                                                                                                                             q W.mXmXmXpXD                                                       ",
"                                                        * C.mXmXmXhX3.@                                                                                                                     . @ 1 x =.V.#XrXxXmXmXmXmXmXmXmXbXgX6X+XY.m.6.<. .} { { }  .o.7.}.mXmXmXbXU.4.o. . .} } } ..O.6.m.E.:X8XjXbXmXmXmXmXmXmXnXhX3X.Xz./ k - O                                                                                                                       t Q.mXmXmXuXD                                                       ",
"                                                        * C.mXmXmXhX3.@                                                                                                             . @ 4 x &.V.$XyXxXmXmXmXmXmXmXmXvXpX<XW.N.8.-.} R K F V B N n N B F { 4.[.mXmXmXvXP.+.{ F B N n n N B F K R ..-.8.N.+X1XgXbXmXmXmXmXmXmXnXhX3X.Xl./ k 1 @ .                                                                                                             t Q.mXmXmXuXD                                                       ",
"                                                        * C.nXmXmXkX3.$                                                                                                       O ; l &.V.%XyXbXmXmXmXmXmXmXnXxXyX*XY.j.;.E A n h g t e 0 6 e e a a g h n F o.[.mXmXmXvXJ...H n h g t r e e 0 0 e t a h n H | 3.v.Q.<XpXbXmXmXmXmXmXmXnXkX9XoXx._ k ; X                                                                                                       g _.mXmXmXtXD                                                       ",
"                                                        * C.mXmXmXkX3.*                                                                                             . @ 2 x &.B.%XuXcXmXmXmXmXmXmXnXkX9X@XC.3.@.C g e 1 * @ O O . . . .   . . O @ $ 6 g N  .`.mXmXmXvXJ.} N g 3 @ O O . .     . . . O @ * , 6 e j T ;.h.T.*XtXxXmXmXmXmXmXmXnXzX9XXXz.( d ; + .                                                                                             g _.mXmXmXtXD                                                       ",
"                                                        * C.mXmXmXxX3.*                                                                                       O < b ,.A.-XsXbXmXmXmXmXmXmXnXhX2XXXv.*.D t 3 - @ X .                                 @ a n } `.mXmXmXkXm.R n t +                               . X $ ; 3 e M ^ 3.C.#XrXxXmXmXmXmXmXmXnXxXrX$XV.&.x 2 @                                                                                       g _.mXmXmXyXD                                                       ",
"                                                        * V.mXmXmXxX3.*                                                                             . @ < v >.Z.=XsXbXmXmXmXmXmXmXbXgX1XQ.h./ z q * O .                                             X e j { `.mXmXmXkXc.K j 3                                             . O $ , t D =.V.OX7XhXnXmXmXmXmXmXmXcXtX%XV.) l > O .                                                                             g _.mXmXmXyXD                                                       ",
"                                                        * V.mXmXmXxXf.*                                                                     X ; i ! a.S.;XsXbXmXmXmXmXmXmXbXsX;XR.s.P y ; O .                                                         3 j R ).mXmXmXkXc.H h *                                                       . O * 2 k / l. X2XhXnXmXmXmXmXmXmXxXyX%XB.>.L 7 * X                                                                     g +XmXmXmXyXD                                                       ",
"                                                        * V.nXmXmXxXg.,                                                             . $ 8 I d. X2XhXnXmXmXmXmXmXnXvXtX&XA.i.Q t ; X                                                                   ; h R ).mXmXmXkXc.A a +                                                                   O ; s / l. X2XgXnXmXmXmXmXmXmXbXsX;XS.i.P q * .                                                           . h +XmXmXmXrXD                                                       ",
"                                                        * V.nXmXmXvXj.3                                                   X @ < l ( l. X3XhXnXmXmXmXmXmXmXcXtX%XV.&.l 2 @ O .                                                                         @ g R ).mXmXmXkXw.V a O                                                                         . O ; i I i.S.;XsXnXmXmXmXmXmXmXbXdX;XS.i.I y ; + .                                                 X n +XmXmXmXrXD                                                       ",
"                                                        * V.nXmXmXcXk.t .                                         . @ 7 Z ,.V.%XyXxXnXmXmXmXmXmXmXxXyX%XC.=.c < O                                                                                     @ g R ).mXmXmXkXw.B e X                                                                                   . @ 7 P s.R.;XsXbXmXmXmXmXmXmXnXhX2X.Xz.$.z 4 * .                                         @ A +XmXmXmXrXD                                                       ",
"                                                        * M.nXmXmXbXm.n @                                 . @ 2 x &.V.%XtXbXmXmXmXmXmXmXnXkX7XoXz._ x 2 @ .                                                                                           X t K ).mXmXmXkXw.N q                                                                                             O ; w P u.Z.&XtXxXmXmXmXmXmXmXnXxX9XOXx._ k ; O                                   ; R @XmXmXmXrXD                                                       ",
"                                                        * M.nXmXmXbXN.V 1 .                   . O * 4 k ! i.Z.=XpXcXmXmXmXmXmXmXnXkX9XoXz.! i * X                                                                                                     . e K ).mXmXmXkXw.m 3                                                                                                     . @ < x =.C.&XuXbXmXmXmXmXmXmXnXhX7XXXx._ x 7 - O .                     X t } ,XmXmXmX9XD                                                       ",
"                                                        * M.nXmXmXbXK.{ n 6 @ X . . X O @ , t D *.x..X2XgXbXmXmXmXmXmXmXnXhX3XXXx.*.x 2 +                                                                                                             . e K ).mXmXmXkXw.n 1                                                                                                             . @ q U i.A.&XuXcXmXmXmXmXmXmXnXxXrX%XA.u.U g 1 @ . . . . . X * 0 N O.,XmXmXmX9XD .                                                     ",
"                                                        1 M.nXmXmXnXP.O.R F n h a g C ^ 3.V.#X9XxXnXmXmXmXmXmXmXbXsX1XQ.d.! d 2 * X                                                                                                                   . e H ).mXmXmXkXw.n ;                                                                                                                   . @ 3 z Q u.C.#X9XkXnXmXmXmXmXmXmXbXpX-XT.p.Q M g p g j V G { 6.<XmXmXmX9XT O                                                     ",
"                                                      . t C.nXmXmXnX(.7.4.<.2.8.c.E.*XyXxXnXmXmXmXmXmXmXnXgX2X.Xz.#.k , O                                                                                                                             . q F ).mXmXmXkX9.n ;                                                                                                                         . O @ 1 g T 3.M.@X9XxXmXmXmXmXmXmXmXbXsX1XQ.N.w.0.7.7.7.e.6XmXmXmX9X| ;                                                     ",
"                                                      * N Y.nXmXmXnX}.I.!.:X8XgXbXmXmXmXmXmXmXmXbXsX1XQ.v.:.T h 1 O                                                                                                                                     3 F ).mXmXmXkX9.n ;                                                                                                                                   O ; e A @.g.Y.*XyXkXnXmXmXmXmXmXmXnXxXiX<X[.U.I.qXmXmXmXiX-.t .                                                   ",
"                                                      1 ..+XmXmXmXmXkXkXnXmXmXmXmXmXmXmXbXpX<XW.c.;.E B h 3 * X                                                                                                                                         1 F ).mXmXmXkX9.n ;                                                                                                                                       . * e j V E ;.j.Y.@X8XkXnXmXmXmXmXmXmXmXvXfXvXmXmXmXkXr.B @                                                   ",
"                                                    . a N.xXmXmXmXmXmXmXmXmXmXmXbXfX6X`.J.0.X.R N h 6 * O                                                                                                                                               1 V ).mXmXmXkX9.n ;                                                                                                                                           . @ 1 g n A E X.0.H.(.,XaXxXnXmXmXmXmXmXmXmXmXmXmX6X..;                                                   ",
"                                                      a E.mXmXmXmXmXmXmXmXmXnXwX}.I.r.7.O.{ F n f ,                                                                                                                                                     1 V ).mXmXmXkX9.n -                                                                                                                                                 ; a h N K  .<.e.D.L.].5XkXmXmXmXmXmXmXmXmXmXkX2.;                                                   ",
"                                                      1 3.9XmXmXmXmXmXmXmXmXmXnXgX<X(.m.7. .G n f ,                                                                                                                                                     1 F ).mXmXmXkX9.n -                                                                                                                                               . , g j V R X.7.y.U.:XwXxXnXmXmXmXmXmXmXmXmXnX@XR @                                                   ",
"                                                      . 3 #.Q.1X8X<X<XpXbXmXmXmXmXmXnXkX1XW.w.} B f 1 + .                                                                                                                                               1 F ).mXmXmXkX9.n -                                                                                                                                           . * 3 g n F ..8.P.,XiXbXmXmXmXmXmXmXxX8X:X<X8X*XM.J ;                                                     ",
"                                                          O 1 z S A S %.k.OXtXbXmXmXmXmXmXmXkX1XW.g.@.n e , + .                                                                                                                                         1 F ).mXmXmXkX9.n -                                                                                                                                       @ ; e j S | 9.Y.,XpXnXmXmXmXmXmXnXhX1XE.9.E S S C e - X                                                       ",
"                                                                . X X @ ; e D u.T.1XhXnXmXmXmXmXmXvXyX#XM.;.S r - .                                                                                                                                     1 H ).mXmXmXkX9.n -                                                                                                                                   @ 6 j H %.k.Q.2XkXnXmXmXmXmXmXbXpX$Xx.#.M 0 * O X .                                                               ",
"                                                                            . O ; i I d.oXrXcXmXmXmXmXmXnXhX<XY.3.C 3 @ .                                                                                                                               1 H ).mXmXmXkX9.n ;                                                                                                                             O * 0 A %.n.@XrXvXmXmXmXmXmXnXxX3XR.i.L 7 * X .                                                                         ",
"                                                                                      . * d >.R.3XxXmXmXmXmXmXmXkX2XQ.p.J e , @ .                                                                                                                       1 H ).mXmXmXkX9.n ;                                                                                                                     . @ , t S :.M.$XpXbXmXmXmXmXmXnXgX-Xb.( u * X                                                                                   ",
"                                                                                            . * k &.Z.;XhXnXmXmXmXmXmXcXyX#Xv.%.n 3 @                                                                                                                   1 H _.mXmXmXkX9.n ;                                                                                                               . @ 3 j @.h.R.1XgXnXmXmXmXmXmXbXtXOXl.! 7 +                                                                                           ",
"                                                                                                  . @ 7 I d.oXyXbXmXmXmXmXmXnXsX-XC.*.z , O                                                                                                             3 H _.mXmXmXkXw.n ;                                                                                                           X * g #.v.OXyXbXmXmXmXmXmXnXhX1XA.>.b < O                                                                                                 ",
"                                                                                                          . * d >.S.3XxXmXmXmXmXmXmXkX1XT.3.C q ; O                                                                                                   . q H _.mXmXmXkXw.n ;                                                                                                   . O ; i #.x.%XpXnXmXmXmXmXmXnXsX%Xz.I 8 + .                                                                                                       ",
"                                                                                                                  @ i &.Z.-XgXnXmXmXmXmXmXvXrXOXv.#.g - X                                                                                               3 H _.mXmXmXkXw.n ;                                                                                             X * q Z ,.A.<XsXnXmXmXmXmXmXbXyXoXd.I > X                                                                                                               ",
"                                                                                                                      . @ 7 I d..XrXvXmXmXmXmXmXnXsX-XC.*.k ; O                                                                                       . 0 H _.mXmXmXkXw.n 1                                                                                       . @ w ~ z.OXrXcXmXmXmXmXmXnXhX1XA.,.x > O                                                                                                                     ",
"                                                                                                                              X * d &.A.2XxXmXmXmXmXmXmXkX2XR.u.D w ; O .                                                                             . e K _.mXmXmXkXw.N 3                                                                               . O * t / x.$XpXnXmXmXmXmXmXnXuX$Xz.W 7 @ .                                                                                                                           ",
"                                                                                                                                      @ i _ V.=XsXbXmXmXmXmXmXbXpX$XM.%.z ; O                                                                         O a R `.mXmXmXkXj.N 0 .                                                                       . @ 7 Z ,.A.1XhXnXmXmXmXmXmXbXrX.Xs.L > X                                                                                                                                   ",
"                                                                                                                                          . @ 4 L i. X9XxXmXmXmXmXmXnXhX1XA.:.M 6 * X                                                                 + g R `.mXmXmXkXc.A t X                                                                 . $ q Q l.OXyXbXmXmXmXmXmXnXhX;XA.>.x > O                                                                                                                                         ",
"                                                                                                                                                  . $ i &.A.1XhXmXmXmXmXmXmXxX9X.Xl.^ g , @ X                                                         @ g R `.mXmXmXkXc.H g @                                                         . @ 1 k $.V.&XsXnXmXmXmXmXmXbXuXOXl.I 4 @ .                                                                                                                                               ",
"                                                                                                                                                        . * y ( b.%XpXbXmXmXmXmXmXnXsX*XC.:.D e ; O .                                                 * h { `.mXmXmXxXc.K h ,                                               . X @ ; w U p.R.3XzXnXmXmXmXmXmXxX9X Xi.b : X                                                                                                                                                       ",
"                                                                                                                                                              . @ 2 x u. X3XxXmXmXmXmXmXmXkX3XQ.f.E h 0 ; @ .                                       . 3 n } +XmXmXmXxXm.R n e O                                   X O @ * 3 t S *.x.#XtXbXmXmXmXmXmXnXdX-XB.) d * X                                                                                                                                                             ",
"                                                                                                                                                                      . @ i &.Z.;XhXnXmXmXmXmXmXcXrX#XM.;.K h e 3 ; @ X .                           * p N  .+XmXmXmXxXm.{ N g 3 X                     X @ - , 3 e g n H | 9.T.<XhXnXmXmXmXmXmXbXyXoXd.L < O                                                                                                                                                                     ",
"                                                                                                                                                                            . @ w ! x.$XuXbXmXmXmXmXmXnXsX<XE.j.;.E B h t 0 , - @ + X X X . .     @ e j F o.:XmXmXmXvXJ. .V j a 0 , @ O X X + @ - 1 0 a j N F R ..2.N.+X9XxXmXmXmXmXmXmXxX3XR.u.x ; .                                                                                                                                                                           ",
"                                                                                                                                                                                    + < c i. X7XxXmXmXmXmXmXmXbXiX@XK.8...R F N n j g a a e 0 3 3 r h N R <.:XmXmXmXvXJ.o.R N h h g g p p a g h n N F R ..5.m.).<XpXbXmXmXmXmXmXnXsX-XC._ i * .                                                                                                                                                                                 ",
"                                                                                                                                                                                          . * k &.Z.-XgXnXmXmXmXmXmXbXpX,X!.m.6.O...{ R F N n n n n N F } 7.,XmXmXmXvXP.<.} K V N N B V F F K R  .<.0.J.+XwXxXmXmXmXmXmXmXbXyXoXd.P 7 @ .                                                                                                                                                                                       ",
"                                                                                                                                                                                                . $ w / x.$XuXbXmXmXmXmXmXnXkXwX:XU.y.0.+...} R R G R { X.0.,XmXmXmXxXU.7.o. .{ { {  .X.+.5.0.m.(.,XaXcXmXmXmXmXmXmXxX2XR.i.D 4 O                                                                                                                                                                                               ",
"                                                                                                                                                                                                      X - w U p.Q.3XkXnXmXmXmXmXmXbXfX,X(.L.r.7.<.o.X.+.7.t.6XmXmXmXxXU.e.7.4.4.7.7.e.H.!.:XqXkXnXmXmXmXmXmXnXgX-XA.3.D 3 O .                                                                                                                                                                                                   ",
"                                                                                                                                                                                                            . @ ; k *.C.-XgXnXmXmXmXmXmXnXkXqX:XU.F.e.e.t.G.0XmXmXmXvX'.D.t.t.F.I.[.<XgXbXmXmXmXmXmXmXcXrXOXz.#.z 7 * X                                                                                                                                                                                                         ",
"                                                                                                                                                                                                                    O 1 z %.M.$XpXbXmXmXmXmXmXmXvXwX,X[.^.'.qXmXmXmXbX{.~.'.}.0XkXnXmXmXmXmXmXmXzX2XQ.g.^ g ; O .                                                                                                                                                                                                               ",
"                                                                                                                                                                                                                        . ; t S ;.c.XX9XxXmXmXmXmXmXmXnXkXeXjXmXmXmXnXwXaXxXnXmXmXmXmXmXnXgX<XE.9.E h 1 @ .                                                                                                                                                                                                                     ",
"                                                                                                                                                                                                                            . - e n H %.j.E.<XgXnXmXmXmXmXmXmXmXmXmXmXmXmXmXmXmXmXvXiX:XY.8...F h 3 +                                                                                                                                                                                                                           ",
"                                                                                                                                                                                                                                . * t h n K X.q.!.<XjXnXmXmXmXmXmXmXmXmXmXmXkXqX[.J.6.X.R V n p * .                                                                                                                                                                                                                             ",
"                                                                                                                                                                                                                                    @ 3 a n F { o.0.H.(.5XjXmXmXmXmXmXbXqX>XU.F.7.+. .R N j p 3 O                                                                                                                                                                                                                               ",
"                                                                                                                                                                                                                                        + 6 h N R  .+.0.D.'.aXnXmXmXbX,XI.D.0.<...R N h 0 * O .                                                                                                                                                                                                                                 ",
"                                                                                                                                                                                                                                          + r h N G  .+.7.t.I.{.>X>X].L.e.7.+. .G n a ; .                                                                                                                                                                                                                                       ",
"                                                                                                                                                                                                                                          @ e h n F { o.4.0.D.G.I.I.G.e.7.4.O.{ F j a &                                                                                                                                                                                                                                         ",
"                                                                                                                                                                                                                                      . * e p h n V K  .o.2.0.F.L.G.e.7.+.X. .Y V j p , .                                                                                                                                                                                                                                       ",
"                                                                                                                                                                                                        . . . . O O O O @ * * * * , e h B F H H K { ..+.5.0.m.!.[.(.H.e.7.O. . .{ R G n a q 1 , , - * @ O O X . . . . . .                                                                                                                                                                                                       ",
"                                                                                                                                            . . O X @ # # # # $ $ $ * * * * < < 4 4 4 4 7 7 q t k k z C J ^ @.#.%.;.;.;.2.8.9.w.j.c.N.K.Y.E.E.E.W._.+X@X,X<XiXkXbXkXwX,X:X+X`.+X+X_.W.Y.K.N.c.c.w.q.8.2.;.;.%.@.E E E T D M z k k k t t a t 0 4 2 2 > : * # # # * > * # # # X                                                                                                                                                   ",
"                                                                                                                                            . . X . O # # # # * * - < > > > 2 2 7 q w i i i z S D J | -.2.6.8.0.r.r.r.r.r.c.J.P.U.(.`.:X,X,X,X5X0XqXwXaXjXvXbXnXmXnXvXkXfXwXqXwXwXqXqX,X>X}.[.!.P.J.H.y.r.r.r.0.6.5.5.-.| E J S C S M z M j h g 0 2 ; : * # @ # # * * @ @ # X                                                                                                                                                   ",
"                                                                                                                                                                                          . - q , 1 3 0 t 0 0 t 0 4 4 2 0 h K { X.7.e.r.F.F.G.L.H.H.H.U.].>X>X6XkXfX>X].^.I.L.H.H.H.L.y.r.0.7.O.E S M A K H K R H V A n n g 4 # @ @ . . . . . . .                                                                                                                                                                               ",
"                                                                                                                                                              . O . . X                     + + .       .                 O 6 N G  .O.} R { ..E A A R +.e.F.F.U.0X5XL.7.<.+.X.K N H ....R N n a , ; O . X O $ 2 7 0 t t 0 g 0 * O                                                                                                                                                         .                                     ",
"                                                                                                                                                              + 5 + . .                                           . . . * # ; 1 4 , 1 3 0 ; * ; , 0 h Y K V { e.[.(.5.V e 3 ; , O X * e e g q O                       . . @ * * ; > . O X                                                                         . X                                                                                                           ",
"                                                                                                                                                                                                                  . .                 . .       O 0 r r , 7 H 6.(.(.+.n * + O O .   . O O + > O                                 . X   .               O .                                                           .                                                                                                           ",
"                                                                                                                                                                                                      . .                       # O           O * * * - O , H 5.(.U.o.n * .                   X q =                                                   O .                                                                                                                                                                       ",
"                                                                                      . X   O .                                                                                                                             .   X           O - ; @ ; , @ 3 K 6.(.U.-.F h - @ .                 + < * O                                                                   .                                                                                                                                                     ",
"                                                                                      . .   .                                                                                                                         .   @ #               O + O X @ + X * a %.U.J.T 0 h * @ .                   . 4 z @                                                                                                                                                                                                                       ",
"                                                                                                                                                                                                                      + .                                 X - R J.c.a + * . .                       O # = +                                                                               X     X .                                                                                                                             ",
"                                                                                                                                                                                                                                                            # R J.8.;                                                                                                                                                                                                                                                           ",
"                                                                                                                                                                                                                                                            X j c.;.*                                         + .                                                                                                                                                                                                               ",
"                                                                                                                                                                                                                                                            X n H.2.@                                                                                                                                                         # .                                                                                               ",
"                                                                                                                                                                                                                                                              t r.;.O                                                                                                                                                                                                                                                           ",
"                                                                                                                                                                                                                                                              3 r.%.X                                                                                                                                                                                                                                                           ",
"                                                                                                                                                                                                                                                              3 r.#.O                                                                                                                                                                                                                                                           ",
"                                                                                                                                                                                                                                                              @ %.z                                                                                                                                                                                                                                                             ",
"                                                                                                                                                                                                                                                              . z 3                                                                                                                                                                                                                                                             ",
"                                                                                                                                                                                                                                                                < *                                                                                                                                                                                                                                                             ",
"                                                                                                                                                                                                                                                                # +                                                                                                                                                                                                                                                             ",
"                                                                                                                                                                                                                                                                # +                                                                                                                                                                                                                                                             ",
"                                                                                                                                                                                                                                                                @ O                                                                                                                                                                                                                                                             ",
"                                                                                                                                                                                                                                                                # +                                                                           X                                                                                                                                                                                 ",
"                                                                                                                                                                                                                                                                * *                                                                                                                                                                                                                                                             ",
"                                                                                                                                                                                                                                                                * $                                                                                                                                                                                                                                                             ",
"                                                                                                                                                                                                                                                                # +                                                                                                                                                                                                                                                             ",
"                                                                                                                                                                                                                                                                @ O                                                                                                                                                                                                                                                             ",
"                                                                                                                                                                                                                                                                - $                                                                                                                                                                                                                                                             ",
"                                                                                                                                                                                                                                                                - $                                                                                                                                                                                                                                                             ",
"                                                                                                                                                                                                                                                                                                                                                                                                                                                                                                                                ",
"                                                                                                                                                                                                                                                                                                                                                                                                                                                                                                                                ",
"                                                                                                                                                                                                                                                                                                                                                                                                                                                                                                                                ",
"                                                                                                                                                                                                                                                                                                                                                                                                                                                                                                                                ",
"                                                                                                                                                                                                                                                                                                                                                                                                                                                                                                                                ",
"                                                                                                                                                                                                                                                                                                                                                                                                                                                                                                                                ",
"                                                                                                                                                                                                                                                                                                                                                                                                                                                                                                                                ",
"                                                                                                                                                                                                                                                                                                                                                                                                                                                                                                                                ",
"                                                                                                                                                                                                                                                                                                                                                                                                                                                                                                                                ",
"                                                                                                                                                                                                                                                                                                                                                                                                                                                                                                                                ",
"                                                                                                                                                                                                                                                                                                                                                                                                                                                                                                                                ",
"                                                                                                                                                                                                                                                                                                                                                                                                                                                                                                                                ",
"                                                                                                                                                                                                                                                                                                                                                                                                                                                                                                                                ",
"                                                                                                                                                                                                                                                                                                                                                                                                                                                                                                                                ",
"                                                                                                                                                                                                                                                                                                                                                                                                                                                                                                                                ",
"                                                                                                                                                                                                                                                                                                                                                                                                                                                                                                                                ",
"                                                                                                                                                                                                                                                                                                                                                                                                                                                                                                                                ",
"                                                                                                                                                                                                                                                                                                                                                                                                                                                                                                                                ",
"                                                                                                                                                                                                                                                                                                                                                                                                                                                                                                                                ",
"                                                                                                                                                                                                                                                                                                                                                                                                                                                                                                                                ",
"                                                                                                                                                                                                                                                                                                                                                                                                                                                                                                                                ",
"                                                                                                                                                                                                                                                                                                                                                                                                                                                                                                                                ",
"                                                                                                                                                                                                                                                                                                                                                                                                                                                                                                                                ",
"                                                                                                                                                                                                                                                                                                                                                                                                                                                                                                                                ",
"                                                                                                                                                                                                                                                                                                                                                                                                                                                                                                                                ",
"                                                                                                                                                                                                                                                                                                                                                                                                                                                                                                                                ",
"                                                                                                                                                                                                                                                                                                                                                                                                                                                                                                                                ",
"                                                                                                                                                                                                                                                                                                                                                                                                                                                                                                                                ",
"                                                                                                                                                                                                                                                                                                                                                                                                                                                                                                                                ",
"                                                                                                                                                                                                                                                                                                                                                                                                                                                                                                                                ",
"                                                                                                                                                                                                                                                                                                                                                                                                                                                                                                                                ",
"                                                                                                                                                                                                                                                                                                                                                                                                                                                                                                                                ",
"                                                                                                                                                                                                                                                                                                                                                                                                                                                                                                                                ",
"                                                                                                                                                                                                                                                                                                                                                                                                                                                                                                                                ",
"                                                                                                                                                                                                                                                                                                                                                                                                                                                                                                                                ",
"                                                                                                                                                                                                                                                                                                                                                                                                                                                                                                                                ",
"                                                                                                                                                                                                                                                                                                                                                                                                                                                                                                                                ",
"                                                                                                                                                                                                                                                                                                                                                                                                                                                                                                                                ",
"                                                                                                                                                                                                                                                                                                                                                                                                                                                                                                                                ",
"                                                                                                                                                                                                                                                                                                                                                                                                                                                                                                                                ",
"                                                                                                                                                                                                                                                                                                                                                                                                                                                                                                                                ",
"                                                                                                                                                                                                                                                                                                                                                                                                                                                                                                                                ",
"                                                                                                                                                                                                                                                                                                                                                                                                                                                                                                                                ",
"                                                                                                                                                                                                                                                                                                                                                                                                                                                                                                                                ",
"                                                                                                                                                                                                                                                                                                                                                                                                                                                                                                                                ",
"                                                                                                                                                                                                                                                                                                                                                                                                                                                                                                                                ",
"                                                                                                                                                                                                                                                                                                                                                                                                                                                                                                                                ",
"                                                                                                                                                                                                                                                                                                                                                                                                                                                                                                                                ",
"                                                                                                                                                                                                                                                                                                                                                                                                                                                                                            % o                                 ",
"                                                                                                                                                                                                                                                                                                                                                                                                                                                                                          o ' 9                                 ",
"                                                                                                                                                                                                                                                                                                                                                                                                                                                                                        o ` |.] 9                               ",
"                                                                                                                                                                                                                                                                                                                                                                                                                                                                                      % ` [ |.|.] 9 o                           ",
"                                                                                                                                                                                                                                                                                                                                                                                                                                                                                o % ` ] |.|.|.|.|.] ' 9 % .                     ",
"                                                                                                                                                                                                                                                                                                                                                                                                                                                                              % ` ] |.|.|.|.|.|.|.|.|.] ' 9 o                   ",
"                                                                                                                                                                                                                                                                                                                                                                                                                                                                                o % ` ] |.|.|.|.|.] ' 9 % .                     ",
"                                                                                                                                                                                                                                                                                                                                                                                                                                                                                      % ` |.|.|.] 9 o                           ",
"                                                                                                                                                                                                                                                                                                                                                                                                                                                                                        o ` |.] 9                               ",
"                                                                                                                                                                                                                                                                                                                                                                                                                                                                                          o ' 9                                 ",
"                                                                                                                                                                                                                                                                                                                                                                                                                                                                                            % o                                 ",
"                                                                                                                                                                                                                                                                                                                                                                                                                                                                                                                                ",
"                                                                                                                                                                                                                                                                                                                                                                                                                                                                                                                                ",
"                                                                                                                                                                                                                                                                                                                                                                                                                                                                                                                                ",
"                                                                                                                                                                                                                                                                                                                                                                                                                                                                                                                                ",
"                                                                                                                                                                                                                                                                                                                                                                                                                                                                                                                                ",
"                                                                                                                                                                                                                                                                                                                                                                                                                                                                                                                                "
};
