/* XPM */
static const char *ice1[] = {
/* columns rows colors chars-per-pixel */
"256 256 256 2 ",
"   c #000000",
".  c #02060A",
"X  c #04090D",
"o  c #090B0D",
"O  c #060B11",
"+  c #040C13",
"@  c #040D1A",
"#  c #0A1216",
"$  c #06121C",
"%  c #0A151B",
"&  c #15191B",
"*  c #040E22",
"=  c #061423",
"-  c #0A1A25",
";  c #06172A",
":  c #0A1C2B",
">  c #141D23",
",  c #071B35",
"<  c #16242A",
"1  c #0B2234",
"2  c #0B243B",
"3  c #0D293C",
"4  c #122833",
"5  c #142936",
"6  c #2A3031",
"7  c #071C47",
"8  c #0A2447",
"9  c #0C2B44",
"0  c #0C2D4B",
"q  c #122D45",
"w  c #0E314D",
"e  c #163549",
"r  c #0B2858",
"t  c #122D56",
"y  c #0E3454",
"u  c #0E355B",
"i  c #0F395C",
"p  c #113553",
"a  c #143958",
"s  c #123A5C",
"d  c #273C49",
"f  c #0B2A66",
"g  c #112F6A",
"h  c #0E3567",
"j  c #123C63",
"k  c #123A69",
"l  c #0C2C76",
"z  c #0E3578",
"x  c #123B78",
"c  c #1F404F",
"v  c #1A435C",
"b  c #264759",
"n  c #344A53",
"m  c #144265",
"M  c #14436B",
"N  c #1A4769",
"B  c #1A4E6B",
"V  c #154A74",
"C  c #1A4C74",
"Z  c #164878",
"A  c #164C7B",
"S  c #1B5579",
"D  c #1B537C",
"F  c #244A66",
"G  c #29546B",
"H  c #32576F",
"J  c #265778",
"K  c #336478",
"L  c #4E5558",
"P  c #485B63",
"I  c #486876",
"U  c #737474",
"Y  c #0E3687",
"T  c #0D328C",
"R  c #123C86",
"E  c #113C97",
"W  c #113EA1",
"Q  c #0F418C",
"!  c #154787",
"~  c #1A5583",
"^  c #1C5A84",
"/  c #185488",
"(  c #1B5B8B",
")  c #144797",
"_  c #1B5D93",
"`  c #195798",
"'  c #235C87",
"]  c #265792",
"[  c #1D628B",
"{  c #1D6394",
"}  c #1D6799",
"|  c #1F719F",
" . c #276589",
".. c #376988",
"X. c #226493",
"o. c #256996",
"O. c #236C9B",
"+. c #376E91",
"@. c #26739C",
"#. c #377798",
"$. c #1548A7",
"%. c #1857A8",
"&. c #164AB6",
"*. c #1957B8",
"=. c #245AAB",
"-. c #1C65A7",
";. c #1F71AC",
":. c #1D68B5",
">. c #236BA4",
",. c #2474A3",
"<. c #2879A8",
"1. c #347AA6",
"2. c #2C6FB5",
"3. c #2678B6",
"4. c #477589",
"5. c #50748B",
"6. c #477995",
"7. c #6E7E83",
"8. c #4C7BB0",
"9. c #194DC4",
"0. c #1B57C7",
"q. c #1D5BD5",
"w. c #215DD5",
"e. c #1D64C9",
"r. c #1F74CD",
"t. c #1D64D7",
"y. c #2368C9",
"u. c #2C77CB",
"i. c #2267D9",
"p. c #2676D9",
"a. c #1F6DE1",
"s. c #256BE6",
"d. c #2876E9",
"f. c #327AEB",
"g. c #2B7AF3",
"h. c #477ADA",
"j. c #2C82AB",
"k. c #3685AA",
"l. c #2C87B7",
"z. c #358AB6",
"x. c #3292B5",
"c. c #389CB6",
"v. c #3794BB",
"b. c #4B8295",
"n. c #56859A",
"m. c #6C8997",
"M. c #588AA5",
"N. c #508FAE",
"B. c #4895B8",
"V. c #6696A9",
"C. c #6F97AD",
"Z. c #5BA4BD",
"A. c #72A5B7",
"S. c #2A87C8",
"D. c #3394C4",
"F. c #399AC9",
"G. c #328FD2",
"H. c #3CA2CA",
"J. c #3CA5D5",
"K. c #2B86EA",
"L. c #338AEA",
"P. c #3597E7",
"I. c #2E87F5",
"U. c #338AF6",
"Y. c #3797F7",
"T. c #3BA7E9",
"R. c #3EB3ED",
"E. c #3CA6F7",
"W. c #479AC5",
"Q. c #5092CD",
"!. c #6B9CD6",
"~. c #47A5CB",
"^. c #58A7C8",
"/. c #56AFCF",
"(. c #46AAD5",
"). c #4AB3D9",
"_. c #4CB3DB",
"`. c #56B7DB",
"'. c #70B0CC",
"]. c #68B9D7",
"[. c #4A95EE",
"{. c #49B8E5",
"}. c #57BCE3",
"|. c #45A9F6",
" X c #47B6F8",
".X c #52B1F2",
"XX c #6CB3F0",
"oX c #59C3DE",
"OX c #71C3DC",
"+X c #5AC4E7",
"@X c #4BCCF1",
"#X c #4CC8F8",
"$X c #54CAF6",
"%X c #56D6F7",
"&X c #66C6E6",
"*X c #64CBEB",
"=X c #6BCCEB",
"-X c #75CCE7",
";X c #6BD2ED",
":X c #76D5ED",
">X c #6CC9F5",
",X c #6DD4F2",
"<X c #69D7F5",
"1X c #74D6F3",
"2X c #74DBF3",
"3X c #7CDCF3",
"4X c #5AEAF8",
"5X c #67E8F6",
"6X c #79E5F6",
"7X c #70F4F6",
"8X c #818181",
"9X c #83979E",
"0X c #8AA2B3",
"qX c #87AAB5",
"wX c #8EBACA",
"eX c #A2BBC5",
"rX c #8AB8EF",
"tX c #89C8D9",
"yX c #93CDD7",
"uX c #98C9D8",
"iX c #ABCED7",
"pX c #87D7EB",
"aX c #98D9E8",
"sX c #91CDF0",
"dX c #85DBF3",
"fX c #A6DAE6",
"gX c #B0D9EE",
"hX c #94E2EE",
"jX c #83E3F5",
"kX c #8BE3F5",
"lX c #8AE9F7",
"zX c #97EAF6",
"xX c #87F4F7",
"cX c #99F4F8",
"vX c #A9E2EC",
"bX c #B6E2EA",
"nX c #A8EAF6",
"mX c #B7EAF4",
"MX c #A8F6F8",
"NX c #B7F5F8",
"BX c #B4FAF9",
"VX c #BBFAF9",
"CX c #C3DEE3",
"ZX c #C5EDF6",
"AX c #D0EAF2",
"SX c #C7F5F7",
"DX c #C4FBFA",
"FX c #CBFBFA",
"GX c #D6F5F9",
"HX c #D4FBFA",
"JX c #DCFBFA",
"KX c #E7F7FB",
"LX c #E3FCFB",
"PX c #EBFCFC",
"IX c #F3FCFD",
"UX c #FBFCFD",
/* pixels */
"                                                                                                                                                                                                                                                                                                                                                                                                                                                                                                                                ",
"                                                                                                                                                                                                                                                                                                                                                                                                                                                                                                                                ",
"                                                                                                                                                                                                                                                                                                                                                                                                                                                                                                                                ",
"                                                                                                                                                                                                                                                                                                                                                                                                                                                                                                                                ",
"                                                                                                                                                                                                                                                                                                                                                                                                                                                                                                                                ",
"                                                                                                                                                                                                                                                                                                                                                                                                                                                                                                                                ",
"                                                                                                                                                                                                                                                                                                                                                                                                                                                                                                                                ",
"                                                                                                                                                                                                                                                                                                                                                                                                                                                                                                                                ",
"                                                                                                                                                                                                                                                                                                                                                                                                                                                                                                                                ",
"                                                                                                                                                                                                                                                                                                                                                                                                                                                                                                                                ",
"                                                                                                                                                                                                                                                                                                                                                                                                                                                                                                                                ",
"                                                                                                                                                                                                                                                                                                                                                                                                                                                                                                                                ",
"                                                                                                                                                                                                                                                                                                                                                                                                                                                                                                                                ",
"                                                                                                                                                                                                                                                                                                                                                                                                                                                                                                                                ",
"                                                                                                                                                                                                                                                                                                                                                                                                                                                                                                                                ",
"                                                                                                                                                                                                                                                                                                                                                                                                                                                                                                                                ",
"                                                                                                                                                                                                                                                                                                                                                                                                                                                                                                                                ",
"                                                                                                                                                                                                                                                                                                                                                                                                                                                                                                                                ",
"                                                                                                                                                                                                                                                                                                                                                                                                                                                                                                                                ",
"                                                                                                                                                                                                                                                                                                                                                                                                                                                                                                                                ",
"                                                                                                                                                                                                                                                                                                                                                                                                                                                                                                                                ",
"                                                                                                                                                                                                                                                                                                                                                                                                                                                                                                                                ",
"                                                                                                                                                                                                                                                                                                                                                                                                                                                                                                                                ",
"                                                                                                                                                                                                                                                                                                                                                                                                                                                                                                                                ",
"                                                                                                                                                                                                                                                                                                                                                                                                                                                                                                                                ",
"                                                                                                                                                                                                                                                                                                                                                                                                                                                                                                                                ",
"                                                                                                                                                                                                                                                                                                                                                                                                                                                                                                                                ",
"                                                                                                                                                                                                                                                                                                                                                                                                                                                                                                                                ",
"                                                                                                                                                                                                                                                                                                                                                                                                                                                                                                                                ",
"                                                                                                                                                                                                                                                                                                                                                                                                                                                                                                                                ",
"                                                                                                                                                                                                                                                                                                                                                                                                                                                                                                                                ",
"                                                                                                                                                                                                                                                                                                                                                                                                                                                                                                                                ",
"                                                                                                                                                                                                                                                                                                                                                                                                                                                                                                                                ",
"                                                                                                                                                                                                                                                                                                                                                                                                                                                                                                                                ",
"                                                                                                                                                                                                                                                                                                                                                                                                                                                                                                                                ",
"                                                                                                                                                                                                                                                                                                                                                                                                                                                                                                                                ",
"                                                                                                                                                                                                                                                              o 6                                                                                                                                                                                                                                                               ",
"                                                                                                                                                                                                                                                              6 7.                                                                                                                                                                                                                                                              ",
"                                                                                                                                                                                                                                                              I iX&                                                                                                                                                                                                                                                             ",
"                                                                                                                                                                                                                                                            . A.GXn                                                                                                                                                                                                                                                             ",
"                                                                                                                                                                                                                                                            5 aXJXC.1 X                                                                                                                                                                                                                                                         ",
"                                                                                                                                                                                                                                                            K nXJXaXG 9 X                                                                                                                                                                                                                                                       ",
"                                                                                                                                                                                                                                                          % Z.nXLXNXn.a 1                                                                                                                                                                                                                                                       ",
"                                                                                                                                                                                                                                                          b &XnXKXDXtXN w @                                                                                                                                                                                                                                                     ",
"                                                                                                                                                                                                                                                        $ 6.-XnXPXFXnX4.a 1                                                                                                                                                                                                                                                     ",
"                                                                                                                                                                                                                                                      @ a /.-XnXKXFXBX'.s w X                                                                                                                                                                                                                                                   ",
"                                                                                                                                                                                                                                                      = ..}.:XnXLXFXMXaXJ p :                                                                                                                                                                                                                                                   ",
"                                                                                                                                                                                                                                                    X e Z.}.:XzXJXFXMXMXn.p q .                                                                                                                                                                                                                                                 ",
"                                                                                                                                                                                                                                                    + H ].`.:XkXJXHXMXMX'.s w #                                                                                                                                                                                                                                                 ",
"                                                                                                                                                                                                                                                    @ M.`.`.=XdXJXHXMXMXhXK p 1                                                                                                                                                                                                                                                 ",
"                                                                                                                                                                                                                                                    < /.~.`.}.-XGXHXMXcXMXN.a e O                                                                                                                                                                                                                                               ",
"                                                                                                                                                                                                                                                    K ~.v.~./.-XGXJXMXcXMXOXN a :                                                                                                                                                                                                                                               ",
"                                                                                                                                                                                                                                                  % B.v.v.W.~.&XAXJXMXcXcXhX..a 9 .                                                                                                                                                                                                                                             ",
"                                                                                                                                                                                                                                                  b W.j.v.W.~.`.AXJXNXcXcXMXV.s p $                                                                                                                                                                                                                                             ",
"                                                                                                                                                                                                                                                X #.j.1.v.F.W.`.ZXJXNXcXcXMXtXF a ;                                                                                                                                                                                                                                             ",
"                                                                                                                                                                                                                                                5 v.@.<.z.F.W.`.SXJXNXcXlXcXhX+.a 1                                                                                                                                                                                                                                             ",
"                                                                                                                                                                                                                                                ..z.O.<.z.D.F.`.SXJXDXnXjXlXlXZ.a 9 .                                                                                                                                                                                                                                           ",
"                                                                                                                                                                                                                                              - v.,.@.1.z.D.F.`.SXJXSXnXjXjX3XOXN w =                                                                                                                                                                                                                                           ",
"                                                                                                                                                                                                                                              G v.O.,.1.z.F.F.`.SXJXFXMX3X6X*X3X+.p 1                                                                                                                                                                                                                                           ",
"                                                                                                                                                                                                                                            + k.<.o.@.<.z.F.F.`.FXJXHXMX:X,X&X:X^.s 3 .                                                                                                                                                                                                                                         ",
"                                                                                                                                                                                                                                            e z.o.O.@.,.z.F.F.].FXJXHXMX:X=X&X&X-XJ w $                                                                                                                                                                                                                                         ",
"                                                                                                                                                                                                                                          . ..<.( O.O.,.z.F.~.&XHXJXHXMX3X*X&X}.:XN.p 2 .                                                                                                                                                                                                                                       ",
"                                                                                                                                                                                                                                          5 k.X.^ O.X.O.z.F.~.-XJXJXHXMXdX*X*X`.-X].N w =                                                                                                                                                                                                                                       ",
"                                                                                                                                                                                                                                          J 1.( ^ O.[ o.l.F.(.pXJXJXJXNXdX*X=X_.`.dX..y 1                                                                                                                                                                                                                                       ",
"                                                                                                                                                                                                                                        % k.@.^ ^ o.( { j.F.(.pXLXJXJXNXjX=X;X_._.:XA.s w @                                                                                                                                                                                                                                     ",
"                                                                                                                                                                                                                                        a z.O.^ [ { ^ { j.F.(.dXLXJXJXNXkX,X,X}.}.*XpXK y 1                                                                                                                                                                                                                                     ",
"                                                                                                                                                                                                                                      .  .j.O.^ { [ ~ { <.F._.hXLXLXJXVXkX1X2X}.}.&X3XV.s w X                                                                                                                                                                                                                                   ",
"                                                                                                                                                                                                                                      - @.<.O.^ o.^ ~ [ <.F.}.zXLXLXJXSXlX3X6X*X}.&X&XtXG y $                                                                                                                                                                                                                                   ",
"                                                                                                                                                                                                                                      v <.<.o.( O.~ ~ _ <.D.}.nXLXJXJXFXcXlXjX,X`.&X`.-Xn.p -                                                                                                                                                                                                                                   ",
"                                                                                                                                                                                                                                    % @.<.<.{ O.X.~ ^ { <.D.}.nXLXJXJXFXcXcXlX1X}.&X`.`.].v 1 .                                                                                                                                                                                                                                 ",
"                                                                                                                                                                                                                                    b j.,.,.} <.{ ~ ^ { <.D.}.nXLXJXJXHXMXcXlX3X}.+X`.~.-X6.0 $                                                                                                                                                                                                                                 ",
"                                                                                                                                                                                                                                  & b.@.,.,.,.<.( ~ ^ X.<.D.}.MXLXLXLXJXBXcXcXjX+X}.`.(.`.].F 1 .                                                                                                                                                                                                                               ",
"                                                                                                                                                                                                                                  H k.{ ,.,.<.,.( ~ ^ X.<.D.&XMXLXLXLXJXVXcXcXlX*X+X`.(.(.-X6.w $                                                                                                                                                                                                                               ",
"                                                                                                                                                                                                                                & n.@.{ ,.,.,.,.^ ~ ^ X.<.D.*XNXLXLXLXJXVXMXcXzX=X+X`._.(.].'.v :                                                                                                                                                                                                                               ",
"                                                                                                                                                                                                                                n B.O.o.,.,.,.} ~ ~ ( } ,.D.*XNXLXLXLXJXDXMXMXcX,X+X`.`.`.`.pXI 3 .                                                                                                                                                                                                                             ",
"                                                                                                                                                                                                                              o V.F.O.,.,.,.O.{ ~ ~ ( } ,.D.*XDXPXLXLXHXDXBXMXcX;X&X}.`.}.`.-XA.w @                                                                                                                                                                                                                             ",
"                                                                                                                                                                      . .                                                     d OXv.@.O.,.,.o.( A ~ ( } ,.D.=XFXPXLXLXHXFXBXMXcX1X*X&X`.}.}.&XaXG $                                                                                                                                                                                                                             ",
"                                                                                                                                                            .         < 5                                                     I -Xv.O.,.,.O.{ ~ A ~ ( } >.D.=XFXLXJXJXHXFXVXBXMX3X,X*X&X}.&X*XnX5.;                                                   . <                                                                                                                                                                       ",
"                                                                                                                                                            6 6       X @                                                   X V.pXv.O.>.O.} ( A A A / { >.D.-XDXLXHXJXFXDXVXBXMXkX:X:X*X&X*X2XvXn.-                                                   n 7.                                                                                                                                                                      ",
"                                                                                                                                                            < eX6                                                           % M.wX~.,.O.} _ / A A A ~ _ >.D.-XNXJXVXHXFXDXBXBXBXzX3X:X:X=X;XzX'.b.1                                             . @ < iXm.                                                                                                                                                                      ",
"                                                                                                                                                            . 0XiX6 X X                                                     4 #.C.-Xz.O._ / A A A A ~ _ ,.D.&XNXJXnXNXDXVXVXBXBXcXjXdX3X3XzXfX1.N.e +                                         $ 9 a qXLXm.                                                                                                                                                                      ",
"                                                                                                                                                              ..bXiXP q - .                                                 e o...uX^.>.( A A A A ~ ~ _ ,.D.&XNXHXzXkXBXVXVXBXBXMXzXlXjXzXbX^.1.B.v +                                       $ w s A.FXHXn.X                                                                                                                                                                     ",
"                                                                                                                                                              F ^.GXCXI y 1 .                                               N X.' V.'.<._ Z A A A ~ / _ ,.D.+XnXHXkX=XzXVXVXVXBXBXMXzXcXNXA.z.o.v.B +                                     $ 9 a n.NXHXVXV.=                                                                                                                                                                     ",
"                                                                                                                                                              b z.uXHXbX4.y 1 @                                           X J ' ' J wXB.O.~ Z A ~ ~ ( { >.D.{.zXFX3X}.3XBXVXVXBXBXMXMXDXuX,.l.' v.S .                                   $ w a ..vXVXJXnXV.2                                                                                                                                                                     ",
"                                                                                                                                                              5 k.Z.mXMXbX4.p 9 -                                         $ ' ~ ~ u 5.].<.{ A A ~ / ( _ >.S.(.dXSX2X_.*XnXVXVXBXBXMXVXbXN.,.1.' z.S                                   + w a J uXBXDXHXcXM.w @                                                                                                                                                                   ",
"                                                                                                                                                              : 1.<.wXnXzXbX5.a w :                                 o .   = ' A C ; d wX^.X./ ~ ~ / / _ } l.J.:XDX,X(.+X3XNXVXBXBXVXFX^.} <.<.' 1.' .                               $ 0 a N wXBXMXJXVXcXM.p $                                                                                                                                                                   ",
"                                                                                                                                                              # @.O.B.fXzXzXbX5.a w @                               P &   @ D C C = , 4.].v._ / ~ / / ( } 3.F.-XNX;X~._.*XkXBXBXVXJXfX,.} <.,. .<.' X                             @ 9 a m C.NXMXVXJXMXMXM.p :                                                                                                                                                                   ",
"                                                                                                                                                              .  .o.,.'.mX3XjXvXn.a 9 : .                         # qXd   X C Z A 2 = a B.`.l.( / / / ( { 3.D.&XMX*XF.(.+X,XzXBXHXAXN.-.} O.@.X.,.' ; @ -                       X 9 a s 6.nXcXMXFXHXzXMXM.y ;                                                                                                                                                                   ",
"                                                                                                                                                                G o.o.B.gXhX,X:XvXn.a p :                         d yXU   X C Z A 9 : 0  .v.(.,./ / / / { <.S.`.nX*XF.H._.+X,XNXGX'.-.>.} { O.o.,.X.y a n                     . 3 y a J yXzXzXNXJXDXxXzXM.y :                                                                                                                                                                   ",
"                                                                                                                                                                a o.X.<.'.mX3X*X=XfXn.a p 1 .                   . ..sXqXo X V C A 2 = 9 M >.v.F._ / / / { <.l._.nX&XW.F.(.}.;XNXuXo.} >.} { ,.,.<.O.u H 7.                  X 2 y s m '.lXjXzXDXLXNXxXzXV.y =                                                                                                                                                                   ",
"                                                                                                                                                                3 X.' >.z.fXnX3X=X=XaXm.s p , .                 < B.tXwX& . M ~ A 9 : w j _ X.v.<.( / / { <.l._.zX*XW.F.F.(.pXfX1._ } ,._ _ j.j.z.@.u I wX4 = .           $ 9 y s m V.jX6X6XMXHXLXMXxXcXV.y $                                                                                                                                                                   ",
"                                                                                                                                                                - ' ~ X.<.^.ZXzX:X=X-XfXC.m y ;                 H W.'.'.5 + j ( ~ y 2 w u ~ _ ( z.O.( ( { <.l._.zX=XW.F.D.(.pXB._ ( } } / ( l.v.H.@.y n.hXK y 3 + X + ; 3 w y s j n.pX,X6XjXMXJXGXzXlXzXV.w +                                                                                                                                                                   ",
"                                                                                                                                        < <                     @ D S ^ @.z.uXVXkX:X-X:XfXC.s 3 @             # N.B.'.^.b 2 M ( ( M 0 w y Z _ A ' 3.O.} } 3.l._.zX,X~.D.D.(.W.} _ ( } } ~ { D.D.(.1.j qXlXZ.a y 9 9 0 w y i j j 4.pX,X2X6XlXBXJXmXlXjXjXM.0 X                                                                                                                                                                   ",
"                                                                                                                                        # I >                   . C C D o.<.^.mXNXkX:X-X:XhXA.v 9 : .         c W.k.'.'.I 0 M { ( A u y w j _ / M >.l.,.-.3.D._.kX1X(.F.(.~.O._ _ ( } _ A { F.F.(.,.J fXjX-XJ y y y y i i m M 4.yX,X<X2XjXcXDXJXhX6X2X3XM.9 .                                                                                                                                                                   ",
"                                                                                                                                          P 4.-                   m S S X.,.l.tXHXMXdX-X-X,XkXqXb 0 : .     @ #.z.1.'.'.5.w M X.X.~ j u w u ^ { M A l.D.<.l.F._.kX1X_._._.,.` _ _ / } ( A O.F.F.H.O.6.ZXkXdXM.i i i i j m M 4.fX:X,X,X6XlXMXFXHX-X*X*X1XM.3 .                                                                                                                                                                   ",
"                                                                                                                                          & 4.K 4                 p S C ( @.l.B.bXDXzX:X-X,X2XkXqXb w 9 , ; a k.1.1.^.].M.0 j X.>.~ k j y 0 D } ~ k X.H.H.S.F.`.kX2X}.=Xv._ ` _ ` ` } / A ,.F.F.H.o.A.FXzX2XtXF j j m M M ..uXdX:X,X,X6XzXNXHXmX}.}.+X=XM.;                                                                                                                                                                     ",
"                                                                                                                                            b ....5               3 ^ C ^ o.<.l.^.SXMXlX1X;X:X:XkXA.F y y w  .1.1.1.B.].'.q 0 { <.~ M j u y Z ,.{ Z A 3._.(.J.+XnX2X;X`.>._ ` _ ` _ } / ! l.F.H.F.X.uXVXnX2XdXn.M M M M J wXdX=X:X,X,XlXcXBXHXaX}._.+X}.6.X                                                                                                                                                                     ",
"                                                                                                                                            < J +...5             4 ' C ~ X.<.l.1.wXNXzXjX;X:X3X1XkXwXF y a #.1.1.1.k./.tXb ; ^ <.~ Z M j u M ,.,./ Z _ F.}.(.=XNXzXdXD.-.` ` } _ _ } / / x.D.H.l.+.vXNXMX3X3X'.C V V C A.pX=X,X,X,X3XzXMXVXFX-X_._.+X_.4.                                                                                                                                                                      ",
"                                                                                                                                            o F J +...e .         %  .~ ~ X.,.<.l.1.bXzXlX3X1X3X3XjXNXV.y N 1.@.1.1.1.W.hXH @ V <.C Z Z k h M O.l.-./ / l.}.*X:XDXNXOX3.` ` ` -.-.} -./ _ D.D.D.} M.nXnXnXkX:XtX' Z Z M.pX=X=X,X,X,XjXzXMXFXZX}._.(.}._.4.                                                                                                                                                                      ",
"                                                                                                                                              e J C ....e .       o  .^ ~ ( o.,.<.<.V.mXlXkX:X:XjXjXzXuXs e  .1.1.1.@.k.-XI . p ,.C M A k h k ( F.3.-.` >.(.dXnXGXmX~.-.` ` _ -.-.-.} / ;.D.S.l.( wXnXzXkXkX3X:X6.A +.aX,X*X=X,X,X2XjXlXNXHXmX_.(.(.}._.4.                                                                                                                                                                      ",
"                                                                                                                                              % N N a G ' e .     .  .( ~ ^ X.@.<.l. .wXNXkXjX3X3XdXdXaX.., = J 1.1.' 1.`.5.  2 X.A Z / k h k Z D.D.3.3.3.D.=XFXLXmXD.>.-.` ` :.-.-.` _ <.l.l.3. .gXzXdX&X*X;X;Xk.( wXnX,X=X<X,X,X2XjXkXNXHXaX(.(.(.{.).+.                                                                                                                                                                      ",
"                                                                                                                                              . 2 p ; , m J a #     G X.~ ^ X.o.,.<.,...iXpXdXdX3X3X3X:XV.9 . O m X.C @.W.M.. = ~ k A / k k k x z.J.G.G.S.S.).nXJXpXS.>.-.-.-.3.:.-.%.-.3.l.l.} 6.vXkX&Xz.3._.~.{ 1.mXnX,X,X,X,X,X2X2XzXNXGX].(.(.(.{.J.K               . + 5 <                                                                                                                                                 ",
"                                                                                                                                                - q $ = 9 p v K %   e @.~ ( ' X.,.<.<.o.M.aX-X:X:X:X:X=X/.m 9 + $ 0 j @.z.N.o + k f Z / k k x x <.(.{.R.G.G.J.:XVX}.S.:.:.-.:.S.:.-.-.3.3.3.3./ 8.nXdX~.>.} z.O.` N.NXzX1X,X,X,X,X2X1XMXNXZX/.(.(.(.).F.J               $ $ 4 <                                                                                                                                                 ",
"                                                                                            # o                                                 : a = O ; 0 , b G . 4 #.D ( ' X.O.,.<.<.' qX-X-X=X-X;X&X(.J s 8 X + 2 ' z.B.5 ; 8 8 x ! h k Z Z O.).@X@XR.G.P.&XlX(.S.:.:.:.3.S.3.-.:.3.;.3.` ! C.nX-XD.3._ ` _ ( '.VXkX3X,X1X,X<X<X3XcXVXgX~.(.J.J.J.D.G               = $ + #                                                                                                                                                 ",
"                                                                                            < 7.n .                                             + a w $ ; 1 9 + 5 % X ..^ ^ ( X.X.,.<.<.X...uX`.&X&X*X+XH.#.j u ;   @ q B.^.a , , r h Z h k x ! ` (.+X%X@XP.G.+XjXJ.G.3.3.r.S.S.3.:.:.3.;.-.) ! '.zX*Xl.>.` ` _ ] uXBXjX3X1X,X<X$X+XjXcXDXsX~.(.F.F.H.D.G             $ 1 X                                                                                                                                                     ",
"                                                                                              P CX0Xd .                                           q j 1 , ; 9 @       J ' ^ ( ~ ' O.,.>.o.C C.'.#.`.}.`.D.1.M h 8 @   @  ./.F 7 8 r r x k k x ! ` D.{.@X%XT.G.+XjX{.G.3.u.S.G.S.u.:.:.3.3.` ) ! '.,X}.>.` ! _ ( +.vXMX1X2X,X,X>X{.+XlXcXSX].J.H.F.F.F.F.J +         X 1 :                                                                                                                                                       ",
"                                                                                              X V.NXvXC.6 . .                                     = M p ; + : @       b X.~ ^ D ^ O.>.O.X.C K eXJ ' W.&X~.<.( h r , @ , s ^...r r r f x z z x ! ` 3.(.@X4X{.G.*XjX{.G.u.S.G.P.G.S.3.:.3.3.` ) ` ].,XW.! ! ` ` / M.NXMX=X,X,X;X_.J.=XzXMXmX_.H.F.D.F.H.D.K $         : 3 $                                                     o o                                                                                               ",
"                                                                                                a '.mXMXaXC.n - +                                 + M j , . $         5 o.C ~ D ~ X.O.X.{ C j A.4.j M b.].z.>.J r r 8 r r 6.6.r r f g x z z x ! ` :.G.R.%X@XG.&XjX{.G.S.G.T.T.G.S.r.:.S.3.) ) ] -X+XO.Z / ` ! / '.NXMX+X<X,X_.F.(.3XMXNXvX(.F.D.D.F.H.v.J $       X e 3 X                                                 . 6 I <                                                                                               ",
"                                                                                                # o.C.nXlXzXaXC.n - +                             % ' M y @ X         % +.M D D ~ ( >._ ^ p 0 6.M.j k h ' B.k.1.k r r r f C 6.r f f z R R x x ! ) -.S.T.%X%XP.&XjX{.G.G.P.T.T.G.G.u.:.S.-.! ! ] }.v.! ~ _ ! ! _ uXMXcX_.}._.H.D.(.kXMXSXpXJ.F.D.D.D.H.z.J $       5 e 1                                       X $ $ + % n 0XuXK                                                                                                 ",
"                                                                                                  N o.V.vXkX3XkXaX0XH 2 $ +                         v S s 1 $ X       . ..m V D A ~ O.X.A 9 ; G V.k k k u j #.W.+.f g l g g ..g f l Y ) ) Q R Q ) %.u.J.@X%XP.&XxX{.P.P.T.{.P.P.P.u.r.u.) Q R X.~.` ! X.! Z ! o.fXMXpXz.l.H.D.D.{.zXMXFX&XJ.F.D.D.F.J.F...1 .   . a p : +                             . $ ; 1 9 w v 4.qXZXvXB.-                                                                                                 ",
"                                                                                                  - o.' V.vXjX,X1XzXvXqXK e @                       % S m s 0 $         K J s A Z D X.X.M , @ q V.C k k u u j 6.^.] z z z g ! x z Y E $.%.) Q Q %.*.r.P.T.@XP.>XxX$XT.T.R.{.K.P.P.p.r.:.Q ) R >.<.! _ ! Z Z ` 8.mXcX^.} 3.F.D.J.}.zXNXZX}.(.F.D.D.F.J.~...0 $ . 1 N p 3 +                         @ 1 9 p p p F b.tXnXDXvX~.K                                                                                                   ",
"                                                                                                    J o.D C.vXdX;X,X:XhXvXA.n #                       q V u u :         b J 0 9 u A ~ X.a + + $ M.' h h u u h k +.B.) R R R Y R E E $.*.e.$.) ) %.:.r.P.T.{.P.>XxX2X X X#X{.K.T.P.r.r.$.$.$.R >.` ` ! x x ! ` A.MX&X>.} >.D.F.G.}.zXSXfX_.(.F.D.D.J.J.(...y 9 9 m B w w                       + 3 y a a s H V.tXzXcXDXvX~.D.<                                                                                                   ",
"                                                                                                    5 <.D C C.mXdX;X:X;X,XkXaXA.n # X .               + N a 2 9         4 a = + $ M ~ ( w   @ $ 4...h h j h h k x +.1.) ! M.) ) $.$.$.*.p.*.$.$.*.e.p.P.T.T.L.=XxXlX$X#X$X|.P.T.P.e.e.$.$.$.) >.` ! x x x ) ` uXzXz._ } ,.D.F.S.].dXSX-X(.(.F.F.F.J.{._.+.y y M V a 9 ;                   X ; 9 a s N 4.A.aXzXlXcXDXvX~.F.K                                                                                                     ",
"                                                                                                    X  .X.C C m.mXdX;X:X=X+X=X:XpXA.I e : ; .           3 N , 2 @       $ q     . , C ~ 2     , H b.h h h h h h x R ] >.) A.!.$.&.&.&.9.p.y.*.*.e.p.p.L.R.P.L.:XcXcX1X%X#XE.Y.|.P.0.*.$.$.%.` 3.Q z z z ! ) >.bX&X>.` -.;.D.D.l.`.].NX].(.J.H.F.H.).{.}.+.u u M V : e +             . X 1 9 y y F n.wXzXzXkXjXnXHXvX~.D.v.1                                                                                                     ",
"                                                                                                      e <.C M N C.mX,X*X,X=X+X*X=X:XaXwX5.a =           X m p 0 +       . 1         0 D -     + a N.k h f h h h x ! ! >.%.N.AXh.0.9.&.0.i.p.q.e.i.d.K.K.R.I.L.dXcXMXkX%X$XE.|. XL.0.&.&.&.:.W.3.R z z z ! Q 8.mXW.` ` ` _ l.l.l.F./.nX`.(.J.J.H.J.{.+X+X6.u u M M w e         . = : 9 0 y a H V.tXdX2X1X3XkXNXJXfX~.x.F. .                                                                                                      ",
"                                                                                                      X  .X.j M N m.vX;X*X,X+X*X=X*X=XdXvXwXI &           4 C p X         :         + V -       O 6.k k h f h k z ) ) ) *.2.mXgXu.q.0.q.d.f.i.i.d.K.P.L.E.I.Y.6XVXVXNX,X<X|. X.Xp.0.*.&.*.!.`.%.R z z z R Q C.gX>.` ` ` } -.3.l.3.].hX_.{.(.J.J.).+X+XdXn.h i N i m :     . $ 1 w y i m 4.A.tX:X+X+X+X,XjXNXLXfX~.v.l.F.e                                                                                                       ",
"                                                                                                        q O.C s M a m.vX;X=X=X&X&X=X*X=X:X-XtXqXL #       X N a .         +           = $         H F f z g h x z ! %.$.*.y.aXNXgXi.w.i.s.L.d.d.f.U.Y.U.Y.U..XlXKXHXDXdX<X X X|.s.t.0.*.!.pXu.) E R z R Q ) '.].%.` ) ` -.-.3.3.-.].pX+X}._.(.(.{.+X:XzXM.h j M y s ; ; , , w y u N 5.wXpX&X_._.+X,X,XkXVXFXaXW.x.l.l.@.+                                                                                                       ",
"                                                                                                        X C ~ j p s a C.zX,X:X;X*X*X*X&X*X*X`./.tXA.n X X X q C $                       + X       b ..r g x z x Q R *.*.*.0.rXkXSXrXs.s.s.g.f.d.I.Y.Y.Y.Y.Y.>XBXUXJXVXzX<X X XY.d.i.q.u.aX`.*.$.) ) E ) ) ) ].z.%.` ) ` %.-.3.>.-.yXdX*X+X{.{.{.}.*X3XzXM.k M j s y 9 y y y y N n.wX-X`._._.}.*X,X2XlXDXNX].F.x.j.j.v.N                                                                                                         ",
"                                                                                                          2 C N p p p a 0XvX,X:X:X,X,X*X*X;X*X~.z.^.'.n.b 0 0 m 1                         .     * F V.t r z R ) %.$.*.y.*.0.XX6XjXGXrXf.g.g.g.g.U.Y.Y.Y.Y.|.3XFXUXPXDXNX,X X XY.f.s.p.&X;XS.*.$.$.$.) $.) =.OX>.` ) ) %.` -.;.-.>.aX1X<X*X}.{.}.+X=X3XzXN.M M M m p y y y F 6.'.].(.~._.}.&X;X,X1XzXVXNX'.x.x.j.<.<.z.-                                                                                                         ",
"                                                                                                          X a M s 0 u u N 0XvX=X&X&X&X*X&X+XoX~.<.,.1.W.'.V...u 2 X                             * k V.H r g z Q *.0.*.y.0.0.!.kX2XMXKXrXU.U.U.I.Y.E.Y.Y.Y. XlXLXUXIXFXBXkX#X XY.f.d..X2X}.r.*.&.$.&.$.$.) N.'.%.) ) ) -.` -.-.` 8.vX2X,X<X+X+X+X+X;X,XlXM.k M M j u a J b.^.(.J.F.(.+X*X=X,X,XdXMXNXmX'.l.l.j.<.@.j.J                                                                                                           ",
"                                                                                                            , m M w u s j N 0XaX&X~.z.v.v.z.z.j.<.<.<.k.B./.OXM.e .                         X * 7 f +.F k l l l &.i.i.0.w.q.XXnXdXNXFXIXrXU.Y.U.Y.E.E.E.E.$XcXPXUXUXHXBXMX>X XY.g.[.+X,X[.p.0.&.*.*.&.&.$.!.u.%.) ) %.-.%.;.-.` Z.zX2X<X<X*X+X+X*X,X,XdX+.j k M N ..N./.(.H.(.}.+X;X,X,X,X=XkXNXNXmX'.l.j.<.,.@.X.<.1                                                                                                           ",
"                                                                                                            . p k j u u s j N 0XaX`.v.j.j.j.j.j.j.j.j.j.j.v.~.-X].4.5 .                   X * r r f Z h x ! z Y E 0.i.i.w.t.!.nXjXMXDXLXKXXXY.Y.Y. X X X X<XcXPXUXUXJXVXBX3X XU.Y..X|.=XL.d.0.9.e.0.&.&.*.!.y.$.$.$.%.-.-.;.%.` '.kX2X,X<X>X+X+X+X,XOX6.j j C 6.^.]._.(.J.{.;X2X,X,X*X+X=XhXNXVXmX'.l.<.<.,.,.[ X.S .                                                                                                           ",
"                                                                                                              : j M p w u j j N 0XpX/.z.j.j.j.j.j.z.z.z.z.v.H.`.+X}.].m.<                 @ r g g l R x l =.R E W &.q.s.s.s.[.nXlXzXDXDXHXJXXXY.E. X#X X X5XcXIXUXUXKXVXBXkX|.Y.|.L.|..Xf.s.q.0.t.0.9.9.u.[.u.*.%.$.:.%.:.:.) >.aXkX3X2X,X*X}.}.`.N.C j j ' B./.~.~.(.}.+X,X;X+X_.).).+XzXNXNXZX'.x.<.<.,.,.} D o.3                                                                                                             ",
"                                                                                                              . p j j 9 9 u j j m C.pX/.z.j.j.j.j.z.z.z.v.H.(.`.+X+X*XnX'.K %           + , r z R Y E ) l ] =.E $.&.9.s.s.d.XXSXkXkXMXDXVXFXGXsX X X%X#X#X5XMXIXUXUXPXVXMXzX|.|.Y.I.|.E.g.s.q.q.a.q.0.0.[.[.!.*.*.*.*.%.:.-.) 8.nXkX2X2X2X+X}.B.' k k C @.z.D.F._.&X;X*X`.~.F.D.D.F.`.kXcXcXmX'.v.j.<.<.@.} D (  ..                                                                                                             ",
"                                                                                                                : s s p + ; y s j s m.pX_.v.j.z.j.z.v.v.F.~.).`.+X*X*XdXZ.~.N.b X       ; F 5.x E ) ) =.E E $.&.&.&.9.w.d.g.[.GXzXlXzXNXVXFXJXPXhX$X%X%X%X7XMXPXUXUXPXNXMXdX|.|.U.U.|.Y.g.d.s.s.s.q.q.i.L.XXrXe.e.*.*.%.:.$.) !.nXkX3XlXdX/.1.Z k M ^ <.l.z.(.`.+X`.~.z.l.l.l.D.F.&XzXcXlXhX/.x.<.,.<.@.} ^ V o.q                                                                                                               ",
"                                                                                                                . w 3 s :   = 9 u j a m.pX`.~.v.v.x.v.F.~.(.).`.+X*X;XjXtXB.^.k. .:     ; f 7.eX8.$.) =.$.W W &.&.9.9.w.s.I.[.ZXMXzXzXMXDXJXJXPXIXnX%X4X4XxXMXPXUXUXPXDXNXXX|.|.U.Y.Y.Y.I.g.g.g.d.s.s.s.L.nXsXt.t.e.*.*.*.) $.uXMXkXkX].1.! Z x A _ { <.j.H.(.B.o.( _ _ <.3.v.~.:XzXjXzXpX~.l.<.,.<.O.{ { V ^  .X                                                                                                               ",
"                                                                                                                  1 9 ; y X   X = p j s C.aXoX/.~.F.v.H.~.(._.}.+X*X,X3XhXN.B.X.o.' e X ; f g 0XAXeX8.=.*.&.$.&.0.0.q.s.d.I.[.mXMXcXcXMXDXJXIXIXIXIXzX4X4XxXBXIXUXUXIXDXkX X|.|.Y.Y.Y.Y.I.I.I.g.g.g.d.d.sXNXsXd.s.i.e.r.*.$.2.nXMXaXQ.` ) Q ! Z Z ! { l.F.1.D M Z ~ ~ ( >.l./.hXlX<XlXpXv.l.j.} @.| ( { D V @.e                                                                                                                 ",
"                                                                                                                  @ a @ : 2       ; s j M qXvX&X`.(.~.~.(.)._.`.+X*X,X&X`.k. .' ' o.X.V t f g ! '.AXZXwXQ.0.9.9.w.i.w.s.g.I.U.gXBXcXMXMXVXFXLXIXPXIXPXMX7XcXVXIXIXIXUXnX#X X|.E.E.E.E.Y.U.U.U.I.g.g.g.XXNXBXaXK.K.d.p.p.*.*.Q.MX-X2.) ) ` ) ! x x ` l.<.C k j k M A ~ _ l.OXnXkX,XzXpX~.v.l.| { } ( ~ ( V [  .o                                                                                                                 ",
"                                                                                                                    p 9 . 1 @     X 0 k M C wXnX*X`.(.).).)._.}.+X&X*X`.(.~.C j C ~ C k u r f g =.!.SXFXmXrXh.w.i.s.s.s.g.U.I.sXBXMXMXBXVXDXHXLXLXLXPXIXNXcXBXIXPXIXJX6X#X X|.E.|.|.E.Y.U.Y.Y.I.U.U.[.ZXDXBXnXI.I.I.K.d.e.0.].-X2.$.) ) %.) ! Z ! } _ k h k h k x Z ( B.-XjX2X:XnXpX(.H.l.,.^ ( ^ V ~ A ^ <.5                                                                                                                   ",
"                                                                                                                    - S : X $     $ 8 u Z A J wXnX;X+X).)._.`.+X+X+X`.).(.(.k.u u M k h r 8 f f R =.!.ZXFXmXgXrX[.f.s.s.g.I.I.XXVXBXBXBXDXFXFXJXIXIXIXIXIXDXMXLXFXJXMX5X%X X|.|.|. X XY.Y.E.Y.Y.Y.[.gXHXDXBXnXY.Y.Y.I.K.t.u.XX2.&.$.) $.%.Q x x ! ! x h k k k k x / Z.-X*X+X:XmXyX(.J.l.@.^ A A V V ~ ^ ,.S .                                                                                                                   ",
"                                                                                                                    . B S 0 = . . @ 2 y M D Z J uXNXjX+X`._.`.}.+X+X`.(.H.~.~.J t 8 y h r , r r f ) y.XXgXSXSXZXgXrXf.s.g.U.U.XXVXBXBXVXDXFXFXHXIXIXIXIXPXLXNXDXBXNXxX5X<X X X|.|. X XY.Y.|.E.Y.Y.sXFXVXDXBXNX[.Y.Y.U.d.t.u.[.*.*.$.) %.) R z ! ` ! z k k k x x X./.&X{.{.-XmXtXH.F.j.@.( V V V V V ( @.O.-                                                                                                                     ",
"                                                                                                                      1 ' D j 3 2 0 y u j V ~ A ..fXSXkX;X+X`.+X+X`.).H.H.~.~.k.t r r r f r r r r g =.f.XXsXZXZXZXmXgXXXU.U.U.XXVXVXBXVXDXJXJXHXJXLXLXLXHXDXFXMXjXzX5X5X%X#X#X X|. X XE.E. X|.Y.XXFXVXBXVXBXNX|.Y.Y.I.s.q.p.f.q.0.&.$.$.R z ! ` ! z h k h k ! k.`.).J.).-XSXyXD.v.<.} [ A V V V V ^ @.O.p                                                                                                                       ",
"                                                                                                                      . C ^ D Z j u j j j V Z ~ ~ #.bXFXmXdX+X`.+X+X(.H.F.F.F.W.J r r r r f r 7 , r ) i.[.XXsXsXsXsXgXbXsX|.U..XSXDXVXDXFXLXJXFXFXHXHXHXHXBXVXMX$XkX7X4X4X#X#X#X X X XE. X X X.XZXFXBXBXVXMXNX.XY.Y.I.d.t.L.d.s.t.*.&.) Q =.%.R x z z z z ( v.(.H.D.J.:XmXyXv.l.,.{ ( A V V V V [ <.O.S $                                                                                                                       ",
"                                                                                                                        q { ( ^ ~ Z j m M Z ~ A ~ { N.bXHXNXdX+X).).(.~.F.F.v.~.^.k r r r r f 7 * 7 x u.h.XXXXXX[.f.f.XXsXsXXX.XGXHXFXFXFXHXHXDXFXFXHXFXHXFXNX2X#X3X6X4X5X%X%X#X#X#X X X X X XnXJXVXBXVXBXMXBXXXY.E.Y.I.f.L.f.d.d.0.*.=.Q.:.) R x z x x ( ,.l.D.D.~.-XvXuXj.,.} [ [ [ ~ ^ ( ( @.l.j.[ v                                                                                                                         ",
"                                                                                                          # .           @ ^ o.{ ( ( ^ C V D ~ ( ^ ( O.N.bXZXNX3X+X`./.~.v.F.F.(.:X+.f r r 7 8 r 7 , f 8.[.XX[.[.[.f.s.d.U.|.>X>XgXHXHXHXFXHXJXHXHXHXHXHXHXDX3X<X#X,XMX4X5X4X4X%X%X%X X X X XsXJXFXDXDXVXBXMXBX>XE. X XE.Y.U.I.K.d.i.Q.aXQ.$.) R R x x x / O.W./.^.^.bXiX#.} O.} } } } } ,.,.j.D.D.,.o.-                                                                                                                         ",
"                                                                                                          - F 1 .         9 o.{ X.[ ( [ ( ~ ~ ^ { X.X.X.J 5.uXmXpX+X`.`.(.H.).`.-X'.k r r 8 ; r 7 7 r ..rXXX[.i.s.s.s.s.g.Y.Y.|.|.XXZXLXLXJXKXPXLXJXHXHXFXjX%X2X$X<XNX7X7X7X7X4X4X%X#X XE.>XHXFXFXFXDXDXBXBXBXdX X#X#XE.Y.U.U.U.[.sXSXsXe.*.) Q R z z ! 1.'.wXM.^ '.fXb.[ ,.<.,.,.,.| | ,.j.l.D.x.l.B                                                                                                                           ",
"                                                                                                            5  .C 3 +     X N ( ^ ~ ^ ^ ^ ^ ~ ~ ( O.X.C S a e n.iXpX`.(._._.).~.v.]...r r r , 7 r r r x !.sX[.w.q.i.s.s.d.U.U.Y.Y.Y.|.sXKXPXLXPXLXJXHXFXcX%X$X<X%X%XMXxXxXMXxX4X4X4X%X#X$XVXFXFXFXHXFXFXVXBXBX1X#X%X#XE.E.Y.|.sXGXHXSX[.e.*.) Q R z ~ V.'.6.C h o.Z.N.^ ,.<.<.<.<.<.| | ,.l.D.D.l.j.-                                                                                                                           ",
"                                                                              6 P n < # .                     1  .X.D 2     O p C D D V V M A ~ ~ { o.s C m 2 = 5 V.pX&X_._.`.~.l.B.n.u r r 8 7 r r r f 8.sX[.0.9.w.i.s.s.f.U.g.U.U.Y.[.rXGXPXPXLXJXHXMX5X$X$X<X$X%XcXMXMXHXcX7X4X4X%X$XnXHXFXFXHXJXHXHXFXDXDXdX%X%X#X X|.sXZXJXFXFXmXL.t.*.$.) R ! +.' x f r M ' o.' A <.j.j.<.<.,.| ,.<.l.l.j.l.J                                                                                                                             ",
"                                                                              X n m.A.V.5.K n 6 & X             - S X.~ 9 .     $ w V A V M M Z A ~ X.m j N 3 $   X I tX3X&X`.~.D.l.C.4 8 r r r f , , r ~ sX.Xi.&.0.w.i.d.s.g.g.g.U.U.U.Y.XXmXPXPXLXFX6X5X#X#X%X$X$XxXBXHXPXMX7X4X4X4XzXJXFXHXHXJXLXLXJXHXFXFXkX%X%X#X1XZXJXFXBXDXJXsXf.p.e.*.$.Q ` x k r = 8 j h J 0 A <.l.j.,.} } ,.,.,.| ,.<.j.5                                                                                                                             ",
"                                                                                  1 H n.Z.B.z.k.N.6.I n 6 & .     + v D C 9 .       $ w V A M 3 9 V ~ w 3 C 5 #     X n wXzXpX].~.F.Z.<   @ 8 r f @   7 f wXsXp.&.&.0.i.s.s.s.g.d.U.U.U.U.Y.[.sXJXLXcX5X5X#X#X%X$X$X7XMXLXUXBX7X4X4X6XJXHXJXJXHXLXPXPXLXHXHXJXdX%X2XnXHXFXBXMXBXDXSXXXf.L.p.*.$.Q ! Z j +   , 8 M 3 1 V ,.} ^ D M D | | } } } <. ..                                           # < o                                                                             ",
"                                                                                    2 m H M.^.^.F.z.k.z.B.N.4.H d < # 1 p a $         + 1 s Z $   $ a 2 @ m e . X X . ; a C.vXdX`.(.].n     @ r r +   + 7 5.vXQ.&.&.9.w.i.s.d.d.s.g.U.I.g.U.U.Y.XXNX7X5X5X$X#X%X$X$X5XcXPXUXDX7X4X7XFXLXJXLXJXJXPXIXPXPXLXPXPXzXnXGXVXMXcXcXBXBXVXvX[.f.L.p.*.) R ! k O     . 2 p $ 9 j M M j j s [ } { { } } j.5                                 . o & 5 n I I 5 .                                                                             ",
"                                                                                      1 m s K C.tXOX^.k.<.<.j.z.k.#.#.K H c 4 # .     . = @ : @   + . X   1 q @ . @ = @ ; 2 5.fXhX&X=XqX> ; * ; , *     @ f '.Q.&.&.&.0.i.i.s.s.q.s.g.g.g.I.U.Y.Y.>X7X7X5X%X$X$X$X%X5XcXIXUXHX7X4XMXPXPXPXPXPXIXIXIXIXIXUXLXnXdXhXNXxX6XcXMXBXMXVXXXK.d.d.y.*.$.Q u +       + p + = y 9 y j i M D { [ V M A @.J .       . + X X o & < 6 6 n P I 5.4.6.V.A.n.H -                                                                                 ",
"                                                                                        : N j M ..A.aXaX'.z.<.<.O.X.X.@.k.k.B.N.b.H e #     .             . $ $   + @ $ . . . L yXnXpXpXM.j 7 @   @ .   + 7 +.Q.W $.$.*.w.i.p.p.0.i.s.d.d.d.g.I.U.XX6X5X%X%X$X$X$X%X5XxXPXUXJX7XcXLXIXUXUXUXIXIXUXIXIXKXnX,X XE.dXcX6XxXcXMXcXMXmX[.d.i.p.0.*.$.g X         1 ;   = 0 y u 3 M ( } C 1 X   ; m -   # < 6 P 5.V.qXwXuXyXtX].^.W.N.#.N.C.n.K G %                                                                                   ",
"                                                                                          : N a M V ..A.aXaX^.1.X.^ D D ^ ^ ( X.o.o.#.+.v - @ .                     $ @ .       n wXnXpX].N.C ,   + =     , ] Q.) T E *.0.y.p.p.0.0.i.t.d.d.s.g.U..X6X4X%X%X$X$X%X%X5XxXJXUXLXMXJXPXIXUXUXIXJXIXUXKXmX>X X X|..XnXcXxXcXcXxXxXMXXXK.d.e.y.*.*.) 7 +       + 1     . 8 u w N S ^ w +       + e G +.N.'.OX-XjXzXzXzX:X`.F.v.z.k.Z.A.6.G S G %                                                                                     ",
"                                                                                            1 S k Z A ( o.Z.OX].W.#. .^ ^ ~ ~ ^ ^ D D [ X. .C e - .                 . $ .         6 wXmXpX].A.e     ;     @ V ~.) Y Y $.y.y.p.y.9.9.y.0.t.s.i.s.I.[.2X%X%X%X%X%X%X4X7X7XDXUXLXJXPXPXIXIXIXHXJXPXmX>X$X X XE.E..XdXMXMXzXxXjXlXaXL.K.i.0.0.$.$.z @         @ +       X 0 V [ B -       X 1 V <.l.v.H.~.oX;X6XlXjX=X`././.OXOX'.n.J m J F o                                                                                       ",
"                                                                                              1 S M A C C N J 1./.].~.1.X.^ D D S S S S D ^ ^ [ [ N 3 #           .   O $ .         6 eXNXhXvXm.,   * X     @ B.2.l l E :.y.u.y.$.&.y.0.0.q.0.t.d.Y.,X@X@X%X%X%X%X5X7X7XMXPXLXLXPXIXIXIXPXNXnX>X|. X XE. X X.X>XdXNXdX3XlX2XnX[.K.d.0.&.$.E E , +     . @ X         X a S e .     X 3 V ^ ^ { ,.x.~.`.*X5X6X6X2X:X3XhXvXuXn.F s m J c X                                                                                         ",
"                                                                                                1 S M M C N m m J #.^./.~.k.o.^ S S D S S S S S S [ @.o.B 4 +         . 2 $ . .       < qXnXzXbXI , = *   .   K 1.g l Y *.u.y.u.E $.0.y.t.9.*.q.s.L.>X@X%X%X5X6X6X5XxX7XcXJXKXLXPXPXPXKXnX.X XE.Y..X.X.X}..X.X$XlXjX$X6X3XdXrXd.d.t.*.$.) E f       X = .           $ 2 @     # 9 B [ ^ ^ [ O.j.F.`.&X*X*X;X2X6XzXvXtXM.J m s m J e                                                                                             ",
"                                                                                                  1 C s V V M N M N N J ..k.z.1. .^ D D D ^ ^  . .@.j.x.v.x.k.K 5     . 2 e .           > 9XhXNXuXk r 8 + . * a z.r l l ` G.2.2.) E &.i.K.&.&.0.t.d.>X@X5XjXMXFXJXDXMXxXcXFXLXLXPXPXLXsX|.Y.Y.Y.Y..X.XXX|.E.Y.E.,X$X.X3X>XsXL.a.t.e.$.) T T ,     . = .             .   . 1 v [ { [ ^ D ^ [ { } <.z.~.&X3XlXzXyXA.+.' S N m S J <                                                                                               ",
"                                                                                                    : B C C m j M M M j p e F #.z.j.,.o.[ ^ ^  .@.j.j.x.H.H.~.~.K X .     $ O             # m.vXSX5.r r ,   + 8 1.k r l R 3.Q.` ` T $.&.K.e.$.&.0.p.sX6XcXFXHXJXJXLXLXFXBXBXHXLXPXZXXX[.Y.U.U.Y.|..XU.L.Y.Y.Y.E.$X X.X>X>X!.t.e.e.*.) Y l l *   + = X                 X 1 ^ <.<.O.[ ^ D D D ^ { j./.-XdXhXtXM.' V V S N V  .K 4 +                                                                                               ",
"                                                                                                      - B D C j u u s j s y 3 9 J #.k.z.j.<.@.@.@.j.x.c.H.H.c.c.v   .                       X P bXwXh 8 7 +   r X._ , r g >.~.] ) T W W r.p.$.$.9.t..XNXHXDXDXFXFXFXHXHXHXFXNXJXmX.XU.U.U.I.I.U.L.L.d.K.L.Y.Y.Y..XR.$X#X&Xu.0.e.e.*.R l z f , @ * X                   $ ' z.x.x.j.@.} [ { [ { <.v.].].V...S V V V N M S ( J % . .                                                                                               ",
"                                                                                                        # B ^ M j y y u y j m a 0 v B  .k.k.<.@.@.j.x.c.H.H.v.x. .+                       X .   L iXH ; @ X   u / o., * f ! F.>.l T E T $.e.&.$.&.0.P.>XnXDXDXDXDXDXFXDXDXJXFXnX|.I.U.I.g.d.g.d.d.d.s.d.K.Y.Y.Y.|.T.{.+XQ.&.*.*.:.*.Y l l r , @ X         . .         . S x.x.<.@.O.} { { o.k.^.Z.4.a m C S V V N N ^ D N b .                                                                                                   ",
"                                                                                                          # S S j 8 ; = $ 3 s M V M V m b b.Z./.B.k.x.v.c.c.v.@.[ e                         +     L m.3 X     8 ( S t @ 7 z 3.1.l l T Y T $.*.$.&.0.L.|..XnXDXDXDXDXDXDXDXHXHXnXY.g.g.d.s.s.s.s.s.a.t.t.d.Y.L.P.T.{.{.(.) $.$.%.*.*.R l f r ,     + .   < 1 .       X   v x.z.<.@.o.@.v.B.'.N.G 4 2 m C Z Z A V N C V J b %                                                                                                     ",
"                                                                                                            - D s 2 .       $ 0 u M V C 3 % d n.uXfXtX/.k. .S N m 9 +                               L 5.@   + = _ M 9 * ; g _ 1.g l Y l T T $.*.&.&.f.[.Y.$XMXDXDXDXDXVXDXDXzXdX[.d.s.q.q.q.t.q.t.q.0.0.p.L.K.K.T.{.{.>.Y Q ) $.%.*.R l f N +   = ; @ 4 5 X .     + =   - v S @.v././.Z.I 5 $ = 3 p y s M M M M M M  .c X                                                                                                       ",
"                                                                                                              : C p , .       X @ ; s V V 3 $ , e P m.A.A.b.e = @ X .                                 d 4   . + A D 9 , 7 f x @.9 r l l l T E $.&.&.u.P.K.Y.>XcXDXFXDXVXNXdX<XdX[.i.i.0.9.0.0.0.0.&.*.&.y.p.i.p.P.{.J.R Y Y R ) ) -.R g ] 0 . ; = $ , =   + , . + , .       - #./.4.6 o + + 1 y 1 + ; 0 u s m M C  .4                                                                                                           ",
"                                                                                                                1 D p ,           . 1 s M m m 2 2 1   o < n 5...v 5 % .             .                 . 1 .   + M ~ u , ; , k C 1 8 l l Y E E E *.W :.G.K.K.Y.,XMXDXVXzX>X$X,XdX[.p.0.&.&.&.&.&.&.$.&.$.y.y.0.*.u.{.3.l l l z R ) -.Y / / h 8 ; ; 0 8 8 : 8 r 8 8 ,       $ v c &       + w s : @ , , 9 9 0 s D J %                                                                                                             ",
"                                                                                                                  q D u ;           ; y j u 2 e @ .           % 5 a v q - .       # L d #               @ O   X k x j = + * 8 w : 8 f Y ) ) ) Y $.$.=.S.p.p.d.T.kXVXzX.X|.|.*X,X*X].&.&.&.$.$.W E E E $.y.*.*.$.D.).` l f f l z ` ` x Z f k r 8 7 7 r r r y u u F H P #   X .         X : 2 ; = 8 8 : : ; 9 C S @                                                                                                               ",
"                                                                                                                  . m ~ 1         X , y M Z M 1 .                   . % 1 1 +       < 9XA.5.P 6 > o       $ + + u Z 8 . X ; @ 0 @ 9 g l Y Q ) Y T ) ` S.y.i.t.p..XpX.XP.|.T.}.+X{.'.$.$.$.W E E E T Y $.*.$.$.] {.D.l g f f f z ! x r r r r r u a d H K 4.V.A.wXiXbXI .               X . $ = : , 1 9 : 1 N S +                                                                                                                 ",
"                                                                                                                    @ D C $       X 0 u k M V m .                         @ $         > 9X].-XpXtXqXm.L < $ @   0 A 8 . + * + : + = N Z g l R z l T Q S.e.e.*.e.G.L.L.L.P.P.}.}.P.^.E E E E T Y Y Y l ) %.) R o.{.] f f f r r g g r , 2 6.V.A.wXtXOXOX].&XmXvXnXbXm.%               X : s 3 X 2 9 y y 0 M D $                                                                                                                   ",
"                                                                                                                      - D m $   . , w j M M M Z ;                         X .         . j C.aXdX;X;X3XaXyXA.5.n e j j X + @ + @ + . s 8.g f f f f l z S.:.:.$.*.y.y.u.u.u.G.}.{.G.Q.Y Y R Y z z z l l ) ) R l k.F.f 7 r r , , f r , @ ..].`.`./.F.v.F.`.pXnXmXiXI 2               $ e D N X @ 0 y y u C X.-                                                                                                                     ",
"                                                                                                                        1 J a : , 8 0 i M j M V w .                         X           2 C m.bXnXdX;X=X:X-X=X-XwXb 8 @ . @   . + . 3 M.t , 7 7 r f f 3.%.*.) %.:.*.:.r.r.u.}._.G.N.l z Y l g f f f f Q z z 8 x.K * ; r , + + , ; + v D.l.v.l.l.l./.pXMXBXZX0XF s $         X   X : 3 ~ 2 $ 0 u y u D ^ :                                                                                                                       ",
"                                                                                                                          q D j y 0 0 u m j k m = .                                     + j M 4.eXSXNXnXaXOX(.F.~.4.@     + X . .   ; 4.q   X . ; r 8 1.%.%.) ` %.%.) %.:.:._.).G.1.g g g f f f f f f z g r 1 B.4   X , X     @ X 4 v.D.D.F.D.H.&XkXBXmXwX4.p a 1         X 1 @ + + m M i s j y 9 N p X                                                                                                                         ",
"                                                                                                . - - @ .                 . v ( Z u 0 9 0 j j j X                                         , u M J m.bXnX].z.l.<.1.k.e       . .     $ K >       + , : @.-.%.Q ) -.%.! ) %.-.`._.J.1.f f f 7 , 7 7 7 8 7 f ; b #..     *         @ #.F.D.F.F.D.H.+X3XyX6.N 8 y a .           + .   - V M s s w q 3 $                                                                                                                             ",
"                                                                                                  . : q e 2 ; $ + .         X q C m = . . 1 j s X                                         . y j A Z ..A.tX#.{ } } o.J .             . G 5       . = : +.` ` x x ` >.! x ! -./._.{.+.r r 7 X   + . + @ * ; X +.e       .       . B D.l.l.l.l.z.(.oXN.J u h M M $                   = M u a 9 q :                                                                                                                                 ",
"                                                                                                      . : e q = @ +             . @ .       , 9 .                                         . 1 j M A j N 6.^.@.^ ^ A ^ 4               4 N o       @ ; +.o.! k f ! _ _ Z x ` ^.{.}. .r = +             .   4 4..               ; m ,.,.<.<.l._.^.b 1 8 u M M 1                     ; j p : . .                                                                                                                                   ",
"                                                                                                          + q a q $                         . 1 +       # n L 6 < & # o . .               @ = 0 y u k w p K N. .A Z Z N               . e 4       + + B O.! y r h ~ ( / x ! ^.}.}...7 + X                 H 6               @ w s } O.,.j.v.+.% + = 8 y s 0 .                     : 2 X                                                                                                                                         ",
"                                                                                                              % e a 3 ; - X                   . X         & P qXuX'.A.Z.n.4.K b e % o     . = : , 8 w 0 , $ e 6.+.C k J <               ; 3           e o.k $ + 2 9 C ( ~ ! ^.`.}. .;           .       % n .               p j V [ O.,. .5 . + 1 3 1 , 9 +                                                                                                                                                                     ",
"                                                                                                                  $ q m m 3                                   % n 5.'.-X-XB.@.@.#.....b - @ + $ $ $ @ = @     % G 6.J M G .             . 1 .         : X.u .   X . 2 D ( ~ N.&X{.G         X . $       d <               1 C M C C S q . X 1 2 + $ 2 2 $                                                                                                                                                                       ",
"                                                                                                                      + 1 q : .             . @                   X d 4.'.OXB. .S [ [ B - 0 9 + @ .             . d M.6.+.e               = ; .       @ ' 0         = p M / +.OX*XH       X X $ +     % b               % m w p w 2 $ . = , $ .   = w -                                                                                                                                                                         ",
"                                                                                                                          . $ $ +         $ w 9 - @                 . % 5 H 6...S [ [ S $ $ p =                     > 5.'.M.o             O w .       . N 0 .       . , = V +.].dXn           $       o $             X v s s a - .   . $       @ 0 9 .                                       @ 1 4 4 4 < < < - - % X . . .                                                                                                     ",
"                                                                                                                                      @ : = ; 2 1 2 :                   .   + + : e m N $   ; ;                       . n N.G               1 @       . a 9 .         @   = C ^.OX<           X         .             b  . .F %               . @ 9 @                             X - 5 q 4 1 w N  .+.+.K K K H H b < e 5 5 -                                                                                                   ",
"                                                                                                                                        X = - - 2 : $ .                             . $ @   + O                           < 4.<             + 4 .     + w 1 .               ;  .#.o             O .                 4 #. .5 .                   + $                           % 4 5 e 4 @ . . . $ e H n 5 < % # . . + # X .                                                                                                     ",
"                                                                                                                                              . @ $ $                             .     O O         . .                     # d X             e -       3 2                   G K         .   . ; - .   .         X e e o                       .                             X .                             . X + .                                                                                                           ",
"                                                                                                                                                                                    .     . X .       @ #                     . .             - 5       5 G -                 b b       . $ . . @ X               - -                                                                                     X + X                                                                                                                 ",
"                                                                                                                                                                                                X $     % $                                   % b .     # ..s .               e 5       X @     . .                                                                                                 X O X .                                                                                                                     ",
"                                                                                                                                                                                                  O @ X   . X                                 e G #       H J X               d 5       .       e 5                                 +                                                               .                                                                                                                           ",
"                                                                                                                                                                                                      O @ .                                 . < F +       e J X         +     K 4             . b %                             o e 4                                                                                                                                                                                           ",
"                                                                                                                                                                                                          @ X                               . . e X       % m .         .   . G %             . :                             % e -                                                                                                                                                                                             ",
"                                                                                                                                                                                                            .                                   X         . ;               X a X               .                           # % .                                                                                                                                                                                               ",
"                                                                                                                                                                                                                              .                             X             O X 3                                                                                                                                                                                                                                                 ",
"                                                                                                                                                                                                                          .                                               O X -     .                                         X X                                                                                                                                                                                               ",
"                                                                                                                                                                                                                                                                        . 5 X +                                             O - $                                                                                                                                                                                               ",
"                                                                                                                                                                                                                                                                        + b .                   .             # > .     . + # # o .                                                                                                                                                                                             ",
"                                                                                                                                                                                        . %             < d <                                                           + b                                 X b H % . @ % e G K H -                                                           .                                                                                                                                 ",
"                                                                                                                                    O                                                     .             # #                                 o X % o                     # G                                                   . .                                                           . $                                                                                                                                 ",
"                                                                                                                                  . O                                                                                                       + . X .                     # H .                                                                                                                                                                                                                                                   ",
"                                                                                                                                                                                                                                                                        X e                                                                                                                                                                                                                                                     ",
"                                                                                                                                                                                                                                                          $ ;           . 4                                                                                                                                                                                                                                                     ",
"                                                                                                                                                                                                                                                          + O             1                                                                                                                                                                                                                                                     ",
"                                                                                                                                                                                                                                                                          :                                                                                                                                                                                                                                                     ",
"                                                                                                                                                                                                                                                                          -                                                                                       . + $ @                                                                                                                                                       ",
"                                                                                                                                                                                                                                                                        . -                                                                                         . @ @                                                                                                                                                       ",
"                                                                                                                                                                                                                                                                          @                                                                                                                                                                                                                                                     ",
"                                                                                                                                                                                                                                                                                                                                                                                                                                                                                                                                ",
"                                                                                                                                                                                                                                                                                                                                                                                                                                                                                                                                ",
"                                                                                                                                                                                                                                                                                                                                                                                                                                                                                                                                ",
"                                                                                                                                                                                                                                                                                                                                                                                                                                                                                                                                ",
"                                                                                                                                                                                                                                                                                                                                                                                                                                                                                                                                ",
"                                                                                                                                                                                                                                                                                                                                                                                                                                                                                                                                ",
"                                                                                                                                                                                                                                                                                                                                                                                                                                                                                                                                ",
"                                                                                                                                                                                                                                                                                                                                                                                                                                                                                                                                ",
"                                                                                                                                                                                                                                                                                                                                                                                                                                                                                                                                ",
"                                                                                                                                                                                                                                                                                                                                                                                                                                                                                                                                ",
"                                                                                                                                                                                                                                                                                                                                                                                                                                                                                                                                ",
"                                                                                                                                                                                                                                                                                                                                                                                                                                                                                                                                ",
"                                                                                                                                                                                                                                                                                                                                                                                                                                                                                                                                ",
"                                                                                                                                                                                                                                                                                                                                                                                                                                                                                                                                ",
"                                                                                                                                                                                                                                                                                                                                                                                                                                                                                                                                ",
"                                                                                                                                                                                                                                                                                                                                                                                                                                                                                                                                ",
"                                                                                                                                                                                                                                                                                                                                                                                                                                                                                                                                ",
"                                                                                                                                                                                                                                                                                                                                                                                                                                                                                                                                ",
"                                                                                                                                                                                                                                                                                                                                                                                                                                                                                                                                ",
"                                                                                                                                                                                                                                                                                                                                                                                                                                                                                                                                ",
"                                                                                                                                                                                                                                                                                                                                                                                                                                                                                                                                ",
"                                                                                                                                                                                                                                                                                                                                                                                                                                                                                                                                ",
"                                                                                                                                                                                                                                                                                                                                                                                                                                                                                                                                ",
"                                                                                                                                                                                                                                                                                                                                                                                                                                                                                                                                ",
"                                                                                                                                                                                                                                                                                                                                                                                                                                                                                                                                ",
"                                                                                                                                                                                                                                                                                                                                                                                                                                                                                                                                ",
"                                                                                                                                                                                                                                                                                                                                                                                                                                                                                                                                ",
"                                                                                                                                                                                                                                                                                                                                                                                                                                                                                                                                ",
"                                                                                                                                                                                                                                                                                                                                                                                                                                                                                                                                ",
"                                                                                                                                                                                                                                                                                                                                                                                                                                                                                                                                ",
"                                                                                                                                                                                                                                                                                                                                                                                                                                                                                                                                ",
"                                                                                                                                                                                                                                                                                                                                                                                                                                                                                                                                ",
"                                                                                                                                                                                                                                                                                                                                                                                                                                                                                                                                ",
"                                                                                                                                                                                                                                                                                                                                                                                                                                                                                                                                ",
"                                                                                                                                                                                                                                                                                                                                                                                                                                                                                                                                ",
"                                                                                                                                                                                                                                                                                                                                                                                                                                                                                                                                ",
"                                                                                                                                                                                                                                                                                                                                                                                                                                                                                                                                ",
"                                                                                                                                                                                                                                                                                                                                                                                                                                                                                                                                ",
"                                                                                                                                                                                                                                                                                                                                                                                                                                                                                                                                ",
"                                                                                                                                                                                                                                                                                                                                                                                                                                                                                                                                ",
"                                                                                                                                                                                                                                                                                                                                                                                                                                                                                                                                ",
"                                                                                                                                                                                                                                                                                                                                                                                                                                                                                                                                ",
"                                                                                                                                                                                                                                                                                                                                                                                                                                                                                                                                ",
"                                                                                                                                                                                                                                                                                                                                                                                                                                                                                                                                ",
"                                                                                                                                                                                                                                                                                                                                                                                                                                                                                                  6 6                           ",
"                                                                                                                                                                                                                                                                                                                                                                                                                                                                                                . L L                           ",
"                                                                                                                                                                                                                                                                                                                                                                                                                                                                                                6 U U 6                         ",
"                                                                                                                                                                                                                                                                                                                                                                                                                                                                                              & U 8X8XU &                       ",
"                                                                                                                                                                                                                                                                                                                                                                                                                                                                                          . 6 U 8X8X8X8XU 6 .                   ",
"                                                                                                                                                                                                                                                                                                                                                                                                                                                                                        6 L U 8X8X8X8X8X8XU L 6                 ",
"                                                                                                                                                                                                                                                                                                                                                                                                                                                                                        6 L U 8X8X8X8X8X8XU L 6                 ",
"                                                                                                                                                                                                                                                                                                                                                                                                                                                                                          . 6 U 8X8X8X8XU 6                     ",
"                                                                                                                                                                                                                                                                                                                                                                                                                                                                                              & U 8X8XU &                       ",
"                                                                                                                                                                                                                                                                                                                                                                                                                                                                                                6 U U 6                         ",
"                                                                                                                                                                                                                                                                                                                                                                                                                                                                                                . L L .                         ",
"                                                                                                                                                                                                                                                                                                                                                                                                                                                                                                  6 6                           ",
"                                                                                                                                                                                                                                                                                                                                                                                                                                                                                                                                ",
"                                                                                                                                                                                                                                                                                                                                                                                                                                                                                                                                ",
"                                                                                                                                                                                                                                                                                                                                                                                                                                                                                                                                ",
"                                                                                                                                                                                                                                                                                                                                                                                                                                                                                                                                ",
"                                                                                                                                                                                                                                                                                                                                                                                                                                                                                                                                ",
"                                                                                                                                                                                                                                                                                                                                                                                                                                                                                                                                ",
"                                                                                                                                                                                                                                                                                                                                                                                                                                                                                                                                ",
"                                                                                                                                                                                                                                                                                                                                                                                                                                                                                                                                "
};
