/* XPM */
static const char *ice2[] = {
/* columns rows colors chars-per-pixel */
"256 256 256 2 ",
"   c #000000",
".  c #03050B",
"X  c #080A0D",
"o  c #040612",
"O  c #040A14",
"+  c #050B1B",
"@  c #0A0B18",
"#  c #110D1B",
"$  c #0B1219",
"%  c #15171A",
"&  c #080D24",
"*  c #091427",
"=  c #0A142C",
"-  c #151A26",
";  c #110E32",
":  c #0B1837",
">  c #141739",
",  c #241B39",
"<  c #19232A",
"1  c #0F2438",
"2  c #172638",
"3  c #27282A",
"4  c #293038",
"5  c #0B1B45",
"6  c #161949",
"7  c #0D1B55",
"8  c #181A58",
"9  c #251B52",
"0  c #0D2348",
"q  c #162748",
"w  c #1B3449",
"e  c #0C2658",
"r  c #152658",
"t  c #1A3659",
"y  c #2C314E",
"u  c #263857",
"i  c #1A1B64",
"p  c #261C6F",
"a  c #0C2966",
"s  c #162967",
"d  c #18366A",
"f  c #172C76",
"g  c #0D3273",
"h  c #173778",
"j  c #252669",
"k  c #2D316D",
"l  c #262777",
"z  c #253578",
"x  c #48366E",
"c  c #314655",
"v  c #1B4466",
"b  c #1C427A",
"n  c #304D6E",
"m  c #274778",
"M  c #386679",
"N  c #4A4E55",
"B  c #4E536F",
"V  c #69577A",
"C  c #506776",
"Z  c #6D7075",
"A  c #331D85",
"S  c #173B85",
"D  c #17378E",
"F  c #382689",
"G  c #322E8F",
"H  c #273886",
"J  c #2A3A98",
"K  c #2E3BA6",
"L  c #3738A6",
"P  c #453298",
"I  c #4638A8",
"U  c #5134AD",
"Y  c #633AB8",
"T  c #194489",
"R  c #194996",
"E  c #1C5298",
"W  c #254788",
"Q  c #2A5688",
"!  c #36508E",
"~  c #274A96",
"^  c #265599",
"/  c #1C649D",
"(  c #366792",
")  c #1A56A8",
"_  c #1A53AD",
"`  c #2A46A8",
"'  c #3548A7",
"]  c #2658A6",
"[  c #3658A9",
"{  c #274BB3",
"}  c #374AB4",
"|  c #2957B8",
" . c #3657B8",
".. c #1D62AB",
"X. c #1C64B8",
"o. c #2863AA",
"O. c #3771AE",
"+. c #2869B6",
"@. c #3667B9",
"#. c #2B73BB",
"$. c #4C518F",
"%. c #675594",
"&. c #4C6F92",
"*. c #6D7290",
"=. c #4945B6",
"-. c #4F4FB1",
";. c #6B4FB3",
":. c #4B71B0",
">. c #706EB0",
",. c #663BC2",
"<. c #305AC2",
"1. c #1E6CC5",
"2. c #2868C6",
"3. c #3768C5",
"4. c #2977C7",
"5. c #3878C8",
"6. c #3178D3",
"7. c #3E7CE1",
"8. c #5056C8",
"9. c #6E4FCA",
"0. c #4767C8",
"q. c #4676CA",
"w. c #546ED0",
"e. c #4879D4",
"r. c #5776D7",
"t. c #6868D7",
"y. c #6F70D4",
"u. c #5B7CE3",
"i. c #7275E3",
"p. c #8673AD",
"a. c #8455D2",
"s. c #9B6DD9",
"d. c #8C70D6",
"f. c #9075E6",
"g. c #AB74EB",
"h. c #C97BF2",
"j. c #3A82B6",
"k. c #738794",
"l. c #508AB3",
"z. c #6395AA",
"x. c #6F8FB0",
"c. c #2E86CE",
"v. c #3885CC",
"b. c #2C86D7",
"n. c #3889D5",
"m. c #3A95D9",
"M. c #3EA3DC",
"N. c #2F8FE2",
"B. c #3999E5",
"V. c #3BA6E7",
"C. c #3CAFEE",
"Z. c #4789CA",
"A. c #5393C8",
"S. c #4689D7",
"D. c #5688D8",
"F. c #4796DA",
"G. c #5797DB",
"H. c #6B90D4",
"J. c #4FA6DA",
"K. c #70ACD4",
"L. c #5289E3",
"P. c #489AE3",
"I. c #569AE5",
"U. c #6E8EE7",
"Y. c #7599E8",
"T. c #47A7E6",
"R. c #57A7E8",
"E. c #49B5EB",
"W. c #58B7EB",
"Q. c #49B8F3",
"!. c #59B9F2",
"~. c #66A7E9",
"^. c #79A8EA",
"/. c #66B7EC",
"(. c #78B6EA",
"). c #73A8F1",
"_. c #67B9F2",
"`. c #76B9F2",
"'. c #4BC7F2",
"]. c #59C8F5",
"[. c #5AD8F8",
"{. c #73C7EC",
"}. c #63D4EA",
"|. c #69C7F5",
" X c #76C9F5",
".X c #66D7F8",
"XX c #78D5F7",
"oX c #68E6FB",
"OX c #77E6FA",
"+X c #77F4FC",
"@X c #818181",
"#X c #8A919B",
"$X c #8D91AF",
"%X c #91A8B7",
"&X c #A6A8BB",
"*X c #9290D0",
"=X c #A891D4",
"-X c #8FB1D1",
";X c #AFB4D0",
":X c #8788E9",
">X c #9686EB",
",X c #8F97EC",
"<X c #999AF2",
"1X c #B091EF",
"2X c #A79AF3",
"3X c #8CB4EC",
"4X c #86A6F3",
"5X c #96A7F4",
"6X c #99B6F6",
"7X c #A9A5F5",
"8X c #B6A9F6",
"9X c #AAB3F0",
"0X c #BBB4F7",
"qX c #DD9EED",
"wX c #CE8DF1",
"eX c #D0AFF1",
"rX c #C7B8F7",
"tX c #EDB1F7",
"yX c #92C7D6",
"uX c #B3C8D7",
"iX c #90CBEB",
"pX c #88C7F4",
"aX c #96C8F5",
"sX c #87D9F8",
"dX c #97D8F7",
"fX c #B0CFF0",
"gX c #A6D8F6",
"hX c #88E6FA",
"jX c #98E6F9",
"kX c #88F5FB",
"lX c #97F6FB",
"zX c #AEE3EB",
"xX c #A7E9F9",
"cX c #B7E8F9",
"vX c #AAF4FB",
"bX c #B4F4FB",
"nX c #BBF5FB",
"mX c #BAF9FC",
"MX c #C5CBD5",
"NX c #D7C8F6",
"BX c #CFD0F1",
"VX c #EED3F9",
"CX c #C7E8F8",
"ZX c #D3E7F2",
"AX c #C7F7FB",
"SX c #D4F8FB",
"DX c #DCFBFC",
"FX c #E3E6EC",
"GX c #E8E7F9",
"HX c #F5E9FB",
"JX c #E8F4FA",
"KX c #E4FBFC",
"LX c #EBFBFC",
"PX c #F8F4FB",
"IX c #F4FCFD",
"UX c #FBFCFC",
/* pixels */
"                                                                                                                                                                                                                                                                                                                                                                                                                                                                                                                                ",
"                                                                                                                                                                                                                                                                                                                                                                                                                                                                                                                                ",
"                                                                                                                                                                                                                                                                                                                                                                                                                                                                                                                                ",
"                                                                                                                                                                                                                                                                                                                                                                                                                                                                                                                                ",
"                                                                                                                                                                                                                                                                                                                                                                                                                                                                                                                                ",
"                                                                                                                                                                                                                                                                                                                                                                                                                                                                                                                                ",
"                                                                                                                                                                                                                                                                                                                                                                                                                                                                                                                                ",
"                                                                                                                                                                                                                                                                                                                                                                                                                                                                                                                                ",
"                                                                                                                                                                                                                                                                                                                                                                                                                                                                                                                                ",
"                                                                                                                                                                                                                                                                                                                                                                                                                                                                                                                                ",
"                                                                                                                                                                                                                                                                                                                                                                                                                                                                                                                                ",
"                                                                                                                                                                                                                                                                                                                                                                                                                                                                                                                                ",
"                                                                                                                                                                                                                                                                                                                                                                                                                                                                                                                                ",
"                                                                                                                                                                                                                                                                                                                                                                                                                                                                                                                                ",
"                                                                                                                                                                                                                                                                                                                                                                                                                                                                                                                                ",
"                                                                                                                                                                                                                                                                                                                                                                                                                                                                                                                                ",
"                                                                                                                                                                                                                                                                                                                                                                                                                                                                                                                                ",
"                                                                                                                                                                                                                                                                                                                                                                                                                                                                                                                                ",
"                                                                                                                                                                                                                                                                                                                                                                                                                                                                                                                                ",
"                                                                                                                                                                                                                                                                                                                                                                                                                                                                                                                                ",
"                                                                                                                                                                                                                                                                                                                                                                                                                                                                                                                                ",
"                                                                                                                                                                                                                                                                                                                                                                                                                                                                                                                                ",
"                                                                                                                                                                                                                                                                                                                                                                                                                                                                                                                                ",
"                                                                                                                                                                                                                                                                                                                                                                                                                                                                                                                                ",
"                                                                                                                                                                                                                                                                                                                                                                                                                                                                                                                                ",
"                                                                                                                                                                                                                                                                                                                                                                                                                                                                                                                                ",
"                                                                                                                                                                                                                                                                                                                                                                                                                                                                                                                                ",
"                                                                                                                                                                                                                                                                                                                                                                                                                                                                                                                                ",
"                                                                                                                                                                                                                                                X X                                                                                                                                                                                                                                                                             ",
"                                                                                                                                                                                                                                                4 N                                                                                                                                                                                                                                                                             ",
"                                                                                                                                                                                                                                                y %X%                                                                                                                                                                                                                                                                           ",
"                                                                                                                                                                                                                                              . n ;XZ                                                                                                                                                                                                                                                                           ",
"                                                                                                                                                                                                                                              < ! x.ZX4                                                                                                                                                                                                                                                                         ",
"                                                  o                                                                                                                                                                                           c Q *.DX&X%                                                                                                                                                                                                                                                                       ",
"                                                  # >                                                                                                                                                                                       X M b $.CXcXZ                                                                                                                                                                                                                                                                       ",
"                                                    9 9                                                                                                                                                                                     2 m h W uXbXzXc                                                                                                                                                                                                                                                                     ",
"                                                    @ P 9                                                                                                                                                                                   n d d W -XAXvX%X%                                                                                                                                                                                                                                                                   ",
"                                                      > =.9                                                                                                                                                                               - ( s d ~ x.SXvXvXk.                                                                                                                                                                                                                                                                  ",
"                                                        j 8.j .                                                                                                                                                                           c Q s h ^ l.JXbXvXzXN                                                                                                                                                                                                                                                                 ",
"                                                        . P t.j o                                                                                                                                                                       X Q b d h ] :.ZXAXvXbXuX%                                                                                                                                                                                                                                                               ",
"                                                          & -.t.F =                                                                                                                                                                     2 Q h h m ] :.CXSXbXbXAXk.                                                                                                                                                                                                                                                              ",
"                                                            6 y.y.I 9 .                                                                                                                                                               . n b h h W ] q.fXDXAXvXbXZXc                                                                                                                                                                                                                                                             ",
"                                                            . l :Xi.I F =                                                                                                                                                             - ^ h T b W ] #.iXSXAXbXvXAX&X%                                                                                                                                                                                                                                                           ",
"                                                              & =.<Xy.=.I 9 X                                                                                                                                                         u ~ h T T W ] #.(.CXnXbXvXbXAXk..                                                                                                                                                                                                                                                         ",
"                                                                6 -.7Xy.I =.$.> .                                                                                                                                                   X Q W b W W W ^ @.R.CXbXmXbXbXbXzXc                                                                                                                                                                                                                                                         ",
"                                                                o l t.7Xt.I =.-.B %                                                                                                                                                 w ~ T W W T W ^ o.S.CXAXAXbXbXvXbXyX%                                                                                                                                                                                                                                                       ",
"                                                                  ; G y.<Xt.=.=.8.>.y X                                                                                                                                           X Q W T ~ W W W ^ ] 5.fXDXmXbXvXvXvXmXk..                                                                                                                                                                                                                                                     ",
"                                                                    r L y.5Xi.8.=.8.y.%.3                                                                                                                                         w o.h T ^ ~ ~ W ^ ] +.iXKXmXAXvXxXxXvXzXc                                                                                                                                                                                                                                                     ",
"                                                                    $ J =.H.5XU.y.8.8.t.y.B %                                                                                                                                   X ( ] h W ] ^ ^ ~ ~ ] o.(.LXAXAXbXjXsXjXxXK.%                                                                                                                                                                                                                                                   ",
"                                                                      r } =.H.,XU.U.t.w.w.i.>.y X                                                                                                                               y l.~ h ~ ] ] ] ^ ~ ^ o.G.JXDXAXAXdX XsXhXdX&..                                                                                                                                                                                                                                                 ",
"                                                                      . H } =.U.,XU.U.U.i.y.i.H.*.3                                                                                                                           X z.Z.~ T ] o.o.+.] ~ ^ o.Z.ZXLXAXAXdX_.{.sXXXiXc                                                                                                                                                                                                                                                 ",
"                                                                        > } } -.y.U.u.U.U.,X,XY.Y.H.C %                                                                                                                       4 {.v.^ ~ o.+.+.#.+.^ ^ o.v.fXUXSXAXjX/./. X X X-X-                                                                                                                                                                                                                                               ",
"                                                                          k } } ' r.r.w.r.U.4X6X3X4X4X*XB X                                                                                                   @ %             B {.F.] ^ +.#.#.4.#.o.] +.+.x.KXDXnXxX_.~./. X`.aXk..                                                                                                                                                                                                                                             ",
"                                                                          & ' =.} ! r.w.0.r.H.Y.3X6X3XY.4Xx.y .                                                           X X                                 X c @           - K.W.+.] #.4.5.v.v.#.+.5.^ ( dXAXmXxX_./.~.`.`.`.iXc                                                                                                                                                                                                                                             ",
"                                                                            r =.-.H k H.H.w.r.D.H.Y.6X6X4X^.Y.&.-                                                         X y X                                 y Z .           C |.@.o.4.5.v.v.v.5.4.v.h d K.dXbXbXXX_././. X`.pX-X%                                                                                                                                                                                                                                           ",
"                                                                            @ ' -.-.r m 3XH.e.r.D.D.H.^.aX3XY.H.:.n %                                                       4 Z X                               X $XB           < K.v.+.5.v.v.n.n.v.v.#.: e l./.iXbXjX`././.`.`.`.dXk..                                                                                                                                                                                                                                         ",
"                                                                              q 8.8.' ; ! 3XH.e.D.D.G.G.U.3XaX3XH.w.:.c $                                                     Z #X%                               B 3Xc         . ( F.@.5.v.v.n.F.m.m.Q . * n J.l.dXnXpX`./.`. X).3XgXN                                                                                                                                                                                                                                         ",
"                                                                              . ! 0.0.r & &.iXG.e.q.D.G.I.I.~.iX3XY.D.q.:.c X                                                 % ;Xx.<                             < K.K.y         w S.@.5.v.v.n.F.F.F.t   O < A.O.A.nXdX X`./.`.(.).aX-X<                                                                                                                                                                                                                                       ",
"                                                                                > -.0.' O O &.pXG.e.q.q.D.G.I.~.^.3X~.D.D.~.z.c X                                               B aX%X4                             &.^.:.<       $ :.5.5.v.v.n.F.F.v.*   . + l.O.W 3XcXpX X`._.`.~.3XdXk..                                                                                                                                                                                                                                     ",
"                                                                                . z 0.0.q . + &.pXG.q.5.q.Z.D.G.I.~.(.~.D.~.sXiXz.4 .                                           $ %X^.-XN                           4 K.D.( $       Q S.3.5.5.v.F.F.Q     O * Q l.h l.cXgX X X_.`.~.(.pXaXN                                                                                                                                                                                                                                     ",
"                                                                                  *  .0.~ .   @ l.pXG.q.5.q.Z.S.G.G.G.~.R.I.{.jXxXzXk.3                                           N 3X^.iXB .                       . &.D.[ W .     w Z.3.5.5.5.n.F.w     . : d l.W ( pXxXpXpX`.`.`.(.pXaX-X3                                                                                                                                                                                                                                   ",
"                                                                                    d 0.0.:     $ z.pXG.q.5.q.Z.S.S.S.F.I.R.R. XxXbXmXzXk.3                                       % %X^.3XiXZ X                       u q.[ ' t     $ O.5.3.5.@.@.v.1       : q l.Q z ~.pXaXpXpX`.`.`.pXaXaX#XX                                                             .                                                                                                                                                                   ",
"                                                                                    @ [ e.z       - x.dXG.5.5.5.Z.S.S.S.S.F.R./.sXxXmXAXSXMXZ -   .                                 B ^.H.aX3X*.$                     $ :.' ~ ~ =   . Q q.@.3.@.W O.$       * 1 :.( s :.~.^.sXpXpX`.`.pXaXaXaXB                                                           3 y                                                                                                                                                                   ",
"                                                                                      q 0.@.@     . 2 K.sXG.5.5.5.Z.S.S.S.S.F.R./.sXxXmXAXSXDXuXZ q * o                             @ x.q.H.aX3Xk.%                     n [ J J d .   w q.@.3.[ : d X       . > n :.h W ~.A.3XdXpX`.`.pXpXgXpXuX4                                                       . @XN                                                                                                                                                                   ",
"                                                                                      X ! e.q       . w K.pXS.5.5.5.v.Z.Z.S.F.F.R.{.sXxXnXSXSXDXKXuX*.t : * .                         c H. .H.gX3Xx.3                   2 [ J H H =   $ [ @.@.[ O +           & q :.d d Z.I.:.aXdXaX3XpXpXgXgXgX%XX                                                     N FXN                                                                                                                                                                   ",
"                                                                                        2 e.^ .       o t (. XF.5.n.5.5.Z.Z.S.F.F.R.{.dXjXbXSXDXDXLXLXuX*.d 0 : o                     X l.0.[ K.gX3Xx.4                 X ! ~ H H s .   m 3.3.W .             . = O.t s [ ~.@.l.gXgXdXpX3XaXgXaXfXZ                                                 . 4 MXPXB                                                                                                                                                                   ",
"                                                                                        . Q q.=   .       u (.XXF.n.n.v.5.Z.S.S.F.P.R.{.sXjXxXAXDXKXLXIXLXuX&.d 0 = .                   u e. .[ -XfX3Xx.c                 u ' H z H =   2 :.@.q                 . ~ d d W ~.D.~ H.cXcXaXaXaXgXgXdXfXN                                             @ 9 $XUXHX*.                                                                                                                                                                  ",
"                                                                                          - q.v   o .     . v {.sXR.S.S.v.5.v.S.F.R.R.R._.sXjXjXAXDXKXLXIXIXJX;X&.d q 1 o               X :.0.' ! -XfX4XH.N X             = ~ H f H s . O [ [ @                   d s u ! H.(.' ~ -XcXgXaXaXaXgXgXgXuX-                                         # 9 *.JXPXGX&X@                                                                                                                                                                 ",
"                                                                                            n O.X . o     . + m {.sXW.S.n.v.5.v.S.F.R.R.R._.sXjXjXnXSXKXLXLXIXUXJX%XM d q * .             u q. .z W H.aX3XH.C X             r ~ H f z =   m [ .                   r s q :.D.pX:.H ! -XcXgXaXaXgXcXgXCX#XX                                     @ 9 V FXPXPXFX;X,                                                                                                                                                                 ",
"                                                                                            $ :.w   O .     . : Q {.jX_.F.n.5.5.5.S.P.R._._.W.|.sXjXvXAXDXKXLXIXIXUXFX%Xn t 1 +           @ [ 3.~ s d &.6X3XH.$.%           O H J f 8 8   w !                 .   : g : &.Y.pXH.H H &.aXcXgXgXaXgXcXcXCXZ                                   o 9 x MXIXPXPXNXBXy o                                                                                                                                                               ",
"                                                                                              v ( . . @       @ r (  XjX{.F.v.5.5.5.S.P.R._.|._._.XXjXxXnXSXKXLXLXIXIXIXZX$Xn e : * .       t q.[ f r s $.-X3XH.&.-           r ~ H 6 6 + @ q                   . : S = w (.aX(.~ H H x.CXCXCXcXgXCXCXCXuX%                               . 6 k &XUXPXPXPXNXBXV #                                                                                                                                                               ",
"                                                                                              O &.1   & .       : s ( sXjX{.F.v.5.5.5.S.P.R._. X|.|.|.sXjXbXSXKXKXKXLXLXIXUXZXx.n t 1 O     @ [  .H s r s ! -X4XH.:.4         & H H f : =   X                   . & S * & x.gXpX:.f z H -XSXSXCXfXfXCXCXBXN                               > 9 p.PXPXPXPXGXNXNX*.;                                                                                                                                                               ",
"                                                                                                w ( . . O       . 0 s :.sXxX{.F.v.5.5.5.S.P.R._.XXXX|.|.XXjXbXAXSXDXKXKXLXLXIXIXBXk.n q =     d 3.~ f s s s ! K.4Xr.:.u .       q H f r .                   .     O S = . c gXdXD.f f z ! ;XSXSXCXfXfXCXCX#X                            & 9 %.FXUXHXPXPXGXNXNX$X6 .                                                                                                                                                             ",
"                                                                                                X ( 1   @ .       & r s O.sXxX{.F.n.5.4.5.S.P.R._. X X XXXXXhXvXAXAXSXKXKXKXKXKXIXIXMX*.t +   $ [ [ H d s s r m H.Y.w.-.B X     o l f s $                   . .   . h >   @ K.cX~.H f z H $.fXDXSXfX9X9XfXuX3                         o 9 x MXUXPXHXPXUXGXNXNX&X9 @                                                                                                                                                             ",
"                                                                                                  2 Q . . &       . 0 a s ( iXxX XT.n.5.5.5.S.P.R._.|.|. XXXsXhXxXnXnXAXKXKXKXKXDXDXKXKXuXB X   d @.~ z f s s r u $.H.:.-.C .     : z 6 6                           s r     n xXaX[ s f z H :.CXDXCX9X5X6XfXC                         > 9 $XPXPXHXHXPXUXVXNXNX;Xy ;                                                                                                                                                             ",
"                                                                                                  . Q q   & o       = a s s ( iXvXXXR.n.5.5.v.S.P.R._.|.|. XXXsXsXjXbXbXAXKXLXKXKXSXAXAXSXZX&Xy = H ' ~ H z d s r # n H.0.:.y     . s 5 8 O                         e b     $ K.xXA.f s l H H x.ZXCXfX<X<X6X&XX                   . ; 9 *.JXHXHXHXHXPXUXVXNXrXMXx >                                                                                                                                                             ",
"                                                                                                    2 ( o . =       . 0 s s s ( iXvXXXR.n.5.5.n.F.P.R.!.|.|. XXXsXhXjXbXxXcXSXDXKXDXAXbXxXxXcXZX#Xu f W ~ H d d s > O n D.w.>.X     & 8 > >                         : ^ X     C dX(.H s f z H H *XfXfX9X,X5XfXN                   # 9 %.FXGXVXVXHXPXPXPXNXNXeXNXV >                                                                                                                                                             ",
"                                                                                                      Q t   & = .     + s s s d ( dXbXXXW.F.v.v.n.P.T.R.!.|.|.XXsXhXjXxXcXiXxXAXSXSXSXAXvXdXpXdXSXBX*.z z H H d j j 6 > ! w.H.N       ; 6 6 .                       & O.*     < -XaX:.s s f H z W H.&.;X9X5X9Xk.                # 9 B FXVXNXVXVXHXPXPXHXNXrXeXNX%.6 .                                                                                                                                                           ",
"                                                                                                      - o.$ . 5 : .   . 7 s d h h O.dXbXsXW.F.S.n.P.P.T.W.!.|. XXXsXjXjXxXdX(.xXmXnXnXbXxXxXsX XpXcXJX;X$.s z z z z l r r ! -.&.X     . ; 8 &                       . :.q       &.dXH.s s s z z s ! r B 9X0X9X;X<             . 9 k ;XHXrXrXNXVXHXPXPXGXeXrXeXrXp.6 .                                                                                                                                                           ",
"                                                                                                        m m   = e :   . : s h h h h :.xXnXhXW.T.P.P.P.T.W.W.!.|.XXXXsXsXjXxX~.~.dXbXbXxXdXdXsX X`.pXgXKXZX$Xk s d z z z s q ! -.y     # y > 6                         &.c       y aXiXz 8 s l z r j j > q x.BXfXB           . > 9 $XGXNXrXrXNXVXGXPXPXVXeXeX8X8X$X, .                                                                                                                                                           ",
"                                                                                                        * ] 1 . 5 e = @ 5 a g h h h h A.bXAXsX_.W.T.T.T.W.!.!._.|.XXXXsXsXjX{.S.P.(.xXmXxXpXpX`.`.`.pXgXCXSXMX*.k f z z z r 6 ! W X   X %.k 6 o                       n M       O -XcX! s 8 s s 8 r z l 8 6 k.fX$XX         & 9 %.BXNX0XrXrXNXVXHXPXUXNXeX8X8X1X*X9 o                                                                                                                                                           ",
"                                                                                                          d ^ o @ e r e e r d h h S h ~ /.bXAXsX|.!.W.T.W.!._._.|. XXXXXXXhXsXI.n.P.~.gXAXxXpX`.`.`.`. XdXcXAXJXuX*.k f z z 6 q ! ;     y y.k o       .               w &..       C cXc 7 8 : s r 6 z G z 8 > *.9X4       # 6 B ;XNXrX8XrXrXNXVXHXPXPXeXeX8X8X1X=Xy o                                                                                                                                                           ",
"                                                                                                          * @.t + 7 a a r r s h S T T T o.|.bXnXsX X|.!.!.!.|.|.|.|. XXXXXsXsX/.P.L.P.G.iXAXcX3X~.I.~._.`.dXcXAXKXJX;X$.s j l > j j     X >.-.q                       - &.$ .     < fXC O s > 8 r 8 z H H l 6 O *.V   . ; 6 k =X0XNX0X8XrXrXNXVXHXPXHXeX8X2X2X1X1XB &                                                                                                                                                           ",
"                                                                                                            m @.1 5 a s s a a h T T R E T v.|.vXnXsXXX|.|.!.|.|.|.|.|. X XXXsX XR.P.L.L.G.3XcXcX(.e.S.I.).`.aXcXCXSXLXFX$Xk i r 6 ! *     y y.$.&                     X *.> @     & $Xx.. r s 6 6 8 l H G z r @ % $.> 6 9 k &X0XBX0X8X8XrXrXNXVXHXPXGXeX8X2X2X1X8X*.&                                                                                                                                                           ",
"                                                                                                            : Z.Q 5 a s s s s h T R R ^ ^ ] m.].bXAXjXXX X|._.|.|. X X X X XsXsX/.R.I.I.I.I.H.3XgX^.e.q.G.).(.3XdXcXcXCXJXMX*.j 8 j u     . $.-.j .                     C 2 & o   o B $X. = H 6 l i j H G H j ; . 9 9 9 j $XBXBXrX8X7X8XrXrXNXNXHXUXVXeX8X2X2X1X8X$X-                                                                                                                                                           ",
"                                                                                                            . :.S.h e a s s h h T E R ^ ] ] +.V..XAXSXxXXXXX|.!.!.|. X X X XXXsX`.R.R.I.I.I.I.D.K.aX(.G.e.D.).(.3X3X6XaXgXCXZX;X*.j > .     & $.G ;       # .           c y & ;     - $X% . H H H l i z G H j 6 . o 9 9 >.GXBXBX0X8X7X8XrXrXNXNXGXUXNX8X8X8X8X2X8X*X-                                                                                                                                                           ",
"                                                                                                              c ~.O.d a s h h h S ] ] ^ ] o.+.5.E.hXSXSXxXsX X!.W.R._. X X XXXsXsX_.R.R.I.I.I.I.F.~.iX(.I.D.D.^.4X4X4X4X4X3XfXCXZX;Xy         = G j &     y x X         4 y & & .   . k.y   q  .J J 8 j G G j 8 X . 6 B BXGXBXrXrX7X8X0XrXrXrXNXVXPXNX8X8X8X8X2X8X7X4                                                                                                                                                           ",
"                                                                                                              % K.Z.^ s s h h h S E +.] ] ] +.#.n.].jXSXAXxXsX|.W.T.R.|.XXXXXXsXdXsX/.R.I.I.I.I.R.I.G.iXiX^.G.D.U.^.4X4X4X,X,X5X6XBXBXZ %       ; G i &   # a.%.#       - y & @ &     B y . . ' } H j > G G s 6 o . y MXGXGXBXNX0X7X8X8X8X0XrXNXVXPXrX8X8X8X8X7X8X7XN                                                                                                                                                           ",
"                                                                                                                C ~.@.T d h h h T R #.+.] ] +.4.5.T.|.xXSXAXxXsX].R.R.W. XXXXXsXdXdXsX/.R.I.R.I.R.~.R.G.3XgX3XY.D.D.Y.4X4X4X4X,X,X,X9X7X$Xy .   . 8 j > o   x a.%.%     @ y O + ; . O N N     r 8.' z & j j 8 > > > %.PXGXNXNXNX0X8X8X7X7X8XrXNXNXHX8X8X7X0X8X7X8X7XV                                                                                                                                                           ",
"                                                                                                                < K.q.O.h h h S T R o.v.o.+.+.4.4.v.T..XvXSXAXjXhX].W.!._.XXsXsXdXjXjXsX_.R.R.R.I.R././.I.3XgXiX^.U.U.Y.Y.4X5X5X5X,X:X:Xi.*X*.- o + j > ; . , ;.a.%.X   . 6 o + & & ; y B     @ ' } H ; 6 & 6 6 8 9 B BXNXNXNXNX0X8X8X7X2X2XrXrXVXGX8X7X7X0X8X7X8X2X*.                                                                                                                                                          ",
"                                                                                                                  C G.5.] S T T T R ] v.#.+.+.#.4.5.n.E..XvXSXnXjXhX|.!.!.|.XXsXsXdXjXjXdX X~.R.R.R.~.{._.I.~.gXgX3X^.Y.Y.Y.Y.,X,X,X,X,X:Xi.,X=X$.6 6 6 > 6 & P 9.;.y     ; o + . ; ; > B .     j ' H > & o 8 6 9 9 y ;XeXNXNXrX0X8X7X2X<X7XrX0XGXBX7X7X2X0X8X7X9X<X$XX                                                                                                                                                         ",
"                                                                                                                  3 K.5.q.~ T T T R ] 4.n.+.+.#.4.c.n.n.E.XXnXSXAXvXjX|._._. XsXsXjXjXdXjXjXpX X`.`.~.~.{._.P.I.iXfXfXaX3X3X4XY.:X:X:X>X<X>Xf.<X8X*Xk 6 6 8 ; p ,.a.;.#   # # + . ; ; > N %     - ' J 8 > + 8 8 8 9 9 ;X8XrXrX0X0X8X7X<X<X8XrX8XGXBX7X7X<X8X0X7X9X<X*X%                                                           X 3                                                                                           ",
"                                                                                                                    *.A.5.@.R R R E ] +.n.#.o.+.4.4.n.m.m.E.XXAXDXAXbXjX X|. XXXsXjXjXjXdXdXjXsXsXsX X/.~. X_.I.I.^.aXfXfXfX6X3XY.:X,X:X:X<X>Xf.>X2X8Xp.k 8 8 6 U 9.a.k   o = O & & 6 & y 3     . ! =.J i 6 8 8 8 8 9 $X1X1X2X8X0X8X2X<X2X0XrX8XHXBX7X2X<X7X9X7X9X<X<X4                                                         X V 3                                                                                           ",
"                                                                                                                    3 -X@.q.] E ^ ] ] +.4.c.o.o.+.4.c.m.B.B.Q.sXAXKXAXbXxXXX X XsXsXjXjXjXdXdXjXjXxXdXpX_._. X/.R.D.D.H.Y.fXfX6X6X,X:X,X<X>X>X>Xf.f.2XrX;X%.9 6 l Y 9.Y @ . ; o 6 + > o - 4       y 8.=.l 8 i 8 8 i 8 p.1Xf.d.2X8X8X2X2X7XrX0X8XGX0X2X7X<X7X7X<X7X5X5XN                                                       % #XZ                                                                                             ",
"                                                                                                                      k.H.] 5.] ] ] ] +.2.4.+.o.o.+.4.c.B.B.V.].hXSXKXAXbXvXsXXXsXsXjXxXjXjXjXjXjXxXbXdX X_._._.R.I.D.r.e.w.H.3X5X9X5X:X<X7X>Xf.f.f.f.>X2XrX*Xx 8 p U ,.p . ; + 8 & ; o . 3 .     @ -.8.$.8 i i i i 8 %.=Xy.9.d.8X8X7X7X7XrX8X0XGX8X2X<X,X5X7X<X7X5X5XZ                                                   . N MXMX-                                                                                             ",
"                                                                                                                      4 -X[ @.5.+.+.+.+.4.4.#.o.o.o.+.4.n.V.V.T.].jXKXKXnXbXvXjXhXhXjXvXvXxXjXjXjXxXbXbXdX`.~.R.I.I.D.r.w.w.w.w.H.:X,X<X:X<X7X>Xf.f.>X>Xf.f.2X8X>.j p P P 9 8 6 8 ; & &   & .       k t.y.i i i i l 8 B =X9.9.9.>X8X8X7X0X0X2XNXGX7X<X<X,X5X5X5X9X5X5Xk.                                                % @XFXGX>.O                                                                                             ",
"                                                                X .                                                   . #XK.] 5.5.v.4.4.4.4.4.+.o.o.+.+.4.c.V.E.E..XjXLXDXbXvXvXvXlXjXvXbXmXvXxXjXjXxXnXcXpX~.L.L.D.D.r.w.w.w.r.r.r.y.:X:X:X>X2X1Xf.f.>Xf.i.d.>X8X*Xx p F F p j i 8 ; ; . & o     . 6 t.:X$.i p p l i k =X;.-.=.y.7X0X0XrX0X2XBXGX7X<X5X,X5X5X5X9X5X5X%XX                                           . N ;XDXJX7XB                                                                                               ",
"                                                                % c 4 X                                                 N fXq.+.5.S.S.5.4.4.4.#.+.o.o.+.+.4.c.V.E.Q.[.jXKXDXmXbXbXvXvXvXbXmXmXbXxXxXxXbXnXgX`.I.D.r.e.r.r.w.w.w.r.r.t.t.y.:X:X>X2X2X>X>X>Xf.i.d.d.>X=X>.F F p j F p i 8 ; ; + .   & 8 -.i.y.p p l A p k *X-.I U 8.2X0X0XrX8X2XGXGX7X<X5X5X5X5X5X9X5X4X;X3                                       . % k.ZXSXSXMXy.y                                                                                               ",
"                                                                  % &.&.c $ .                                           X %X3X@.5.5.F.F.c.4.c.c.#.+.+.+.+.4.4.b.B.Q.'.[.jXLXKXmXbXmXbXbXmXmXmXmXbXbXbXbXbXbX3X).L.r.r.w.w.r.w.w.w.t.t.t.t.t.i.>X2X2X2X1X1X>Xf.i.i.d.f.2X*X$.p i F P F p i 8 ; o & 6 i l t.i.-.l A A p p $X-.I =.=.>X0X0X0X7X0XBXBX7X<X5X5X6X6X6XfX5X5XuX4                                 . + : N ;XKXSXSXFXy.-.$                                                                                               ",
"                                                                    O Q A.:.Q w %                                         N CXG.5.5.S.R.F.c.c.c.c.4.+.+.+.#.4.c.b.B.Q.'.[.jXLXKXAXAXAXAXAXAXAXmXnXmXnXbXbXbXdX).~.D.r.w.w.w.r.r.w.w.t.t.t.t.t.i.>X2X2X8X8X2Xd.i.y.y.d.f.>X=X>.l p P I F p p p 6 8 i p p -.t.t.G G G l i >.;.I =.=.y.8X2X7X8XBX=XrX7X<X6X5X6X6X6XfX6X6X;X-                             X * 1 u k.ZXDXSXSXLX-X0.$.                                                                                                ",
"                                                                      X n :.@.O.:.( c %                                   X %XgXZ.5.5.F./.m.b.b.n.c.4.4.4.4.4.c.b.N.V.'.'.[.jXLXLXDXDXDXAXSXDXSXSXmXbXmXnXbXcXaX).U.r.r.r.w.r.u.r.w.t.t.t.t.t.t.f.>X2X2XrXNX%.P -.9.;.;.;.9.y.>.P l P I F A F p i i p p G t.t.-.G G A p %.y.I I =.9.>X>X>XNX7Xy.0X7X5X6X5X6X5X5XaX6XfX$X= .                     . $ 1 q t B ;XDXAXAXSXLXBXw.w.u                                                                                                 ",
"                                                                        X n Z.@.o.@.Z.l.&.y $                               y CX~.5.5.v././.n.n.b.m.c.4.4.4.4.4.b.N.B.C.'.[.oXbXUXUXIXLXKXDXDXDXDXSXAXbXmXbXxXgX3X).U.D.r.r.r.r.i.i.t.t.t.t.t.t.i.f.2X2X1XNX>.F F F F F F F P I -.P F G P G G G p p p l F 8.i.8.L G G l $.d.I I =.8.f.f.:X8Xy.9.;X9X<X6X5X6X5X4X6XaXcX*.6 $                   O : t t n $XZXDXAXAXAXDXGXH.0.w.-                                                                                                 ",
"                                                                          X n Z.5.@.+.#.S.J.l.&.y @                         . #XgXF.n.n.I.sX~.n.m.m.b.c.4.4.4.4.b.N.B.C.'.[.oXlXKXUXUXUXUXUXLXKXDXDXSXAXAXbXxXgXdXpX4XY.U.u.u.u.i.i.i.i.i.i.t.t.t.i.f.>X1X8X=XP =.P F F l p l F F l F F P I L G F A A A A U 9.U L G J G P d.I I =.=.t.f.f.<X-.I >.fX5X6X5X6X4X4X6XgXfXk 8 =               . - q t d *.uXKXSXnXnXAXAXKX-X-.w.:.X                                                                                                 ",
"                                                                              v Z.S.5.5.5.v.F.R.W.A.&.4 X                     4 zX{.F.S.S.`.gXZ.m.m.b.b.4.4.c.c.b.m.V.C.'.[.+XlXAXIXUXUXUXUXUXLXKXDXDXSXSXAXxXgXgXaXaX6X^.U.U.i.i.i.U.:X>X:Xf.i.t.i.d.f.>X1XeX%.-.-.P F $.%.F p p l F F P I U L L F F F F U I U L I L J L y.=.I =.8.t.f.f.:XL ' -.BX5X4X4X6X4X4X6XcX%Xq r =         . + : q t t n %XZXSXAXnXnXAXAXSXfX:.-.r.n                                                                                                   ",
"                                                                                w Z.F.S.v.n.n.F.F.T.W./.l.M 4 $               . #XxX_.P.P.R.cXyXv.B.n.b.c.4.c.b.N.V.C.'.'.[.oXkXvXSXIXUXUXUXUXUXIXLXKXSXAXAXnXgXdXaXgXaX6X4X4XY.U.U.:X,X>X2X>X>Xf.d.d.f.f.1XeX*XF P I P F >.=X;.P A A F P P U U I U F F I U P I L L =.L G y.8.I =.8.t.i.f.y.J L ' uX6X4X4X4XY.^.aXCX*.8 r q : & = > q r t d v *.uXAXAXAXnXnXAXAXAXCXH.-.:.r.2                                                                                                   ",
"                                                                                  w Z.P.F.F.F.F.F.n.m.m.m.F.J.l.M w $           4 zXhX_.R.P. XZXH.n.m.b.b.c.4.c.b.V.C.'.'.[.[.+XkXvXSXLXIXUXUXLXKXIXIXLXDXSXAXcXdXaXaXaXaXaX6X5X,X:X,X<X2X2X2X2X1Xf.f.f.f.g.1XNXU F F P P F p.wX=Xp.Y P P U U Y 9.=.U I Y I I I =.=.=.I G t.8.I 8.8.8.i.,X-.J L J -X6X4X4X4XY.^.aXCXB r r r r r r t d d d $.-XZXAXnXAXAXAXAXAXAXSX3X0.-.w.:.X                                                                                                   ",
"                                                                                    2 l.J.P.P.F.F.m.m.m.m.m.v.v.v.v.O.n 2 X     O #XbXsX_.R._.xXfX4.m.b.4.4.4.4.b.V.'.[.oXoX[.[.oX+XlXnXKXIXUXDXjXvXSXLXLXKXDXAXxXaXpX6X6XaXfX9X9X<X,X<X7X8X8X2X1X1Xf.f.f.f.g.eXd.P P P P P P =XwXqXeX=X>.Y U Y 9.9.Y U Y U U I -.8.=.=.L 8.t.=.8.8.8.i.<X-.J J J H.aX4X4X^.U.^.6X;X! d r t t t d d d m x.ZXSXnXAXAXAXAXSXAXAXAXfXr.0.:.r.n                                                                                                     ",
"                                                                                      < j.T.P.T.F.F.m.m.F.F.F.F.n.v.#.#.o.Q v 1 5 M cXjXXX_./.sXcXH.4.m.4.+...X.X.4.m.M.T.E.'.'.'.[.oXOXvXDXIXUXxXXXXXhXbXSXKXDXAXcXgXaXaX6X6X9X9X9X7X7X7X8X8X8X8X1X1Xf.f.f.g.1XeXU P P F F P ;.qXqXqXtXVXeX=X9.9.9.9.,.9.9.9.-.-.t.8.8.L -.i.8.8.8.t.U.,X' J J ' >.fX3X4XY.Y.4XfXK.5.m s d d d d b &.uXSXAXnXAXDXSXLXLXAXAXAXCXY.q.0.0.w.2                                                                                                     ",
"                                                                                        - j.P.T.T.T.F.m.F.P.P.T.T.F.m.v.#.#.o.E d d -XbXhXXX_. XxXzXO.c.c.X.X.) ) X.X.1.1.1.c.N.C.Q.E.'..XxXKXUXAX.XXXXXXXsXsXgXCXSXSXCXcXfX6X6X5X5X9X9X8X8X8X8X8X1X1Xg.f.g.g.g.wX>.U U P P P P d.tXqXqXtXVXVXVXeX1Xs.a.a.a.9.9.9.t.t.y.=.-.i.8.t.t.t.Y.H.K J J ' >.fXaX3XY.Y.3XfXA.S.W d d d d m x.CXSXbXbXbXDXLXIXIXLXAXAXAXfXr.q.0.w.:.@                                                                                                     ",
"                                                                                          % O.P.T.T.T.T.T.P.n.F.T.E.T.F.m.n.v.#.T a &.ZXjXXX X_.sXnX-X#.c.#.X.X.) ) ) X.X.X.X.1.4.b.m.B.T.!.dXLXLXsX|.XX.X|..X|.`.aXCXJXSXCXfX6X5X,X,X2X7X8X8X8X1X1X1X1Xg.g.g.h.wX=XU 9.P P P P U ;XtXtXtXtXVXVXVXtXVXVXNX8Xs.y.9.y.y.i.8.8.U.t.t.t.i.Y.y.J J J ` :.fXaX3X).).aXfXq.F.Q h b h ( -XnXnXxXxXxXAXLXIXPXPXKXSXAXCXH.q.q.q.w.$.                                                                                                      ",
"                                                                                            % l.T.T.E.E.E.P.n.n.n.m.P.T.M.m.m.m.#.h d ;XAXhXXX|.|.sXCXl.c.4.X.X.) ) ) E ) ) ) ) ) X.4.c.c.m.R.gXLXxX|.]..X|.|..X|._.).3XfXZXSXCXfX5X,X<X<X2X1X1X1X1X1Xg.h.g.g.h.wXqX;.U ,.P P P P ;.eXVXVXVXVXVXVXVXVXVXUXPXGXBX1Xf.i.i.y.8.,Xi.t.i.i.Y.:.K K J } w.cXxXpX_.).gX-XS.P.^ m Q x.dXxXxXxXxXxXbXDXLXPXPXIXKXSXSX3Xq.q.q.0.q.y                                                                                                       ",
"                                                                                              < l.W.W.'.Q.m.n.n.n.n.m.m.M.M.M.m.m.o.d &.ZXvXXX|.|.|.xXzXZ.b.1.) E R E R R R E E E E ) o.+.4.n.T.zXAXXXW.!.|.|.|.XX|._.~.D.r.*X;XBXfX5X:X>X>X>Xf.g.g.g.g.g.h.wXqXqXtX;XU 9.Y U P P Y s.1XwXeXtXVXVXVXVXHXUXPXUXUXUXGXrX,XU.t.,XU.i.U.i.U.-.` ` ` } q.CXcXsX X_.gXH.P.T.^ :.yXxXjXxXxXvXvXbXSXKXLXUXPXIXLXLXCXD.0.q.q. .:.-                                                                                                       ",
"                                                                                                < A.].].W.m.m.n.m.m.n.m.m.m.m.m.m.v.T d -XAXjXXX|.|.sXAXfXZ.4.X.R S R R R T T R R R R R E ] +.n.R.bXhXW.R.R.|._.|.|._.~.I.L.0.-.>.*X9X2X>X>X>Xf.f.f.s.g.g.g.h.tXtXtXVX;.Y 9.U U U U 9.s.s.g.g.1XeXHXUXPXPXUXUXUXUXUXPXJXZXBX5XY.i.U.u.U.0.` ` `  .3.fXAXdXXX XiXZ.R.F.K.xXvXvXxXvXvXvXbXAXSXDXKXPXPXIXUXJX^.e.q.q.q.[ &.X                                                                                                       ",
"                                                                                                  4 K.].].T.m.m.m.m.m.m.m.m.m.m.m.m.o.a Q CXbXsX|.|. XxXcXyXv.X.E h g T R T S T R R T T T T R o.v./.xX|.R.I.R._.!.!.!.R.I.L.L.0.' G ! >.=X8X1X1Xg.g.g.g.g.h.wXtXVXVXtXs.U a.;.U U U ,.9.a.s.g.g.eXPXUXUXPXPXUXUXUXPXPXJXJXIX9XY.U.U.U.D.0.} } `  .<.3XAXjXXXXX3Xn.T./.AXxXbXbXvXbXbXmXmXmXSXSXKXPXPXUXUXfXD.e.q.q.@.[ n                                                                                                         ",
"                                                                                                    4 K.].E.m.m.m.m.m.m.m.m.m.m.m.m.c.b e x.AXvXXX|.|.dXxXK.-X+.R T g g T R T T S T T T S S S T ] 5.{.sXR.I.G.I.W.W.I.I.L.L.r.e.0.J G A P >.=XeXqXwXh.h.wXqXtXtXtXVXtXeX;.9.a.Y U U ,.9.a.a.s.eXHXUXUXPXPXPXPXHXPXPXGXGXJXJXfX4XY.Y.U.L.e.<.} ` | <.H.SXjXhXhXK.B.E.pXnXbXnXvXbXnXnXmXmXmXAXSXLXPXUXUXJX~.D.e.q.q.' ~ 2                                                                                                         ",
"                                                                                                      4 K.].T.m.P.T.T.m.m.m.m.m.m.m.m.o.d d uXmXjX X_. XjX(.l.A.) T g g g T R R T S h S S S h h S R #.XX/.G.D.S.5.S.I.L.L.L.e.0.0.' L J G G G >.NXVXtXqXtXtXVXHXHXVXHXHXs.Y a.9.Y Y ,.a.g.g.wXVXPXPXPXPXPXPXPXHXPXPXJXGXJXJXZX6X`.).).U.L.<. .} | <.r.SXjXkXhXG.T.T.gXbXnXbXnXnXmXmXmXmXmXAXSXLXUXUXUXaXG.D.q.e.3.W W $                                                                                                         ",
"                                                                                                        c {..XP.m.P.E.E.T.T.M.m.m.m.m.m.o.a &.CXvXsX|._.XXsXj.( l.R g g g g T T R h g g h S g g g h h O. XR.D.S.S.3.3.e.e.e.e.0.0.<.J L G G G F U ;XHXVXVXVXVXHXPXPXPXPXeXY ,.9.,.,.9.9.g.qXtXPXPXPXPXPXPXPXPXPXPXPXJXGXJXJXZXaXpX X3X).~.3.<.{ | | :.CXlXkXsXJ.E.R.bXnXnXbXbXnXmXmXbXvXbXAXDXIXUXUXZX/.G.D.Z.q.@.S z .                                                                                                         ",
"                                                                                                          c dXXXW.F.P.E.E.E.T.M.M.V.V.C.m./ d %XAXjXXX/._.sXl.o.( :.T g a a g h R S g g a g g s s g g f :./.D.q.S.G.3. .<.<.0.0.0.0.} G A l F F F P =XHXHXHXPXPXPXUXUXPXGX;.U 9.9.,.9.9.a.eXPXUXPXPXPXPXPXPXUXUXPXIXLXJXJXKXJXdXsXsXsX_.`.e.3.{ | |  .fXlXlXXXT.T.(.bXmXbXbXnXnXbXjXsXhXbXAXKXIXUXIXiXR.I.F.Z.e.[ H q                                                                                                           ",
"                                                                                                            C jXhX|.].W.E.'.E.V.V.C.E.'.E.n.R m uXxXsX|.W.XXz.E E ! &.b a e e g T S g g e e a a e a s a s l.R.S.<.D.U.0.} } }  . .8. .K A l l A F F P p.tXtXVXHXPXUXPXHXVXs.U 9.9.9.9.9.a.f.NXUXUXUXPXPXPXUXUXUXIXLXLXLXJXKXLXxXjXhXhX X Xe.6.| | { | fXlXkX{.T.P.gXmXnXnXbXxXsXXX XsXxXmXSXDXKXIXcX{.R.I.D.e.q.` W =                                                                                                           ",
"                                                                                                            X k.{.K.{.}.W.}.}.E.E.E.E.E.C.V.c.h &.xXsX|.W.|.(.d R T &.&.d e 5 5 g S g g a * + 5 : : e a a s l.~.e. .u.L.w.} } } ` ` ` K G l l l l l F P ;.qXqXqXtXtXtXqXwXa.U U 9.9.9.9.d.f.2XNXUXUXUXUXUXUXUXUXUXIXLXLXKXLXIXcXxXjXhXXX X7.7.| | { { 3XvXjX/.B.R.AXAXxXsX X|.|. XsXxXAXAXAXAXDXCXXX/.G.I.S.q.5.` ~ O                                                                                                           ",
"                                                                                                              X < 1 - % $ % 2 1 t Q ] @.5.v.v.E e x.sX|._.~.dX( a S d &.&.e & o : h e a e 5 . . .   o 5 5 : q A.~.3.0.u.u.r.0.0.<.} H l J l p p p p l F F %.eXqXwXwXwXwXwXa.I I U =.9.9.i.i.,X0XGXUXUXUXUXUXUXUXUXIXLXLXLXLXIXcXjXvXhXOXXX7.7.| | { { 3XvXjXG.n.pXbXsX|.].!.|.|. XsXnXAXAXnXAXSXXX|.R.F.F.e.q.3.] ! .                                                                                                           ",
"                                                                                                                  . . . .       + 0 : = q b ^ o.d q K.XX|.!.pXz.h a g d &.c O   O a e = @ O * .       . O   . q G.L. .0.u.L.u.r.w.0.0.J H J l j p p l l F F P =X1Xg.g.g.1Xd.I I L I U 8.t.i.:XfXBXBXUXIXUXUXUXUXUXIXLXIXIXLXIXAXhXvXjXOXXX7.7.| | { { -XlXhXF.F. X|.].!.!.!.].|.sXbXAXAXnXbXDXdX].!.P.F.e.q.5. .3.n                                                                                                             ",
"                                                                                                                        .         O & + + + = q q . c {.|._.|.k.t a a a t C c +   & a :     o .                 n I.e.<.w.U.U.r.w.w.w.0.} H H s p A l l l F F P d.s.g.g.>Xf.I L L L I =.8.t.Y.5XfX6XZXIXLXIXIXIXIXIXIXIXIXLXIXSXhXlXlXOX.Xn.7.| | { { (.lXpXF.!.].].!.!.!.!.].XXvXmXmXbXvXSXCX!.W.W.S.S.5.5.5. .D.w                                                                                                             ",
"                                                                                                                                      .   . + . .   X l./._._.z.X = 5 a 5 u C t *   & 5 &                       X &.~.e. .r.U.u.w.8.0.0.e.0.' H j ' =.l l p l A G ;.>Xf.>Xf.I L } L L L =.8.U.).aX3X6XZXLXLXLXLXLXIXIXIXIXIXUXDXhXkXkXhX[.P.n.<.<.{ _ K.lX/.n.].].].].!.!.].XXlXvXvXvXxXbXSX{.T.T.T.S.e.5.5.3.3.H.%                                                                                                             ",
"                                                                                                                                                      4 G.R.R.K.-   . & e = c C q O   & : .                 .     - :.I.0.} u.U.w.8.<.<.0.0.e.0.J H 0.J l l l l A G 9.f.f.:X-.L } } K K } 8.r.Y.3X3X4XaXSXLXKXKXLXLXIXIXIXIXUXKXhXhXkXOX.XP.n.<.2._ R A.hXW.n.].].].].].].XXlXlXlXjXjXjXnXgXP.P.P.P.S.7.5.5. .e.z..                                                                                                             ",
"                                                                                                                                                      . &.G.F./.c       0 d = c n : * . & &                         w D.L.}  .Y.<Xr.8.} } ` } 0.0.` J J l l l H l H J >.i.:Xw.L } 8.K K K } 0.u.).pX`. XaXSXKXKXLXLXLXIXIXUXUXLXhXOXkXOXoXT.P.2.2.R R A.hXP.T..X.X]..X.X.XOXhXhXhXOXhXxXCX~.P.S.n.P.S.6.6.3. .D.C                                                                                                               ",
"                                                                                                                                                        - l.S.R.c       . d d * u u : = O O + .                   . & n D.3.} U.y.-.8.} } ` J ` }  .~ J J H H ' J l H J w.:Xt.} L 8.=.K ` { <.e.I. X X X XsXSXKXKXLXKXLXIXUXUXIXhX.XkXOXoXQ.P.2.2.R R 5.|.m.].[.[..XoX.X.X.XXXhX.XOXhXnX3XS.F.6.7.I.I.S.e.3.3.D.4                                                                                                               ",
"                                                                                                                                                          c A.F.M         + W t 2 c w * : * . + +                   = = ! S.3.r.K J K ` } ` K ` ` ` ` ` ` J H H } J H J ' y.i.8.K 0.r.` { { { 3.L.`. X XXX|.sXDXKXLXKXKXIXUXUXIXhX].oXoXoX].P.2.2.R D o.W.B.]..XoXoX.X.X.X.XOXXX.XOXhXdXv.n.5.5.5.I./.S.6. .3.:.$                                                                                                               ",
"                                                                                                                                                          X &.S.(           d ( 2 y 2 * * : *   + : .           . . . : > :.L.e.} H J K ' -.H J K ' } ` ` J H H J [ J J ` ` 0.0.} 0.^.0.K { { <.e.~. X XXX|.|.jXKXLXDXDXIXUXUXUXjX'.].oXoX.XP.2.2.D D ] W.B.].[.oXoX.X.X.X.XOX.XOXOXxXG.4.5.5.5.5.S._.P.5.| 3.&..                                                                                                               ",
"                                                                                                                                                            w G.l.X         * Q n - - o O & = = . @ q - .       . & O o : q D.L. .D J K K ` :.-.J J } } [ ~ J J J ~  .J ~ ` ` 0. .<.(.^.{ { { | 6.I.|.|..X.X|..XbXKXDXDXLXUXUXUXdX'.E..XoXoXT.6.X.D D R c.m.'.[..XoX.X[..XOXOXOXhXhXdX5.4.5.5.3.3.5./.R.3.| @.c                                                                                                                 ",
"                                                                                                                                                  o .       . &.A.-           q Q w .     . . & = . X u u o       . 5 : : 5 n R.e.D D J ` K K H.;X>.[ ` }  .[ ` ` ~ [  .` ` ` } w. .I.iXD.{ { | 2.n.!..X.XOX.X.XXXAXDXSXDXIXUXUXdXQ.B.].[.oXE.m._ D S R 4.B.Q.]..XoX.X.X.XhXhXhXOXhXK.+.4.6.3.3.3.3.~./.3.| [ -                                                                                                                 ",
"                                                                                                                                                  X - X       2 A.2           . t Q 1           o + . X u z > X     + 7 a a 5 &._.` f D ` { ` } *XJXBX*X:. .3. .[ ] ]  .|  .| {  .:.e.|.gX3.{ | <.6.W.|.oXOXoX[.[.jXAXAXAXLXIXUXcXE.B.T.[.[.E.B._ D g R +.m.E.].oXoXoX.XJ.A. XhX.XsXZ.2.n.n.3.3.@.@.G./.3.| W X                                                                                                                 ",
"                                                                                                                                            . .     - 2 - .     &.c             O m m O           . .   X u H k 2     & a h f a z.Z.f f J ` { K } ;XIXJXZX9XH.q.3.3.3.@.@.3.5.3.| @.e.!.dX3X<.<.2.6.P.]..XoXoX.X[..XbXAXvXAXIXUXCXE.B.6.Q.[.'.n.+.S g D D v.T.].oX].A.] S S J.hXOX(.6.n.n.6.2.2.| | S.~.| | r                                                           . % 3 4 %                                               ",
"                                                                                                                                            . .     . - - 2 X   < n               * Q t                   X u H -.B X   & f D S h A.z 5 S K { ` J [ ;XIXJXLXJXBX3XG.S.S.5.5.S.S.3.2.5./.XXhXD.2.2.6.n.W.!.[.+XoX[.[.OXlXkXkXmXIXZXT.T.4.B.[.'.4.4.g g S S v.T.E.v.] D h h g O.OXhXG.n.n.n.6.2.+.] ] 3.e.| { =                                                 X 3 y B *.$X&XZ %                                                 ",
"                                                            @ - X                                                                                     X o o $     c X           .   = m $                   X r f ' B @ . 7 D | S d &.& 5 D { { D `  .uXUXIXKXDXKXZXfX3XG.n.m.P.F.n.6.R.OXoX|.6.6.6.n.T.T.Q.[.oX[.].[..XoX+XkXjXfXF.T.n.6.Q.'.) 4.S a g g v.v.] R S h g g a h J.{.n.m.m.n.6.2.| ` ~ ] @.{ S .                                     X % 4 N Z $X-XuXfXCXZX$Xy .                                                   ",
"                                                            X 4 C k.*.B c 4 % $ X .                                                                     . .       $ X           . @ o * *                     X > 5 H ! - & a { | a u d : a D ` D J ` q.fXIXLXKXSXDXKXKXCXaX/.R.T.P.F.F.XXOX.XT.B.B.B.B.V.V.Q.[.[.'.].].[.oXoXW.F.5.F.T.2.B.'.R +.E a a a +.) R R g a a e e e &.A.n.B.B.n.6.2.] S e ~ { { r                           X % 4 N Z #X;XuXCXCXcXxXgXgXCXuXC $ +                                                     ",
"                                                                X y *.-X-X-Xx.l.*.k.k.*.C N 4 % X                                                         .                       . . . .                       . & = S ! 2 & f | ` 5 u e 7 i D D D ` | q.fXIXLXKXKXSXDXKXKXSXCXgX{.E.T.W.XXhXXXP.T.V.B.B.N.B.Q.'.Q.'.'.].[.[.T.4.+.+.T.4.2.V.T R +.a a a E R | T a e : & & 5 &.@.n.B.B.n.6.+.` r & ~ ` ~ =                 X 3 N Z k.%XyXfXzXcXcXxXgXcXgXgXcXCXfXx.y o : .                                                     ",
"                                                                    O u &.x.K.K.H.D.U.^.3XpXiX-Xx.k.C c y < % X                                 o O O .                           .   .                           . & ; f ! = 7 S { S : t 5 5 a f D { { 2.e.BXUXLXKXKXDXDXDXDXLXIXKXcX XE.Q.].OX|.n.T.C.V.n.6.N.V.C.Q.Q.Q.].'.m.+.+._ v.m.) b.T g 2.S e a D | | a 5 =     . t l.] n.B.B.n.4.| ~ + . 5 5 = .           X 4 C x.*X-XY.^.(.(.3X3XpXaXxXcXcXnXSXZX-Xn @ o : o                                                       ",
"                                                                      . 2 m ! &.-X9X3X(.(.(.~.I.I.I.G.G.A.z.K.x.k.C c 4 % X                       . + & + O .                     . % X   .     . .                 . o & r t = a S D 7 * r = 7 f S ` ` 2.2.D.BXUXLXKXKXKXKXDXDXKXDXDXDXCXsX|.[..Xm.n.T.Q.B.2.4.N.N.B.Q.Q.Q.C.b.X._ R ^ m.+.+.R a | ] e 7 S | h & .         n ( ] 5.n.n.5.+.e :                 X 2 n >.r.w.0.0.q.r.D.Y.(.pXdXxXnXAXAXDXJXuX>.t O : r +                                                         ",
"                                                                          $ u W W ! x.;XcXcXdX`.~.D.5.@.[ [ ( ( :.l.A.H.A.l.&.( n w < $ .             . & 0 e r : * O               - N 4 X     . .                     o O : : : a f f : 7 a 7 f D D _ 2.2.6.I.fXIXLXLXLXLXKXKXDXSXSXAXDXKXAXxXXX'.m.n.T.V.4.2.2.6.b.B.C.C.V.4._ ) R S #.c.] E a D ) 5 & h h : .         o M d ] 2.4.~ S h o             o > k -.r.r.0.0.0.w.D.U.^.3XpXaXdXgXxXxXcXZXuX>.! s = t z *                                                           ",
"                                                                            . 2 Q m s m &.-XzXbXxXpXG.@.[ ] ~ S h h h h W W W ^ O.O.O.( ( t * .           O : s T ^ ^ d : o           - *.*.N - .                       . o & ; > : 7 a a : f a a D D { <.6.2.S.I.cXIXLXIXIXLXLXLXKXKXDXAXAXmXvXvXxXXXT.m.B.N.4.1.1.4.4.B.V.B.4._ R S S b n.2.] a S ) : . m = o : O .     q n r ] ^ : O 7 =             o r H ' -.0.w.r.D.U.U.Y.Y.Y.Y.^.3XpXaXgXcXuX>.W ~ z s ~ ~ =                                                             ",
"                                                                                @ n ! t 0 d ! x.iXcXxX3X:.~ ~ W S h h h h h h h h h h h d q O .             . . = W o.W b d 0 +         % B >.>.*.N 3 #                 o + + & ; > o & a 7 q f a S ] { 2.6.2.2.B.!.CXUXIXIXIXIXIXIXLXSXAXmXvXvXlXkXvXvXsXW.V.B.2._ X.X.6.V.B.b.1.R e h e #.6.#.5 a R = & d O & a = O   . ! q s h &     .       . o . . . = f  .r.Y.^.^.^.Y.U.U.U.Y.^.3XpXdXcXuX>.W H [ W W [ ~ 1                                                               ",
"                                                                                    2 m t : q d Q :.K.fXfXH.[ S S h h h h h h h h h h h d a : .                   . 1 t q : q e > @ .     X B -.$.-.>.p.p.B 4 X           + ; & o & = . 5 a 5 d a S 5.+.2.6.6.2.6.E.XXJXUXUXUXUXUXUXKXSXmXmXvXvXlXkXkXkXkXvXR.C.b._ ) ) X.b.B.N.b.R O 0 : b 6.J.2 . 5 o : q o : g : :   : ! = e O               . .   . @ 6 ' D.3XaX6X3X4X^.Y.U.U.U.Y.3XgXfXx.k s W [ ~ ~ [ W 1                                                                 ",
"                                                                                      X w v q = q h W ! :.K.K.:.T h h h h h h h h h h h h h h r : + . .               . * q r 5 : 5 5 = .   X B >.L L 9.d.1X1X=XV 4 X       . o o o + o . : 7 d f f 5.n.2.b.b.2.2.B.!.xXIXUXUXUXUXUXLXAXbXvXvXlXlXlXkXOXoXOX(.b.C.4.E ) R X.b.N.b./ . * e : o.R.M   .   : + . 5 h 5 5   u u O .       X X @         . 6 z ' w.).pX3X4X^.Y.U.D.r.r.U.6XfX$Xn r 5 W [ z ~ z q >                                                                   ",
"                                                                                          * t t > r h W h z ( l.:.~ S S S h h h S S T S S h h h h a r e e 0 : * * + .     . - d m q = : @     X B y.8.9.9.d.f.g.1X1Xp.B , X       . @ o o o 7 s W f | E.n.b.N.4.2.6.B.].SXUXUXUXIXLXDXbXvXlXlXlXlXlXlX+X+XoXsX#.N.N.) R R T X.4.b...O O a O e S.z.X     O . . e g a 7 . u $   . $ 4 B B $           o $ @ = > u &.H.Y.Y.U.u.D.Y.6XfX%Xc r 6 5 z W s f > * =                                                                     ",
"                                                                                            . 1 m d r h ~ H d q n ( O.^ T T R R R R T T T S S h h h h h g g h h S h e O       X w Q m 0 .         c y.9.y.d.d.d.f.g.g.g.d.%.y X     . @ + & e a W W R T.E.b.N.b.2.2.6.B.XXKXUXUXIXDXbXlXlXkXkXlXlXlXkXkX+XoXXX:.) 4.X.R S g h ) 4.4.:   5 O . ^ /.2         O a e g 5 o q     . * 2 < X                           $ u w.U.4XfXCX-XN X & & ; f ~ r 5 & O : .                                                                     ",
"                                                                                                @ v ^ W h T W d 0 q n :.:.o.^ ] ] ] ] ] ] E R T T T T T T S h h h h S s +         X : q &           N =Xs.a.s.s.g.g.g.s.d.a.9.$.y X       . 7 ~ f m W 4.].V.n.b.4.X.1.4.T.xXSXKXAXvXlXkXkXkXkXkXkXkXkX+XoXoXOXA.D R ) R a e 5 g X.2.:   o .   1 J.(         + a = g : . O                                           q H.aXCX;XB @     . @ q ' j & . o = .                                                                       ",
"                                                                                                    - m ] W T T h r = 1 n :.:.] E ^ ] ] ] ~ E ^ E R T b h h h h h h h h h =                         . V wXg.s.g.g.1X1X1Xg.1XwX1X=X>.y X     . q ~ e d ] E.'.B.b.4.X.X.2.b.'.].XXvXkXkXkXkX+X+XkXkXkXkX+X+XoXoXK.S g h h g + O o T X.&         . O.A.%   .   + 5 o : O < 4 X                                         u -X$XN %     .     & ~ H @   . $ .                                                                         ",
"                                                                                                      . q W ~ T T h : O = = u O.O.Q 0 = * O o * = + O O O + + O . O O o O + O .                       X *.eXwXwXwXqXwXwXg.1XeX$X$.k n $.4       q d 5 S 6.'.C.b.4.1.) _ X.B.C.V._.jXkXkX+X+XoX+X+XkX+X+X+XoX].{.Q a 0 e d =     * E =           v W.c       . o     < :.D.( n 2 X                               . * 2 < . . o   . . . @ z W $     .                                                                             ",
"                                                                                                          + t W ~ R T 0 . . . + u l.&.w + * * O + O .       .         .   . . .                         X p.VXtXtXtXqXqXqX1X9.G s 6 = d :.B $     : 5 : R B.C.b.4.1.X.) _ 4.N.N.N.R.hXhX+XoXoXoXoXoX+X+X+XoX].T.l.e : * e e o     d e           * F.z.X             @ &.I.e.q.q.:.n %                         O - @     . .     . . ; z W &                                                                                     ",
"                                                                                                            . : h W ~ R :     . . X c l.&.w = & . o .                 . + O .                             % &XPXVXVXVXeXs.-.G l s r r 7 e ! &.4   . : . = ..N.N.4.1.1.) R _ 4.b.b.b.R.xXkX+XoX[.oX[.[.[.[.oX[.m.l.t * . : e :     * b .         X o.(.c               $ :.I.e.0.q.q.:.n < .                   o .       .         + s H =     @ .                                                                               ",
"                                                                                                                O q b W T :           X c l.( 1 . O + = & .             . O O .                             3 $X;XeX1Xd.;.l s s s r 8 8 7 5 d l.C %   . . 0 X.b.6.1.1.X.R R _ 1.1.1.4.W.vXlX+X[.[.[.Q.E.].].[.].Z.n .   O 5 : +     t :           d F.k.                - l.^.D.:.0.:.0.:.$.2 X                                   = r @     X X                                                                                 ",
"                                                                                                                    = d ~ T :             X u ( v * . . O * : * @ .         . $ O                           . 6 j y P -.G s 8 8 8 8 8 r s s e s :.z.c X     0 X.1.1.1.1._ T R ) X.X.X.1.R.vXbXkX.X[.Q.T.E.Q.]..X!.l..     & : : .   + e .         : | A.<                 4 H.(.H.w.:.0.0.w.w.$.u - .                           . + .                                                                                           ",
"                                                                                                                      O d ] T =               $ n ( w +     . & 5 5 = @ .       * 2 X                         o 6 & o 6 H k > 6 7 7 7 s s s g f s W Z.l.2 . . e X.1.X.1.1.) S S R ) ) X.X.~.vXbXhX[.[.E.T.E.E.].].K.<     . = * *     = +         O h Z.C                   *.aXaX3XY.y.w.t.t.t.t.y.>.B 3 X                             .                                                                                       ",
"                                                                                                                        . q ~ b +               O r d w O         . @ @ O         - u - .                       & 6 @   * k ! z s 5 : 7 r s f h S g h O.l.r 5 + 1 ..1.1.1.1.T g g T R ) _ X.K.lXlXOX[.].E.T.E.E.!.|.C       O O * .   . @           : o.A.%                 - -XCXcXfX6X,Xy.t.i.y.y.i.:X*X$X%                         . @                                                                                       ",
"                                                                                                                            O t m =             . + > q q * .                       X y u +                     . & = .   X y :.:.d : = 5 e a s h S S S v.O.e : . 1 X.1.X.1.X.g a g S T R ) ) K.OXhX.X].].T.T.T.E.].-X%     . O . O                 + v F.c                   4 uXZXZXBX9X9X7X,X,X:Xy.y.>Xf.j                         . .                                                                                       ",
"                                                                                                                                * t : .         . O = e 7 5 : .                       . 2 m : .                   . o @ .     - :.Z.( b a 7 7 7 e g S S E Z.M & .   0 X.+.X.4.) g a g g g S R E A.XXOXW.].E.P.T.P.!.jXN       + . . .               . = @.M       . .           c MXGXGXGXNXNXBXNXrX8X1X1X-.G @                                                                                                                 ",
"                                                                                                                    . + = O       . : > O         . + 5 s r : = O                         - t : .                     . + .     O Q J.F.#.~ a & = e g h S ] v.v       0 ) #.X.4.T a a a a a g h R l.{.W.T.E.T.P.P.R.hXk.      . O   .                   m :.$     + $             V NXHXPXPXUXUXUXHXVXeX>X-.G 9                                                                                                                 ",
"                                                                                                              O 1 t v d e *       .   X = @           & q s 0 : & .                         . : : O                     .         . w A.R.n.o.T a a a a h R ) v.t     . e E #.X.X.g a e e e e a g h ( W.T.P.P.P.P.P.XXyX<       O                       = :.c     . +             % ;XPXUXUXUXUXUXPXHXeXd.$.G G @                                                                                                               ",
"                                                                                                      . $ w n Q ^ T h d a : .   . : 0 O   . .           + 0 r 5 & .       . & .   .             & : .                                 - O.T.T.v.4.) S g g ) R ] 4.1     O a E 4.1.R a 5 : : : e e 5 e ( W.P.S.S.F.S.W.sXC       .                       . m k.                      Z PXUXUXUXUXHXtXwXg.y.-.H G 9                                                                                                               ",
"                                                                                              . $ 2 t m ( o.] ^ ~ T h h d : + + 0 T T h =       . .       . : r > & .     . 7 7 : 7 : .                                                 $ n A.T.T.B.c.+.) X.+.S o.o.*     O h ) 4...g : . . . & 5 = * 0 ( W.F.5.S.S.F. X%XX                               * &.%                     # *.BXUXUXPXHXqXs.;.-.P H l H &                                                                                                             ",
"                                                                                      X - w n Q Q W b b T T ~ ^ ] ] ^ E E T T h T ] o.o./ t .     O O .     . : r : = o .   & s f f f r O                                                   2 O.J.E.T.b.+.) ) R T +.E O     * T X.4.R 0 O       . & = & 0 O.R.5.5.S.S.R.iX4                                 y 3                       # y p.;XqXtXqXs.-.P G G j r r                                                                                                             ",
"                                                                              . $ 4 n ( ( ^ ^ T h h h d d h h S T T T T T T T R E +.#.#.#.+.Q $     . O .       = r r r &     o & 6 s f f &                                                   O n F.T.V.m.+.S g g ) X.d .     + b ..+.e O           + * + q l.R.Z.Z.F.D. XC                                 X 2                         . @ - x s.1Xd.y.P l j r & 6 =                                                                                                           ",
"                                                                      . $ 2 v Q ( O.^ W T T T ~ R R R T T T T h h h h h h h T T E #.c.c.c.4.v.j.w       . O       * k f s &         . O = 5 .                                                     - Q m.T.m.#.S 5 e ) _ 1       . q ) T .             . * = t A.R.Z.F.G.~.z.X                                 X                               . 9 %.d.;.-.k 6 & . . > .                                                                                                         ",
"                                                              . O = w m ^ ^ [ [ [ ] o.o.o.+.#.+.#.+.+.o.^ R T h h d d d d g h h b E #.m.m.c.4.4.j.v X               @ j J z &             . .                     & .                               . w j.M.m.4.S 5 e _ R +         + t O               . & : m K.G.D.G.I./.4     .   .                                                           & k ;.-.' ;     . ; &                                                                                                         ",
"                                                      $ < y n ( :.:.Z.A.Z.Z.Z.A.A.A.F.F.F.m.m.n.n.n.n.v.#.o.E T h h h h h h h h b E +.m.M.M.T.m.n.v.M $               . > ! z o                                   > > @                                 * m v.M.n.T * a _ h .                               & 5 n K.G.D.I.R.&.    * O . .                                                           . 9 -.' z @   . & 6 .                                                                                                       ",
"                                                      % 2 c n C &.z.x.K.-XyXiXiXsXiX{.{.{.{./.W.J.F.F.v.5.+.^ b r e s h S T R ^ o.#.v.m.M.T.M.M.n.4.#.( <                 X > > .                                 ; @ ; ; .                               . w O.m.m.Q + a ] r                               O = & n G.G.F.R.K.%   . O . O                                                               ; G z 8 o   . 6 $                                                                                                       ",
"                                                            . + : 0 : * 2 q u c n n m &.&.x.K.K.K.K././.J.A.j.o.Q b b T T R ~ E ^ ^ ^ ] o.+.+.+.o.E R o.( w X                 . .                                 > . . ; > .                                 * v #.F.( * t ] 1                     .         O O X ( ~.R.I./.n         .         * o                                                     ; ! W 8 .   o > .                                                                                                     ",
"                                                                  . * > 5 : + = > & & : e s s r d m m m m v v v v v v m Q O.l.A.J.W.W.J.Z.+.] E R S h S R ^ ( 2                                                 . 8 .     & ; .                                   * m O.O.2 e ^ $                 . . .       O O   $ l./.R./.z..                 + t .                                                     * ! ' ;     @ o                                                                                                     ",
"                                                                      . + > q : O .     o > r a r r s s a 0 : : = +     . . $ % < 2 w n &.l.l.l.l.l.O.O.v.F.F.A.M %                                             # k o       . .                                     . - m l.u d m .                 . + @ . . . = .   < A./.~.{.<                   d t                                                       o k ! *   . & .                                                                                                   ",
"                                                                            . = q q : X     O 5 s a e e 0 s h h 0 +                         X $ % < 4 c M &.l.l.A.l.c X                 . o                     , %.;                                                   . 2 :.n W q                   O     . . o       c (.`.pXB                   + ( 1                                                       . q j &   o @                                                                                                   ",
"                                                                                . + : q = . + = e s s e 5 : 5 r d e : .                                     . $ < w c <                                         . y ;.k ; .                                                 % C :.m $                                   X &.iXpXk.                    1 q                                                           & 6 &   @ .                                                                                                 ",
"                                                                                      . & = = = & : 5 0 r r 5 : & . .                                           . @ . o .                                           , ;.P > .                                                 . c &.n                                     $ k.sX-X@                     .                                                             . = . . +                                                                                                 ",
"                                                                                          . O = : > : + & : 5 r r : O                                               O : @                                             - x k @                                                     4 k.2                                     % k.iX3                                                                                     . O . + .                                                                                               ",
"                                                                                                . $ > > = .   . & 0 0 : O                                             + &                                               X 9 > .                                                     3 N .               .                     X k.N                                                                                         . . o                                                                                               ",
"                                                                                                      . O .         . + = o                                           . * .                                                 # + .                                                     % 4 4 X             .                     % N                                                                                             @ .                                                                                             ",
"                                                                                                                                                                                                                              . .                                                       % B C <                                   % .                           .                                                               . .                                                                                             ",
"                                                                                                                          .                                                                                                       . .                                                       - n c X                                                             . .                                                                                                                                                             ",
"                                                                                                                          . + + .                                                   . .                                             o & .                                                     . 2 w X                                                             . .                                                                                                                                                           ",
"                                                                                                                              . + * $ o .                                             & = .                                           @ = .                                                       O o                                                               O                                                                                                                                                           ",
"                                                                                                                                  . + : q : o                                           $ : .                                           o * .                                                             .                                                         o O                                                                                                                                                         ",
"                                                                                                                                        $ q r 0 & .                                       O > &                                           . .                                                             O O                                                         o .                                                                                                                                                       ",
"                                                                                                                                            . = : .                                         o j k , .                                                                                                       * :             o                                                                                                                                                                                                   ",
"                                                                                                                                                . .                                           X k ;.6                                                                                                       . t t .         + *                                                                                                                                                                                                 ",
"                                                                                                                                                                                                X 9 i .                                                                                                       . t r .         + o                                                                                                                                                                                               ",
"                                                                                                                                                                                                    & > .                                                                                                       O b d .       . .                                                                                                                                                                                               ",
"                                                                                                                                                                                                      + > .                                                                                                       = ^ q       . . .                                                                                                                                                                                             ",
"                                                                                                                                                                                                        .                                                                                                           $ t : .                                                                                                                                                                                                     ",
"                                                                                                                                                                                                                                                                                                                      . : +                                                                                                                                                                                                     ",
"                                                                                                                                                                                                                                                                                                                        . o                                                                                                                                                                                                     ",
"                                                                                                                                                                                                                                                                                    .                                                 .                                                                                                                                                                                         ",
"                                                                                                                                                                                                                                                                                . . . .                                               .                                                                                                                                                                                         ",
"                                                                                                                                                                                                                                                                                . .   .                                                                                                                                                                                                                                         ",
"                                                                                                                                                                                                                                                                                                                                                                                                                                                                                                                                ",
"                                                                                                                                                                                                                                                                                                                                                                                                                                                                                                                                ",
"                                                                                                                                                                                                                                                                                                                                                                                                                                                                                                                                ",
"                                                                                                                                                                                                                                                                                                                                                                                                                                                                                                                                ",
"                                                                                                                                                                                                                                                                                                                                                                                                                                                                                                                                ",
"                                                                                                                                                                                                                                                                                                                                                                                                                                                                                                                                ",
"                                                                                                                                                                                                                                                                                                                                                                                                                                                                                                                                ",
"                                                                                                                                                                                                                                                                                                                                                                                                                                                                                                                                ",
"                                                                                                                                                                                                                                                                                                                                                                                                                                                                                                                                ",
"                                                                                                                                                                                                                                                                                                                                                                                                                                                                                                                                ",
"                                                                                                                                                                                                                                                                                                                                                                                                                                                                                                                                ",
"                                                                                                                                                                                                                                                                                                                                                                                                                                                                                                                                ",
"                                                                                                                                                                                                                                                                                                                                                                                                                                                                                                                                ",
"                                                                                                                                                                                                                                                                                                                                                                                                                                                                                                                                ",
"                                                                                                                                                                                                                                                                                                                                                                                                                                                                                                                                ",
"                                                                                                                                                                                                                                                                                                                                                                                                                                                                                                                                ",
"                                                                                                                                                                                                                                                                                                                                                                                                                                                                                                                                ",
"                                                                                                                                                                                                                                                                                                                                                                                                                                                                                                                                ",
"                                                                                                                                                                                                                                                                                                                                                                                                                                                                                                                                ",
"                                                                                                                                                                                                                                                                                                                                                                                                                                                                                                                                ",
"                                                                                                                                                                                                                                                                                                                                                                                                                                                                                                                                ",
"                                                                                                                                                                                                                                                                                                                                                                                                                                                                                                                                ",
"                                                                                                                                                                                                                                                                                                                                                                                                                                                                                                                                ",
"                                                                                                                                                                                                                                                                                                                                                                                                                                                                                                                                ",
"                                                                                                                                                                                                                                                                                                                                                                                                                                                                                                                                ",
"                                                                                                                                                                                                                                                                                                                                                                                                                                                                                                                                ",
"                                                                                                                                                                                                                                                                                                                                                                                                                                                                                                                                ",
"                                                                                                                                                                                                                                                                                                                                                                                                                                                                                                                                ",
"                                                                                                                                                                                                                                                                                                                                                                                                                                                                                                                                ",
"                                                                                                                                                                                                                                                                                                                                                                                                                                                                                                                                ",
"                                                                                                                                                                                                                                                                                                                                                                                                                                                                                                                                ",
"                                                                                                                                                                                                                                                                                                                                                                                                                                                                                                                                ",
"                                                                                                                                                                                                                                                                                                                                                                                                                                                                                                                                ",
"                                                                                                                                                                                                                                                                                                                                                                                                                                                                                                                                ",
"                                                                                                                                                                                                                                                                                                                                                                                                                                                                                                                                ",
"                                                                                                                                                                                                                                                                                                                                                                                                                                                                                                                                ",
"                                                                                                                                                                                                                                                                                                                                                                                                                                                                                                                                ",
"                                                                                                                                                                                                                                                                                                                                                                                                                                                                                                                                ",
"                                                                                                                                                                                                                                                                                                                                                                                                                                                                                                                                ",
"                                                                                                                                                                                                                                                                                                                                                                                                                                                                                                                                ",
"                                                                                                                                                                                                                                                                                                                                                                                                                                                                                                                                ",
"                                                                                                                                                                                                                                                                                                                                                                                                                                                                                                                                ",
"                                                                                                                                                                                                                                                                                                                                                                                                                                                                                                                                ",
"                                                                                                                                                                                                                                                                                                                                                                                                                                                                                                  3 3                           ",
"                                                                                                                                                                                                                                                                                                                                                                                                                                                                                                . N N .                         ",
"                                                                                                                                                                                                                                                                                                                                                                                                                                                                                                3 Z Z 3                         ",
"                                                                                                                                                                                                                                                                                                                                                                                                                                                                                              % Z @X@XZ %                       ",
"                                                                                                                                                                                                                                                                                                                                                                                                                                                                                          . 3 Z @X@X@X@XZ 3                     ",
"                                                                                                                                                                                                                                                                                                                                                                                                                                                                                        3 N Z @X@X@X@X@X@XZ N 3                 ",
"                                                                                                                                                                                                                                                                                                                                                                                                                                                                                        3 N Z @X@X@X@X@X@XZ N 3                 ",
"                                                                                                                                                                                                                                                                                                                                                                                                                                                                                          . 3 Z @X@X@X@XZ 3 .                   ",
"                                                                                                                                                                                                                                                                                                                                                                                                                                                                                              % Z @X@XZ %                       ",
"                                                                                                                                                                                                                                                                                                                                                                                                                                                                                                3 Z Z 3                         ",
"                                                                                                                                                                                                                                                                                                                                                                                                                                                                                                . N N .                         ",
"                                                                                                                                                                                                                                                                                                                                                                                                                                                                                                  3 3                           ",
"                                                                                                                                                                                                                                                                                                                                                                                                                                                                                                                                ",
"                                                                                                                                                                                                                                                                                                                                                                                                                                                                                                                                ",
"                                                                                                                                                                                                                                                                                                                                                                                                                                                                                                                                ",
"                                                                                                                                                                                                                                                                                                                                                                                                                                                                                                                                ",
"                                                                                                                                                                                                                                                                                                                                                                                                                                                                                                                                ",
"                                                                                                                                                                                                                                                                                                                                                                                                                                                                                                                                ",
"                                                                                                                                                                                                                                                                                                                                                                                                                                                                                                                                ",
"                                                                                                                                                                                                                                                                                                                                                                                                                                                                                                                                "
};
