/* XPM */
static const char *ice3[] = {
/* columns rows colors chars-per-pixel */
"256 256 256 2 ",
"   c #000000",
".  c #02060A",
"X  c #04090D",
"o  c #080B0C",
"O  c #060B11",
"+  c #040C13",
"@  c #040D1A",
"#  c #0A1217",
"$  c #06121C",
"%  c #0A151B",
"&  c #14191B",
"*  c #061423",
"=  c #091323",
"-  c #0A1A25",
";  c #061729",
":  c #091C2B",
">  c #071B36",
",  c #0D212D",
"<  c #16242A",
"1  c #0B2234",
"2  c #0B243B",
"3  c #0D293C",
"4  c #142936",
"5  c #1A323C",
"6  c #2A3032",
"7  c #071C47",
"8  c #0A2447",
"9  c #0C2B44",
"0  c #0C2D4B",
"q  c #122D45",
"w  c #0E314D",
"e  c #163549",
"r  c #0B2858",
"t  c #122D56",
"y  c #0E3454",
"u  c #0E355B",
"i  c #0F395C",
"p  c #113553",
"a  c #143958",
"s  c #123A5C",
"d  c #263C4A",
"f  c #0B2A66",
"g  c #112F6A",
"h  c #0E3567",
"j  c #123C63",
"k  c #123A69",
"l  c #0C2C76",
"z  c #0E3578",
"x  c #123B78",
"c  c #1F404F",
"v  c #1A435C",
"b  c #264759",
"n  c #334A53",
"m  c #144265",
"M  c #14436B",
"N  c #1A4769",
"B  c #1A4E6B",
"V  c #154A74",
"C  c #1A4C74",
"Z  c #164878",
"A  c #164C7B",
"S  c #1B5579",
"D  c #1B537C",
"F  c #244A66",
"G  c #29546B",
"H  c #32576F",
"J  c #265778",
"K  c #326479",
"L  c #4E5558",
"P  c #475A62",
"I  c #496775",
"U  c #737474",
"Y  c #0E3687",
"T  c #0D328C",
"R  c #123C86",
"E  c #113C97",
"W  c #113EA1",
"Q  c #0F418C",
"!  c #154787",
"~  c #1A5583",
"^  c #1C5A84",
"/  c #185488",
"(  c #1B5B8B",
")  c #144797",
"_  c #1B5D93",
"`  c #195798",
"'  c #235C87",
"]  c #265792",
"[  c #1D628B",
"{  c #1D6394",
"}  c #1D6799",
"|  c #1F719F",
" . c #276589",
".. c #376988",
"X. c #226493",
"o. c #256996",
"O. c #236C9B",
"+. c #376E91",
"@. c #26739C",
"#. c #377798",
"$. c #1548A7",
"%. c #1857A8",
"&. c #164AB6",
"*. c #1957B8",
"=. c #245AAB",
"-. c #1C65A7",
";. c #1F71AC",
":. c #1D68B5",
">. c #236BA4",
",. c #2474A3",
"<. c #2879A8",
"1. c #347AA6",
"2. c #2C6FB5",
"3. c #2678B6",
"4. c #477589",
"5. c #50748B",
"6. c #477995",
"7. c #6E7E83",
"8. c #4C7BB0",
"9. c #194DC4",
"0. c #1B57C7",
"q. c #1D5BD5",
"w. c #215DD5",
"e. c #1D64C9",
"r. c #1F74CD",
"t. c #1D64D7",
"y. c #2368C9",
"u. c #2C77CB",
"i. c #2267D9",
"p. c #2676D9",
"a. c #1F6DE1",
"s. c #256BE6",
"d. c #2876E9",
"f. c #327AEB",
"g. c #2B7AF3",
"h. c #477ADA",
"j. c #2C82AB",
"k. c #3685AA",
"l. c #2C87B7",
"z. c #358AB6",
"x. c #3292B5",
"c. c #389CB6",
"v. c #3794BB",
"b. c #4B8295",
"n. c #56859A",
"m. c #6C8997",
"M. c #588AA5",
"N. c #508FAE",
"B. c #4895B8",
"V. c #6696A9",
"C. c #6F97AD",
"Z. c #5BA4BD",
"A. c #72A5B7",
"S. c #2A87C8",
"D. c #3394C4",
"F. c #399AC9",
"G. c #328FD2",
"H. c #3CA2CA",
"J. c #3CA5D5",
"K. c #2B86EA",
"L. c #338AEA",
"P. c #3597E7",
"I. c #2E87F5",
"U. c #338AF6",
"Y. c #3797F7",
"T. c #3BA7E9",
"R. c #3EB3ED",
"E. c #3CA6F7",
"W. c #479AC5",
"Q. c #5092CD",
"!. c #6B9CD6",
"~. c #47A5CB",
"^. c #58A7C8",
"/. c #56AFCF",
"(. c #46AAD5",
"). c #4AB3D9",
"_. c #4CB3DB",
"`. c #56B7DB",
"'. c #70B0CC",
"]. c #68B9D7",
"[. c #4A95EE",
"{. c #49B8E5",
"}. c #57BCE3",
"|. c #45A9F6",
" X c #47B6F8",
".X c #52B1F2",
"XX c #6CB3F0",
"oX c #59C3DE",
"OX c #71C3DC",
"+X c #5AC4E7",
"@X c #4BCCF1",
"#X c #4CC8F8",
"$X c #54CAF6",
"%X c #56D6F7",
"&X c #66C6E6",
"*X c #64CBEB",
"=X c #6BCCEB",
"-X c #75CCE7",
";X c #6BD2ED",
":X c #76D5ED",
">X c #6CC9F5",
",X c #6DD4F2",
"<X c #69D7F5",
"1X c #74D6F3",
"2X c #74DBF3",
"3X c #7CDCF3",
"4X c #5AEAF8",
"5X c #67E8F6",
"6X c #79E5F6",
"7X c #70F4F6",
"8X c #818181",
"9X c #83979E",
"0X c #8AA2B4",
"qX c #87AAB5",
"wX c #8EBACA",
"eX c #A2BBC5",
"rX c #8AB8EF",
"tX c #89C8D9",
"yX c #93CDD7",
"uX c #98C9D8",
"iX c #ABCED7",
"pX c #87D7EB",
"aX c #98D9E8",
"sX c #91CDF0",
"dX c #85DBF3",
"fX c #A6DAE6",
"gX c #B0D9EE",
"hX c #94E2EE",
"jX c #83E3F5",
"kX c #8BE3F5",
"lX c #8AE9F7",
"zX c #97EAF6",
"xX c #87F4F7",
"cX c #99F4F8",
"vX c #A9E2EC",
"bX c #B6E3EA",
"nX c #A8EAF6",
"mX c #B7EAF4",
"MX c #A8F6F8",
"NX c #B7F5F8",
"BX c #B4FAF9",
"VX c #BBFAF9",
"CX c #C3DEE3",
"ZX c #C5EDF6",
"AX c #D0EAF2",
"SX c #C7F5F7",
"DX c #C4FBFA",
"FX c #CBFBFA",
"GX c #D6F5F9",
"HX c #D4FBFA",
"JX c #DCFBFA",
"KX c #E7F7FB",
"LX c #E3FCFB",
"PX c #EBFCFC",
"IX c #F3FCFD",
"UX c #FBFCFD",
/* pixels */
"                                                                                                                                                                                                                                                                                                                                                                                                                                                                                                                                ",
"                                                                                                                                                                                                                                                                                                                                                                                                                                                                                                                                ",
"                                                                                                                                                                                                                                                                                                                                                                                                                                                                                                                                ",
"                                                                                                                                                                                                                                                                                                                                                                                                                                                                                                                                ",
"                                                                                                                                                                                                                                                                                                                                                                                                                                                                                                                                ",
"                                                                                                                                                                                                                                                                                                                                                                                                                                                                                                                                ",
"                                                                                                                                                                                                                                                                                                                                                                                                                                                                                                                                ",
"                                                                                                                                                                                                                                                                                                                                                                                                                                                                                                    .                           ",
"                                                                                                                                                                                                                                                                                                                                                                                                                                                                                                  6 6                           ",
"                                                                                                                                                                                                                                                                                                                                                                                                                                                                                                . L L .                         ",
"                                                                                                                                                                                                                                                                                                                                                                                                                                                                                                6 U U 6                         ",
"                                                                                                                                                                                                                                                                                                                                                                                                                                                                                              & U 8X8XU &                       ",
"                                                                                                                                                                                                                                                                                                                                                                                                                                                                                          . 6 U 8X8X8X8XU 6                     ",
"                                                                                                                                                                                                                                                                                                                                                                                                                                                                                        6 L U 8X8X8X8X8X8XU L 6                 ",
"                                                                                                                                                                                                                                                                                                                                                                                                                                                                                        6 L U 8X8X8X8X8X8XU L 6                 ",
"                                                                                                                                                                                                                                                                                                                                                                                                                                                                                          . 6 U 8X8X8X8XU 6                     ",
"                                                                                                                                                                                                                                                                                                                                                                                                                                                                                              & U 8X8XU &                       ",
"                                                                                                                                                                                                                                                                                                                                                                                                                                                                                                6 U U 6                         ",
"                                                                                                                                                                                                                                                                                                                                                                                                                                                                                                . L L .                         ",
"                                                                                                                                                                                                                                                                                                                                                                                                                                                                                                  6 6                           ",
"                                                                                                                                                                                                                                                                                                                                                                                                                                                                                                                                ",
"                                                                                                                                                                                                                                                                                                                                                                                                                                                                                                                                ",
"                                                                                                                                                                                                                                                                                                                                                                                                                                                                                                                                ",
"                                                                                                                                                                                                                                                                                                                                                                                                                                                                                                                                ",
"                                                                                                                                                                                                                                                                                                                                                                                                                                                                                                                                ",
"                                                                                                                                                                                                                                                                                                                                                                                                                                                                                                                                ",
"                                                                                                                                                                                                                                                                                                                                                                                                                                                                                                                                ",
"                                                                                                                                                                                                                                                                                                                                                                                                                                                                                                                                ",
"                                                                                                                                                                                                                                                                                                                                                                                                                                                                                                                                ",
"                                                                                                                                                                                                                                                                                                                                                                                                                                                                                                                                ",
"                                                                                                                                                                                                                                                                                                                                                                                                                                                                                                                                ",
"                                                                                                                                                                                                                                                                                                                                                                                                                                                                                                                                ",
"                                                                                                                                                                                                                                                                                                                                                                                                                                                                                                                                ",
"                                                                                                                                                                                                                                                                                                                                                                                                                                                                                                                                ",
"                                                                                                                                                                                                                                                                                                                                                                                                                                                                                                                                ",
"                                                                                                                                                                                                                                                                                                                                                                                                                                                                                                                                ",
"                                                                                                                                                                                                                                                                                                                                                                                                                                                                                                                                ",
"                                                                                                                                                                                                                                                                                                                                                                                                                                                                                                                                ",
"                                                                                                                                                                                                                                                                                      o .                                                                                                                                                                                                                                       ",
"                                                                                                                                                                                                                                                                                      < 4                                                                                                                                                                                                                                       ",
"                                                                                                                                                                                                                                                                                      # I -                                                                                                                                                                                                                                     ",
"                                                                                                                                                                                                                                                                                        I H %                                                                                                                                                                                                                                   ",
"                                                                                                                                                                                                                                                                                        n n.F %                                                                                                                                                                                                                                 ",
"                                                                                                                                                                                                                                                                                        5 A.K G #                                                                                                                                                                                                                               ",
"                                                                                                                                                                                                                                                                                        & V.n.S F o                                                                                                                                                                                                                             ",
"                                                                                                                                                                                                                                                                                        o 6.A.G J c                                                                                                                                                                                                                             ",
"                                                                                                                                                                                                                                                                                        . 4.M.6.m J e                                                                                                                                                                                                                           ",
"                                                                                                                                                                                                                    # <                                                                   5.#.A.J m J , + .                                                                                                                                                                                                                     ",
"                                                                                                                                                                                                                    o 5.K -                                                               I N.Z.n.s m J 4 .                                                                                                                                                                                                                     ",
"                                                                                                                                                                                                                      6 uXB.K ,                                                           P ^.k.'.F s S K % .                                     -                                                                                                                                                                             ",
"                                                                                                                                                                                                                      . 9XvX~.v.K ,                                                       n /.z.OXn.m M  .J b %                                 . 4 .                                                                                                                                                                           ",
"                                                                                                                                                                                                                        n ZXfX~.F.v. .e +                                                 6 ].v.OXuXJ V V ' N b o                               . 5 O                                                                                                                                                                           ",
"                                                                                                                                                                                                                        % qXDXvX~.D.D.F.@.N -                                             6 tXF./.vXM.D B D D J c                               . e #                                                                                                                                                                           ",
"                                                                                                                                                                                                                        @ 5.nXDXvX~.x.l.l.v.z.J 1 .                                       < yX_./.hXtX' S N ^ V  .4                             o < + .                                                                                                                                                                         ",
"                                                                                                                                                                                                                        $ v tXcXSXvX~.v.l.j.j.j.<.S 1 .                                   # uX:X`.3XvX+.V V V C M  .%                           % b . +                                                                                                                                                                         ",
"                                                                                                                                                                                                                        $ w n.zXcXHXfX~.l.j.<.@.X.X.o. .q X                               # wXzX*X:XzXA.C M V V M C J +                         - H . X                                                                                                                                                                         ",
"                                                                                                                                                                                                                        X 9 F tXkXnXJXfX~.l.j.<.@.[ D ( o. .e X                           o qXzXjX2X6XyXJ M V V M M D S +                       - H # . X                                                                                                                                                                       ",
"                                                                                                                                                                                                                          1 p V.zXkXNXLXaXF.l.j.,.,.} D V ^ @. .5 .                       X V.zXlX6X2XzXM.V V V M m s C S $                     , K %   +                                                                                                                                                                       ",
"                                                                                                                                                                                                                          ; p H aXlXkXNXFX].l.l.<.,.,.O.^ V V [ <.S -                     + 5.jX6X6X;XlXtXS D V M s 0 9 N D -                   , K <   X .                                                                                                                                                                     ",
"                                                                                                                                                                                                                          $ p s A.zX3XjXNXNX'.l.j.<.,.@.O.{ D V ^ ,.O.p $                 . P -X;X6X*X3XhX..S V M u 9 ; 1 M X.:                 , K 5     X                                                                                                                                                                     ",
"                                                                                                                                                                                                                          . 9 s 4.zX2X2XkXDXNX'.l.<.<.<.@.{ { ( D ^ ,.| S v -               6 OXoX*X*X&XpXV.m C s 0 9 : : y C ^ X               < +.b     O                                                                                                                                                                     ",
"                                                                                                                                                                                                                            1 s N wX2X+X<XzXVXmX'.l.<.<.<.| ( ^ ~ ~ ( @.O.[ o.B -           < '.~.`.&X~.=XOXa m y ; > : 9 y u D p               , o.H     . .                                                                                                                                                                   ",
"                                                                                                                                                                                                                            @ y s n.dX+X<X2XzXNXmX'.l.j.,.,.| ( V V V ^ ,.j.,.l.j.J 4 .     # N.H.~._.z./.].4.2 p @ > 9 2 y y u N $             ,  .p                                                                                                                                                                           ",
"                                                                                                                                                                                                                            . 3 a F tX+X+X,X2XMXNXmX'.v.<.,.@.} ^ V M V [ l.D.v.l.l.l. .4 .   +.v.l.F.<.j.v.Z., 3 1 @ 2 > 9 y y 9 3             , C $                                                                                                                                                                           ",
"                                                                                                                                                                                                                              + 9 y V.:X{.*X,XdXBXVXZX'.x.<.O.{ ( A V V V @.D.D.D.j.<.<.j.K - F l.,.j.} } <.^.G * y : * : 2 0 u y q :           + w X                       . $                                                                                                                                                 ",
"                                                                                                                                                                                                                                ; y H tX_.}.,X,XkXNXVXmX/.l.<.| ^ A V V V ( j.l.D.l.,.| } @.m w ,.[ @.{ ^ } k.N.$ 1 s ; * X @ 0 j w e .         . 1 .                         .                                                                                                                                                 ",
"                                                                                                                                                                                                                                X 9 a A.&X_.*X,X=XhXNXcXhX~.l.l.@.^ V V V ( ,.<.l.l.,.} } S * @ V ^ ^ [ S [ o.'.5 + w 2 $ 3 X $ s i 9 .           4 .                                                                                                                                                                           ",
"                                                                                                                                                                                                                                  1 y 4.pX_.}.;X,X=XzXcXlXaXv.v.l.@.( A V ^ ,.,.,.<.,.} { M .   2 ^ ^ ^ S } { B.I + + : . s V 2 u s s :           e +                                                                                                                                                                           ",
"                                                                                                                                                                                                                                  X 0 m wX`._.*X,X+X+XhXcXzXaX~.H.l.| [ A ~ | ,.| ,.,.| { C X   X V [ D S [ } v.Z.o   + X : D ~ M M a p X         5 ,                                                                                                                                                                           ",
"                                                                                                                                                                                                                                  . 9 u 5.-XH.+X,X*X).`.zXjXzXpX~.J.l.| ( [ | | | | | | } ( 2     3 [ ^ S { } @./.5       X p 3 m V M j 1         - e                                                                                                                                                                           ",
"                                                                                                                                                                                                                                    ; y N wX(.(.;X,X).F.&XzX<XzXpX(.F.<.{ [ | ,.<.,.} D [ { V +   X B [ [ | O.o./.4.        $ : X * * ; : .       X 5                                                                                                                                                                           ",
"                                                                                                                                                                                                                                    * w u n.].F.+X,X_.D.F.:XlX,XnXtXH.v.,.[ } ,.<.,.| M s D } w     9 { O.j.@.@.v.'.&         X @                   4 .                                                                                                                                                                         ",
"                                                                                                                                                                                                          < , #                     . 1 y N '.J.}.,X+XD.D.~.hXkX:XmXtXD.l.O.} ,.<.<.,.D j M ( ^ -   $ [ <.x.<.<.@.#.c           @ .                 * X                                                                                                                                                                         ",
"                                                                                                                                                                                                          4 < +                       $ w y 6.(.(.;X;XD.l.l./.nX2X:XmXyXv.,.O.<.<.<.<.^ j i M S B .   v ,.x.x.x.S : v .       X 2 @                 .                                                                                                                                                                           ",
"                                                                                                                                                                                                          + $ $ .                     . > y F ^.H.{.<X(.l.3.l.OXjX+X-XZXyXj.} ,.<.j.l.| M j 3 M [ w   1 ^ x.x.l.v   $ .         X                                                                                                                                                                                               ",
"                                                                                                                                                                                                          . @ * , : $ X   + +           > y y b.(.J.+X`.l.<.>.k.-X*X{.-XmXuX#.[ ,.<.<.,.M y u w V D + X 1 ' S v -                                                                         + +                                                                                                                                   ",
"                                                                                                                                                                                                                $ 1 3 3 1 : 3 w ; +     ; w y J /.(.}.*Xl.{ ( _ B.-X{.).-XvXiXb.^ A A V j 0 y u 0 s 3   . $ .         # .                                                                 % +                                                                                                                                   ",
"                                                                                                                                                                                                                  . : e e p p w 9 p e - * 9 y s N.`.).;X~.{ ~ ~ ( Z.&XJ.J.-XbXfXN.' 0 1 9 y 0 9 . X $ .       . * .   P I %                                                               + .                                                                                                                                   ",
"                                                                                                                                                                                                                      X 4 a N B a : w m s y p u ..].~.&X`.( ~ A Z ^ /.).D.~.^.'.Z.o.J 3 $ * * .                 + : > H bXm.2 $                                                           .                                                                                                                                     ",
"                                                                                                                                                                                                                          . 1 m C C M i y s m j N '.~.`.+Xo.Z Z Z x X.`.H.D./.' +.' h M p +               .       + 0 F iXbXI s 1 .                                                                                                                                                                                             ",
"                                                                                                                                                                                                                            . 9 M M M V M j M M M 6./.F.`.B.Z k k k x k.(.D./.M.h M k 8 2 p -                     . 8 i wXMXiXF s a $                                                                                                                                                                                           ",
"                                                                                                                                                                        + $ : ; : * $ @ X . .                             . $ 9 y u u i j M M M M C B.D.(.(.D k h k x ! v.z.W.wXV r 8 > . + 2 1 +           . . . > r u A.vXmXqXp y M 1 .                                                                                                                                                                                       ",
"                                                                                                                                                                  X * 3 w p y y y y y w 0 9 2 ; X                 X $ $ $ 1 0 y y u u j h k M k j j ' x.x.H.1.k k k h h ( ,.O.'.6.f *         + @ .         . 2 X + 8 y V.mXMXZX4.8 M M 9 @                                                                                                                                                                                     ",
"                                                                                                                                                          < 7.m.m.n.V.V.M.M.M.M.V.V.V.V.V.M.M.M.6.4.4.4.+.K J F G J K J J ....+.+.+.6.n.M.M.M.M.+.m j @.l.j.F.C h k h h z ( / 1.'.x 0 O         . @ .         , 4   ; r 4.OXpXBXwXN u Z s 9 $                                                                                                                                                                                   ",
"                                                                                                                                                            n iXLXHXVXnXcXcXMXMXcXzXzXzXjX3X2X*X}._._._._.J.F.D.D.F.D.v.x.F.(.(._.}.+XdXzXzXzXlXpX6.h V <.<.l.<.k h h h z z x ! V.' z j O         . * .         4 * 8 r K `.`.MXmX6.u u y > 2 - .                                                                                                                                                                               ",
"                                                                                                                                                              < qXFXHXJXHXVXMXzXxXxXlXlXjX2X*X+X+X+X}.}.{.{.).J.H.F.H.F.F.J.J.J.).{.}.*X1X3X3X,X,XOXC k ^ { { l._ x z g z x x z ~ +.x Z k X         . * .     . + > 8 r H OXF.pXBXyXJ 9 9 2 3 w 9 @                                                                                                                                                                             ",
"                                                                                                                                                              @ a A.NXNXDXJXJXHXDXNXMXzXzX6X+X}._._.(.(.(.(.(.J.F.F.F.F.D.F.F.J.J.).{.+X+X*X*X;X,X:Xb.k Z _ ! ` } / ! z z x x x z ! ` ! ! y . X       . * .   + ; $ 0 7 d OXD./.lX3XN.2 * 2 $ * 0 9 $                                                                                                                                                                           ",
"                                                                                                                                                              . 9 s n.vXBXBXVXSXJXLXLXHXmXhX=X}.}._._.(.(.(.(.J.F.F.D.D.D.D.D.D.F.F.J.).{.}.+X+X+X+X`.J k A Z x ! ! ` Q x x R R R R Q ) E Q f 7 @ +     X * .   * * ; 7 s tXF.l.&X+XoXb + 1 @   @ @ + .                                                                                                                                                                         ",
"                                                                                                                                                                $ w s ..uXBXcXMXBXDXHXJXJXJXGXmXaX-X}._.(.(.(.(.(.H.F.D.D.D.D.D.F.F.J.J.(.{.}.+X+X+X}.B.Z x Z x Z x ! ` R R R Q Q ) $.$.) $.$.) z >       @ @     ; ; 8 u wX/.l.H.H.(.^.& @ 2 .   .                                                                                                                                                                             ",
"                                                                                                                                                                  $ q a J wXBXcXzXzXMXMXBXDXFXHXHXFXZXbXaX]./.~.~.J.J.F.F.F.F.F.F.F.J.J.(._.{.+X+X+X}.}.1.! ! ! ! x x / =.) ) ) ) $.*.*.*.*.*.*.$.E f > * > > > X . 8 r r A.`.l.D.D.x._.+.. 1 $                                                                                                                                                                                 ",
"                                                                                                                                                                    $ w s N C.nXcXjX6XjXlXcXMXBXBXVXDXHXJXHXZXgXsX]._.(.J.J.(.(.(.J.J.(.{.{.}.+X*X*X*X+X/./ ! ) ) Q R x =.:.$.&.&.&.e.p.p.y.0.*.$.E E T z f r r N w h k r V.`.v.D.D.l.l.v.4 X >                                                                                                                                                                                 ",
"                                                                                                                                                                      $ w s m 6.yXzX3X2X6XjXlXzXcXMXMXBXNXBXNXVXDXSXmXvXpX&X}._.(.).).{.}.+X*X;X,X,X,X2XdX1.) %.%.%.) R Q Q.Q.e.e.t.p.L.L.d.p.y.*.$.) T z z z f f ] / f r 6.].l.D.D.l.<.l. .. * $                                                                                                                                                                               ",
"                                                                                                                                                                        + 0 s s J '.kX2X2X2X6X6XlXzXzXzXlXzXMXcXcXcXMXNXSXSXZXfX-X].`.{.+X*X;X,X,X2X2X2XlX].` ) ) $.%.$.) =.aXsX[.L.L.K.f.d.i.e.0.&.$.) T l l l l g / x r 2 ..D.F.D.l.<.,.,.q   .                                                                                                                                                                               ",
"                                                                                                                                                                          $ 9 s s N V.pX,X;X,X,X2X3XjXkXjX2X2X3XjXlXzXMXMXMXNXSXZXNXnXhXdXdX2X2X2X2X3X2X3XkXQ.) ) ) ) $.&.*.Q.SXSXmXsXXX[.K.d.d.i.0.&.$.) E Y R R R Y x r > @ v v.F.x.,.O.O.D $             + <                                                                                                                                                                 ",
"                                                                                                                                                                            @ 9 y s m n.pX,X,X,X,X,X,X2X2X2X<X;X+X+X=X3XkXlXzXzXpX]./.].].yXaXvXzXlXkXkXkXkXpX2.$.$.$.&.*.q.i.sXHXFXHXSXvXXX[.K.K.d.t.e.*.*.*.*.*.%.-.` z r > X 4 #.D.<.} [ C 2 .             e -         . -                                                                                                                                                   ",
"                                                                                                                                                                              X 2 y s j 4.yX:X:X1X,X,X,X,X,X,X<X*X{.J.(.(.{.}.`.].`.F.3.-.-.>.8.Z.'.aXnXMXMXMX-X=.$.&.0.i.s.s.[.GXFXDXDXVXVXbXXXL.K.d.t.e.e.:.*.%.) ) ` Q g 8 ; . # B m s V V w -             + e .   X % # H .                                                                                                                                                 ",
"                                                                                                                                                                                . 2 y s m 4.fXdX=X,X,X,X,X,X,X,X,X*X_.F.D.D.J.G.S.l.l.l.3.>.} ` ` ` >.8.!.uXnXMX-X2.0.q.s.f.K.U.sXJXBXBXBXBXMXMXaX[.d.a.e.e.*.%.$.) R x z g f > @   . ; w j M p a %             % %   o - # K .                                                                                                                                                 ",
"                                                                                                                                                                                  X 9 y j M 4.uXpX*X*X=X,X,X,X1X,X,X,X_.F.D.D.F.J.D.l.3.,.,.;.-.-.%.) ) ) %.2.Q.].XX[.f.d.f.I.U.|.ZXHXMXBXBXcXlXlXzXrXL.t.0.*.$.) R z g f r > X         + p V q v F .             #     O # G                                                                                                                                                   ",
"                                                                                                                                                                                    $ 0 i m M ..wXpX=X*X=X,X,X,X2X,X,X,X_.J.F.F.D.D.l.-.-.-.-.-.;.;.:.%.$.) $.*.0.u.u.p.L.L.U.Y.Y.sXJXBXcXMXMXxXjX2XdXsX!.u.&.$.E Y l f f r > +             1 N s  .5                     + e                                                                                                                                                   ",
"                                                                                                                                                                                      2 y i m M J A.pX,X,X,X2X3X3X2X,X*X}.l.,.>.,.;._ } -.} ` ` %.-.:.:.:.*.*.*.e.t.t.q.t.f.Y.Y.E.|.ZXSXcXcXcXcXxXlX2X>X>X=XW.) Y Y l f f f r > .             % v  . .+                   . %                                                                                                                                                   ",
"                                                                                                                                                                                      ; w u j m M C M.aXnXnXzXlXdX2X=X+X_.z.} } } -.` ` ` ` %.-.-.-.%.%.%.*.r.p.d.K.d.s.d.I.E.E.|. X1XFXMX7XxXcXzX3XjX3X<X#X$X(.>.R l l g f r r > @ .           . b #.e                     +                                                                                                                                                   ",
"                                                                                                                                                                                      + 0 i i m M V V +.wXmXNXVXBXMXBXBXcXpX^.>._ ` ` ` ` ! ) ) ` %.-.*.*.0.e.p.K.I.Y.I.I.Y. X#X#X#X#XnXVXxXxXxXMXdX$X.X.X$X{.{.{.H.3.` g f 7 ; .                 . , e -                   .                                                                                                                                                   ",
"                                                                                                                                                                                      X 9 y s m M V V A ( 1.N.'.uXvXNXNXMXMXcX&Xz.>.` ` ` ` ) ) ) $.%.*.*.e.t.d.I.Y.Y.Y.Y.E. X#X%X%X%X2XFXBXcXcXMXNXdX$X XR.R.|.{.{.{.).F.] f @                       X -                 . %                                                                                                                                                   ",
"                                                                                                                                                                                      @ 9 y s j M C ' 6.k.{ ` ( ] +.M.'.uXfXmXMXzX&XW.>.%.%.` ) ) $.%.*.e.t.s.K.U.Y.Y.Y.Y.Y.E. X#X%X%X%XMXhXdXNXdXdXzX,X+X.X|.T.T.P.u.D._.{.F.K < .                                       - H                                                                                                                                                   ",
"                                                                                                                                                                                    . 2 y y i F n.'.tX3X:X~.O._ _ ` ! ! _ o.8.A.uXbXmXfX].z.>.%.%.%.*.*.e.t.d.K.I.Y.[.|..XXXXXdX1XdXkXdXzXdXE..X.X>X$XE.Y.Y.P.L.K.p.*.$.] +.k.x.B.#.e o                                   # b                                                                                                                                                   ",
"                                                                                                                                                                                    * y u J V.tXdX3X1X3X;X_.l.` ` _ _ ! ! ! ` ` ` >.8.C.'.].OX!.u.y.u.!.rXsXsXaXnXnXmXNXNXNXVXBXBXDXFXJXKXnX X|.E..X.XY.Y.Y.Y.L.K.i.0.*.$.R g 8 1 b +.4.5 .                                 X                                                                                                                                                   ",
"                                                                                                                                                                                    , K Z.-XdX2X2X3XlXlX=X3.} _ ` / ` ` ! Z x ! ! ) Q Q Q ) =.8.!.!.[.[.XXnXNXBXBXBXBXBXMXMXMXBXBXDXFXHXPXLX,X XE. X.XE.Y.Y.Y.Y.K.p.e.*.$.) Y z r ; . 4 H n < .                                                                                                                                                                                 ",
"                                                                                                                                                                              - n 7.wXhXlXkXkXzXnXMXnXkX&Xz.>.>.>.` ! / _ ! Z x x ! Q R Q ) ) E $.*.u.[.L.L.-XNXDXDXDXVXVXBXBXBXVXFXHXHXLXUXnX X X X}.|.Y.L.K.d.p.y.e.y.*.%.) z f f ;     % d b % .   .                                                                                                                                                                         ",
"                                                                                                                                                                              # a H I n.qXfXZXDXDXNXnXzX3X+X~.D.z.>.! Z / } / x x z z z R ) $.$.&.&.9.q.i.s.g.XXZXHXVXBXBXVXVXDXFXHXJXLXPXIXKX>X XE..XXXU.K.d.t.q.&.$.$.$.) ) ! z 7 *         % o                                                                                                                                                                               ",
"                                                                                                                                                                + + + .   . X ; y u u y j J 6.A.uXvXnXnXzXkXpX:X&X}.W.o.! ! _ ! x x z z z E ) $.&.&.9.0.q.s.g.g.[.gXFXVXBXBXDXDXFXHXLXPXPXIXIXmX$X X.X.XY.d.s.t.0.*.$.E T z l f f 8 @                 .         .                                                                                                                                                               ",
"                                                                                                                                                    . + $ ; - , e v B S S ' ^ ^ X.O.@.@.1.<.O.X.X.+.M.wXgXnXnXnXkX1X,X+Xv./ ! ` ! z z z R ) $.&.*.0.0.q.q.s.g.g.U.Y.sXFXFXVXDXFXHXJXLXPXIXIXIXKX>X X.X.X.XI.d.a.q.&.$.E T T l f f 7 X               . - X . 5 %                                                                                                                                                                 ",
"                                                                                                                                              . $ : 2 w G 5.n.b.N.B.B.v.z.<.<.,.,.<.x.F.(.(.H.J.D.l.} (  .6.M.C.'.'.].-X}.(.<.` ` ! R R E ) ) &.*.q.t.a.s.g.g.g.U.Y.Y.XXZXJXFXFXFXHXJXLXPXIXUXUXmX XY.Y..XU.d.s.t.9.&.E E Y z f f 7 .     . $ +     O ; + . e b : .       .                                                                                                                                                     ",
"                                                                                                                                          . $ 2 w v I A.aXnXnX'.1.<.o. .' ' ' X.o.,.l.l.D.F.F.F.H.F.D.l.3.} / ! ! / / ] ] X.>.>.>.3.3.%.) $.$.&.&.9.q.q.s.d.g.I.I.U.Y.Y..XnXJXFXFXFXHXHXJXIXIXIXPX>XE.Y.Y.Y.d.s.q.0.&.W E Y z l f 7 X       . $ $ X   . .     . .                                                                                                                                                               ",
"                                                                                                                                    X $ - 1 0 F 6.'.pX-X&X*X2XzXfX^.l.k.<.<.,.@.O.,.l.l.D.F.F.F.F.D.D.S.l.l.3.` ) ) ) ) Q R R R Q ` W.`.u.*.*.*.0.0.q.q.s.g.I.U.Y.Y.E.|. X XsXHXSXHXHXJXJXPXIXJXJXnX XY.Y.I.g.s.t.0.&.W E T z l f >         . .         .                                                                                                                                                                       ",
"                                                                                                                                + 1 w y p v 6.].-X].`.`.}.&X*X:XzXbXZ.,.,.<.<.>.} { _ ( _ } >.<.l.x.D.D.l.l.3.3.-.` ` ) ! Q Q $.$.%.*./.pX`.S.r.p.p.p.s.s.g.I.U.Y.E.E. X X X X>XVXHXFXJXLXPXUXIXHXNX.XY.U.I.d.s.q.0.&.$.$.E Y l f 7 .         .         $ +                                                                                                                                                                     ",
"                                                                                                                          . * 2 w y s G n.].-X`.~.(.`.}.`.}.&X=X3XzXNXyXN.} } } O.} _ / / A A Z A / _ ;.3.3.3.;.;.3.3.3.-.) Q ) $.$.&.*.!.aX:X}.[.L.f.g.g.I.I.U.U.U.Y.E. X X XE.$XnXJXJXJXPXUXUXIXPXnX|.Y.I.g.s.q.9.&.$.$.E R Y g f > + .               . + .                                                                                                                                                                   ",
"                                                                                                                      . $ 2 w p s K V.tX-X`.~.~.(._.`.`.`.&X=X:X3XkXcXVXbX'.,.-.>.>.>.} { _ ( / / / / / ` -.3.3.3.3.3.S.S.u.:.$.$.$.&.&.*.u.&X3X,X>X.XE.Y.Y.Y.Y.Y.Y.Y.E.E. X X X#X$XzXJXLXPXUXUXIXIXPXsX[.U.g.s.q.0.&.$.$.E Y z g f r ; +                             .                                                                                                                                                         ",
"                                                                                                                . * 1 3 0 p N ..A.pX3X&X`.`.`.`.`.`.`.}.&X=X:X:X3XkXzXMXVXFXfXN.-.} } } } } } } } } -.-.` %.-.:.:.-.:.:.:.r.r.r.e.*.&.*.0.q.p..X+X|.|.|.|.Y.Y.E. X X X X X X X#X%X%X%X6XSXPXIXIXIXIXPXLXXXU.I.d.s.i.0.&.$.E Y l g f r r 7 ;                           . .                                                                                                                                                       ",
"                                                                                                        . $ ; 1 9 w p s J N.].pX:X=X&X&X&X&X+X}.+X+X+X&X*X,X1X3XjXzXMXMXMXVXJXAX'.o._ ( ( ( ( / ` _ -.-.-.-.-.-.:.:.3.r.r.r.r.r.e.0.0.q.t.i.s.d.[..XU.I.U.Y.Y.E.|. X X X X#X%X%X4X4X4X4X7XBXLXPXPXPXPXPXZX.XI.g.d.i.p.].'.^.Q.B.1.1.+. ... .G H n < X                                                                                                                                                                           ",
"                                                                                                    O : 9 p a a s N +.^.-X:X=X`._.}.}.}.`.`.}.+X*X=X=X,X2X3XkXzXcXMXBXBXBXBXVXHXGXuX1._ _ _ _ _ ` _ -.-.-.;.;.3.3.u.S.G.G.P.P.P.P.P.L.p.s.d.f.f.f.Y.|.Y.U.U.Y.E.|.|.|.|. X#X%X4X4X4X4X4X4X4XcXJXPXPXPXPXPXmX|.Y.[.[.[.>X{.P.G.G.G.J.{.}.}.}.{.*XpXOX#.K b 5 4 4 % .                                                                                                                                                             ",
"                                                                                              . + 1 w a s s F +.N.OX3X:X&X}.`._._.`.+X*X,X1X3XjXlXzXcXcXcXMXMXBXBXBXBXBXBXBXBXBXNXmXfXB.O._ _ { _ ` -.-.;.3.S.S.S.S.G.G.G.P.P.T.T.|..X.X|.Y.Y.Y.Y.U.Y.|.|.Y.|.E.E.E.|. X#X#X%X4X4X7X7X7X7X7X7XMXJXLXLXLXLXJXnXnXdXdXkX,X+X}.{.{.).)._._.}.].&XOX'.Z. .G b e d K G a 3 - +                                                                                                                                                       ",
"                                                                                          X : q w p a N ..V.tXhXlX3X=X&X&X&X*X*X;X,X2X6XjXlXlXcXcXcXMXMXMXBXBXBXBXBXVXVXVXVXBXzX,X:XpXpXW.O._ ( / / ` _ -.-.;.3.S.G.P.T.T.P.K.K.L.P.|. X X X X X X X|.|.|.|.|.|.|.|. X#X#X%X4X7XxXcXMXBXDXHXJXLXLXLXPXLXGXNXSXHXzX<X,X*X}.}.}.}._.`./.^.^.^.N.+.+.S -           . X X X X .     .                                                                                                                                               ",
"                                                                                      + 1 q p p s K N.OXhXMXMXcXlXjX6X:X=X*X*X*X*X,X2X6XlXzXcXcXMXMXMXBXBXBXVXBXVXVXVXVXVXBXlX,X+X}.(.~.(.~.,.` _ ` ` _ ` -.-.;.u.S.G.P.T. X X{.|.E.E.|. X X X#X>X3XlXzXdXXX X X X X X#X$X%X4X7XMXGXPXUXUXUXUXUXUXPXJXDXBXSXJXHXDXdX$X|.T.P.G.u.:.-.-./ ! ! ~ / V *     .           O O 4 b b H H e 4 1 : - - @                                                                                                                                 ",
"                                                                                  O 1 w a s J n.'.hXMXMXcXcXcXlXkXjX3X:X:X3XdXdXjXjXkXlXzXMXMXBXVXVXDXDXFXFXDXDXDXVXVXBXnX3X*X+X_.~.F.D.D.(._.v.>.-.` ` -.-.-.:.3.S.S.G.P.T.R.#X$X#X$X<X<X<X,XkXMXBXBXMXMXBXkX#X#X%X<X%X4X5X5X7XxXMXHXLXPXIXPXJXDXMXcXcXBXHXDXDXDXNX>X|.T.P.p.y.:.%.! x x ~ ( M *             + .       . + + # # X .       .                                                                                                                                   ",
"                                                                                X 9 a N 4.'.aXMXMXMXcXcXcXcXcXcXMXMXMXMXMXMXNXMXNXNXNXSXSXFXHXJXJXJXJXHXHXHXFXFXDXBXzX3X*X+X_.(.H.F.F.F.D.F._.=X`.D.3.-.-.:.:.:.3.3.u.S.G.P.T. X#X%X%X,XdXzXNXBXBXVXVXVXNXDXDXMX6X5X5X5X4X4X4X7XxXMXBXMXcXcXxX7X7X7X7XxXFXHXDXDXVXVXzX.XP.L.p.r.%.) R Z / ( D p > @                                                                                                                                                                             ",
"                                                                                1 G n.tXnXBXMXMXMXMXMXBXBXBXNXNXDXSXFXHXHXHXHXJXJXJXJXJXJXJXJXLXLXLXLXLXJXJXJXHXNXlX=X}._.(.(.F.F.W.W.W.~.(._.`.:XpXOX/.D.S.S.S.G.G.G.G.G.P.T. X$X1XkXMXDXVXDXSXHXJXKXPXPXPXIXUXJXMXxX5X5XxXMXNXMXcXxX7X5X5X5X5X7X7XxXMXLXHXFXDXDXDXVXzX.XL.p.:.) ! ! _ ( A 3 * .                                                                                                                                                                               ",
"                                                                            & n C.aXNXDXFXSXDXSXFXHXJXJXJXJXJXJXJXJXJXJXJXJXJXJXJXJXJXLXJXJXJXLXLXLXLXLXLXJXHXVXnXzXkX3X2X,X;X*X*X&X*X=X,X1X2X2X2XzXNXNXnXpX}.(.J.{.{.{.{.{.$X2XlXcXMXVXHXJXPXIXUXUXUXUXUXUXUXUXIXJXNXcXkXdX,X%X%X%X$X$X$X%X%X%X5X<X6XDXLXFXDXDXFXFXDXVXpXG.y.*.%.%.>._ ~ 9 .                                                                                                                                                                                   ",
"                                                                        6 m.iXGXJXJXLXPXPXKXLXJXJXGXGXGXGXAXZXSXSXSXSXSXFXHXJXJXLXLXLXLXLXLXLXLXLXLXLXPXPXLXLXJXHXHXHXFXSXDXNXMXnXnXzXzXzXkXkXkXnXNXSXHXLXJXVXzXjXjXjX6XlXxXxXxXxXcXcXVXLXUXUXUXUXUXUXUXUXIXUXIXPXFXBXkX$X#X#X$X%X%X$X$X$X%X$X%X%X%X6XJXJXFXDXDXDXDXMXkX.XG.y.:.-.-.` Z h 2 .                                                                                                                                                                                   ",
"                                                                        o 6 I A.aXnXnXnXnXnXnXzXkXdX-X-X&X`.`.`.`.`.`.`.].&X-XpXpXpXhXzXnXnXnXMXMXNXNXDXFXFXDXNXNXNXnXzXdX3X=X&X`._._._._._.`.`.+X=X:XnXSXnX:X&X+X+X*X&X&X&X&X&X=X:XdX6XlXBXFXKXPXPXIXIXPXPXIXIXIXLXDXBXMX2X<X2X<X<X%X%X$X$X$X$X%X%X6XFXJXFXDXDXDXcX,XP.p.e.*.%.` ) x f r +               . X X .                                                                                                                                                               ",
"                                                                              o 4 K Z.&X-X-X:X:X1X=X]./.~.~.W.W.F.F.F.F.F.~.~.~.(.(._.}.}.}.}.}.&X*X*X*X=X=X=X-X&X&X+X{.(.J.F.D.S.l.l.l.l.S.F.F.~.).*XdX=X).J.P.G.G.G.G.P.P.P.P.L.K.L.Y..X>X3XlXcXcXcXMXMXMXBXVXBXMXNXSXVXNX3X%X$X$X#X$X#X$X$X$X%X%X5XBXHXDXDXDXBX>XY.d.t.*.%.) Q Q x h y $ .   . . .   - s J J m ; X               ; O                                                                                                                                         ",
"                                                                                    % b 6./.].].`.`.`.~.W.W.F.F.D.D.F.F.F.F.F.F.F.F.F.F.D.D.D.D.D.D.D.D.D.D.D.D.D.D.D.D.S.l.3.3.<.<.<.<.3.3.l.S.(.}.}.(.D.S.G.G.P.T. X@X$X%X@X{.T.P.I.I.U.Y.|. X$X<X5X7X7XxXxXcXcXDXJXDXBXFXDXlX%X$X#X#X$X%X%X%X%X%X4XjXSXDXDXMX.XY.K.p.p.e.:.*.%.` ` ! ! k u 0 0 9 1 3 G ..G e %                   $ +                                                                                                                                         ",
"                                                                                        % c ..Z.].`.~.v.v.v.v.z.z.z.z.z.z.z.z.l.l.l.<.<.<.<.<.<.<.<.>.,.,.,.>.>.,.,.>.>.>.} } { { { { } } -.3.F.(.F.l.,.3.S.G.R.@X%X4X%X%X{.T.T.T.R.R.E.Y.Y.U.Y.E. X X#X%X4X5X7XNXIXPXHXHXHXHXFXcX5X5X5X5X5X%X%X%X@X%X5XcXHXMX.XY.L.K.p.y.e.:.%.%.%._ o.O.O.X.' C a w 3 4 #                                                                                                                                                                     ",
"                                                                                          + * e H M./.~.v.j.<.<.<.<.<.<.,.@.O.o.} } { [ ( { } X.X.X.} } } } { _ _ _ _ _ _ _ ( ( / / / _ } ,.D.F.<._ / ` 3.G.R.@X%X@X@XR.T.T.P.P.P.L.K.L.U.Y.Y.Y.E.|. X#X%X4X4XMXIXIXIXLXHXFXHXHXFXMX6X5X5X7X5X4X%X@X@X@X6XmX>X|.[.P.G.G.S.S.S.3.1.@.+.+.F w : + . . +                                                                                                                                                                           ",
"                                                                                              X + + < K B.W.j.@.O.@.,.@.@.O.X.[ ( ^ ~ ~ ~ ( ( ( / ( ( ( ( ( / ~ / / / ( ( / / ~ ~ / / _ O.l.l.X.V Z / -.3.J.{.@X+X{.).F.S.u.r.r.p.p.K.P.Y.Y.Y.Y.E. X#X$X%X%XzXPXPXIXIXLXHXHXHXHXHXHXSXcX7X7X6X6X2X,X>X*XsX.XP.L.G.u.:.=.` Q z f 8 : : ; X                                                                                                                                                                                       ",
"                                                                                                        % b #.v.z.,.O.o.O.@.O.O.o.{ [ ^ ~ ~ ~ ~ ~ / / ~ ~ ~ A ~ A ~ ~ ~ / ~ ~ ~ ~ / ( O.3.>.A k Z / -.3.D.J.(.).(.D.3.:.-.%.*.:.e.p.p.K.L.Y.Y.Y.E. X X X$XnXIXIXLXIXIXLXHXFXHXJXJXJXLXLXmX>XXX.X[.Y.L.d.p.t.q.9.&.&.$.$.) T l f r > * @ +                 . # + X             # .                                                                                                                                               ",
"                                                                                                            X 5 ..v.v.<.o.( ^ ^ ^ ( { o.O.o.{ ( ( / ~ ~ A A A A A A A ~ ~ ~ ~ ~ / _ <.l.' M Z ~ { ,.S.F.D.z.<.O.` ` ` ` ) ) %.%.*.e.p.d.K.I.U.U.Y.Y.E. XhXIXIXPXLXIXIXJXFXFXHXLXLXLXPXJXXXY.U.I.K.d.i.t.q.9.&.&.&.&.*.$.T l f r ; X .               . - 4 b G F e X           % X                                                                                                                                               ",
"                                                                                                                  - G k.z.<.X.( ^ ^ ^ ( ( O.<.<.,.,.} { ( ~ A A A A A A A A ~ ( ,.F.v.' A / _ } >.,.O.( Z x x Z ! ! ! ! ! Q Q ) $.*.e.i.d.d.g.I.U.Y.Y.sXPXPXIXIXLXJXJXHXFXDXHXPXPXPXPXsXY.Y.I.d.s.t.q.0.&.$.$.$.*.$.E T Y z f 7 .             . . + , e - % e , .             X .                                                                                                                                               ",
"                                                                                                                      + e ..k.<.@.O.O.@.O.} } ,.<.,.,.O.} { ( ~ A A A V A / _ k.(.v.X._ _ _ ( A V M M k k k x Z x x x x x R Q ) $.*.q.i.d.f.I.U.Y.Y.XXGXJXJXPXLXHXFXHXJXJXHXJXLXLXPXmX|.U.I.g.s.t.q.*.&.$.$.&.*.$.E E ) ) R f 7 .           . ; q 1 +         . .             o +                                                                                                                                               ",
"                                                                                                                          . 4 J k.z.<.<.<.<.,.,.,.,.,.>.>.O.} _ / A V ~ { X.v.`.v.>._ ~ V j u 0 y u h h h k k k h h z z x Q ) %.*.y.p.f.L.g.g.U.U.XXJXFXSXJXJXFXDXFXHXJXLXJXHXJXPXGXXXY.U.g.d.s.s.q.9.&.e.p.e.$.T T E ) ) l f >       O , 3 , * X                                                                                                                                                                               ",
"                                                                                                                                % e J @.<.<.,.,.,.,.,.,.>.>.O.} _ ( _ O.<.^.].B. .M j u y y y y u j k k k k k h h h z x R ) %.e.p.p.i.d.s.s.g.U.rXKXHXVXVXDXDXVXVXDXDXDXFXSXFXLXLXrXY.U.I.g.d.s.t.0.t.K.K.r.$.T Y l Y ) Y g g t q - 4 N p - .                                                                                                                                                                                   ",
"                                                                                                                                    . - v @.j.@.{ { o.@.,.,.>.O.O.>.<.B.].wX4.a 0 9 y y 0 y u j j M V ~ / / / ! Z x x x R ) $.*.0.9.0.q.i.s.g.rXIXLXVXDXNXMXMXMXBXBXBXVXDXFXHXLXsX[.Y.U.I.g.d.t.0.0.i.i.&.E T Y l l l Y l Z 8.M.4.K F , .                                                                                                                                                                                       ",
"                                                                                                                                          % b b.k.@.O.O.,.O.O.,.z.^.'.wX5.d > * : - : 2 0 u j k M V V M Z A Z x h r f f z Y E $.$.&.&.0.q.s.rXKXFXDXDXMXzXzXcXMXMXBXBXBXVXFXHXZX|.Y.U.U.I.g.s.i.y.y.0.&.$.W E T Y l l f g N s 3 ; $ .                                                                                                                                                                                           ",
"                                                                                                                                              & H n.B.F.D.v.v.~.-XuXV.J a ; - 3 9 2 9 p M A ~ ~ ~ ~ C C A k f 8 r r r f f l Y E W &.9.q.i.rXGXMXNXMXzXlXlXzXcXcXMXBXBXVXDXHXHXXXY.U.U.U.g.s.i.0.9.&.$.E T T T l l r 8 8 9 * . .                                                                                                                                                                                                 ",
"                                                                                                                                                  # n V.OX-XpXwXC...' ' ~ V V A A A A ^ ( ( X.>.<.<.<.,.X.~ k 7 > 8 r r f f Y E $.&.0.u.gXSXjX2XdXlXlXlXnXMXMXBXBXVXVXVXSXGXgX|.Y.U.g.s.s.q.0.0.9.$.E ) ` ) z l g 2 > > @ X + + .                     o .                                                                                                                                                                       ",
"                                                                                                                                                      o 6 I V.M.#.+.X.' ^ A A V V A ~ ( ( { X.X.{ ^ V p 2 * + ; > 7 r r r g R R ) $.h.gXmXkXjXkXnXnXMXSXGXZXmXgXsX>XXXXX.X.X>X|.Y.g.g.g.d.s.p.p.y.2.u.2.=.] >.1.1.@.C y 0 : @ .   .                 < d .           .                                                                                                                                                           ",
"                                                                                                                                                            o % , e N J ' ' ~ C V V M m M V M j y ; @ .   . # 4 a F ..4.6...! Y ) !.AXZXaXrXXX!.XX!.[.XX[.[.[.U.I.I.I.U.U.XX>XY.U.U.g.s.d.d.p.p.p.u.y.u.Q.~.F.3._ x g 8 @ X +   . .             o G 4.#                                                                                                                                                                         ",
"                                                                                                                                                                      X % * + O X .   + 2 0 y 0 q b H I b.N.N.N.^./.^.6.C g g R M.A.N.2.y.0.0.0.q.t.s.d.g.I.I.U.U.U.U.I.|.sX|.Y.I.d.s.s.s.i.i.y.y.y.u.G.3.>.! z g f > = ; * @ @ +           . 5 M.N.<                 .                                                                                                                                                         ",
"                                                                                                                                                                                  o & 4 b I 5.M.'.tXhX-X`.W.z.z.z. .j r f g l R ! ) %.*.*.*.*.0.w.w.s.s.s.s.d.g.g.g.g.U.sXsXU.f.d.s.d.s.i.i.e.0.y.:.*.` R g f 7 ; 7 ; + . + + .           , G #.'.n                                                                                                                                                                             ",
"                                                                                                                                                                          . & d U qXwX'.A.'.'.].]./.W.k.1.@.@.' q @ > r r g z R ) >.>.) $.*.y.q.0.i.s.s.q.w.s.s.s.s.s.XXbXXXd.d.s.s.s.i.q.0.*.&.$.E Y l l r @ @ @ > > * .   . @ .   . < N ' M 6.5..                                                                                                                                                                             ",
"                                                                                                                                                                          o P qXyXsXtX'.'.'.'.^.B.k.1.@.' V j 2 @   @ 8 r f z ) 1.X.! ) %.*.*.*.i.i.q.9.9.9.q.w.s.s.f.gXgXf.s.s.s.i.w.0.9.&.$.E Y l l l r > : 0 0 9 a j 8 0 j 8 + e J ^ V k J M.&                                                                                                                                                                               ",
"                                                                                                                                                                              # e ..B.W.B.k.1.1.1.1.1.1.1. .0 +   @ > r r f ] B.+.! ! ) ! Q $.0.y.0.&.&.&.9.0.w.s.f.rXmXsXd.d.s.i.w.0.&.&.$.W T Y z l r k ] o.S M D ~ x Z A j n 4.z.o.A V C 6.d                                                                                                                                                                                 ",
"                                                                                                                                                                                  . < H N.W.z.1.<.1.1.1.1.m @ . ; 0 t r k +.^.+.x x x z z Q %.*.&.E W &.&.&.0.w.w.[.gXZXsX[.[.s.q.9.&.&.&.$.W E ) 2.3.z.1.X./ ( _ A Z k i 0 e wX~.<.} ^ A +.G .                                                                                                                                                                                 ",
"                                                                                                                                                                                        # c #.k.1.1.@.1.J O + 9 i u h D 1.W.#.k k h g g z R ) Q z Y E E &.&.&.9.w.rXZXZXsXXX[.i.w.0.i.p.[.Q.Q.Q.~.B.K a 8 r i 9 ; @ + . +   n -XF.<.} ^  .6.%                                                                                                                                                                                   ",
"                                                                                                                                                                                            + a  .#.1. .* . 9 s j M ( ,.k.#.j h h h g g g z R z l z R =.$.W &.9.h.gXSXZXsXXX[.[.[.[..XsXnX'.+.] N @   = X     . @ .     @ @ 5.=X(.l.} @.N.e                 X   X .       . <                                                                                                                                                   ",
"                                                                                                                                                                                              ; w a N w > 9 m J #.1.<.z.B.j u u h h h f g x z f g ! =.` E W &.0.rXmXSXsXXXXXXXXXsXsXsXwX6.g 7 > @   . .   . .         O $ % A.=XOXz.1.Z.K $               % . . +           d #                                                                                                                                                 ",
"                                                                                                                                                                                              > y y y s ..V./.(.H.D.~.].' u h u j h f g z f r f k x l z E $.*.Q.mXSXgXXX[.h.[.rX'.8.~ f 7 @ +         + > > @ . + 4 1 +   < yX:XpX].tX6.p : @           # *   +             , #                                                                                                                                                 ",
"                                                                                                                                                                                            . 9 y F V.uXpX:X=X&X}.}.&Xb.h k k h h h h k f r t H F h x ) =.=.=.uXFXAXXXf.u.u.8...x f r 7 X         . * 8 r 8 ; q 5.d .     L pX=XnXnXA.N y 0 *         . +   X O                                                                                                                                                                 ",
"                                                                                                                                                                                          . : w F wXNXzXdX3X:X:X=X}.W.N k k k h h h j k F ..V.V.+.! R E ) ) 8.ZXAX!.y.=.) x f r r r >       . * ; @ * r r h H m.L         m.3X;XNXbX..k j y +         .     +                                                                                                                                                                   ",
"                                                                                                                                                                                          : 0 b A.kXjXjXdX3X:X-X&X`.' j j k C ' ..b.N.6.H b F j f f l Y ) $.eXAX!.=.) g r 7 > 7 r r > @ + @ @ X     > k 5.wXiXL         o qX;XdXSXm.Z A u 9 $ .           $ O                                                                                                                                                                   ",
"                                                                                                                                                                                        + 0 b qXkX2X3XjX3X3X:X&X&X#.J 4.M.V.V.M.4.H a X     = = 7 r l R E 8.AX'.=.R f r > = 7 7 r r f f r >     . > I uXSXbXL           & tX;XnXeXJ A Z y > $ + .         X                                                                                                                                                                     ",
"                                                                                                                                                                                    . ; 3 v qXkX,X3X3X3X3XdX:X-X`.'.eXA.6.G q $ $ > +           = r g l x eX0X! g f r r 7 7 r r 7 7 r f r * @ > q m.bXNXvXI   .         6 pXpXbX4.M k h 0 : $ + * ; +   . .                                                                                                                                                                     ",
"                                                                                                                                                                                  . 1 w s A.kX2X,X1X,X:XjXdX-X-XuXC.K j 0 ; @ + @               . = r r 5.m.k f f f r r r f 8 ; > 8 r 8 @ @ 7 C A.vXzXhXm.. . +         P -XaXm.M a y 2 * * + 9 p ; + . X                                                                                                                                                                       ",
"                                                                                                                                                                                  1 p m C.hX,X,X:X:X3XkXhXpXaXqX..V C V p 9 > @           X .     . @ > F r f f r 8 > r h r > 8 r r r @   ; j N.].hXnX9X#   .           5.rXC.C j > .   @ . + 0 $     + .                   % .                                                                                                                                                 ",
"                                                                                                                                                                              . : p s C.fX:X=X=X2XkXlXlXmXiXM.' X.o.X.' / A M s 0 3 - - $ @           + ; ; ; y t r u f r r r r r r 8     - M.].pXNXqX&               # A.0Xm 2 O           - - $ $ + O                     .                                                                                                                                                   ",
"                                                                                                                                                                              : p a m.fX-X:X:X:XlXzXzXmXwX..o.<.<.>.O.X._ { X.X.( D D N *                   X B k h h r r r r r r u 4 < n qXpXpXmXeX<                 d 9X& .               b B S N $                                                                                                                                                                           ",
"                                                                                                                                                                            + 9 a n.aX=X-X:XdXzXMXNXbXV. .<.<.<.<.,.>.>.O.O.{ ^ ~ A 0 +                     e X.A k y r t r u k  .n.C.Z.].&XdXnXwX6                   L <                 o ..[ [ m .   .                                                                                                                                                                       ",
"                                                                                                                                                                          : w a n.fX=X=X:XdXMXDXSXwX1.<.l.<.<.,.,.O.O.X.( ~ D A M >                       ,  .X.~ M 0 r t k +.'.].W.l.F.(.&XnXwX6                     #                   - ..[ [ w                                                                                                                                                                             ",
"                                                                                                                                                                        - w a n.vX=X=X:XkXNXHXbXA.1.l.<.<.<.,.O.X.' ( ~ D A V a $ .                     X K X.' V j r t J ^.:X-Xv.l.F.~.`.zXyXn                                           e #.S S ,                                                                                                                                                                             ",
"                                                                                                                                                                      @ 9 s 5.vX:X*X3XhXNXmXtXB.l.l.<.,.O.o.o.X.X.^ D D D D A 9 @                       b k.X.' j u J k.W.~.(._.~.~.~.].pXfXL       .                                     b @. ...#                                                                                                                                                                             ",
"                                                                                                                                                                    . 1 p 5.bXjX,XdXnXZXyX^.z.l.<.<.@.o.X.X.[ [ ( ( ^ ~ D V i 0 *                     % N.^.B. .C k.~.~.F.v.F.)._._.`.dXvX5.o       . . O               + $ . X           H @.B.4.#                                                                                                                                                                             ",
"                                                                                                                                                                    1 y 4.bXcX3XhXmXfX^.l.<.<.@.o.X.X.( ^ ^ ^ ( ^ ^ ~ C M N J J a q 1 : +             K ~.B.N.k.~.(.~.~.F.F.D.H._._.&XzXC.2 .     . % e $             . 1 + X             4.B.OXH .                                                                                                                                                                             ",
"                                                                                                                                                        . 4 +     - y 4.bXcXkXmXgX'.z.<.O.o.X.( ^ ~ ~ ~ ^ ^ ~ D ^ ' X.+.+...K b , $ .               < '.Z.tXhX`.(.(.H.F.F.F.v.(._._.3XwXb ; . . . $ 2 2               - 1               . n.-X'.5 .                                                                                                                                                                             ",
"                                                                                                                                                        . , X   . 9 I bXNXMXfX'.B.<.>.X.^ D D C V C D ^ ( X.@.#...J b 5 % .                       . m.nXkXjX3X=XoX).(.H.H.~.~.`.(.&XtXn ; + $ + $ + . .               q %               # Z.-X4.%                                                                                                                                                                               ",
"                                                                                                                                                                X H CXHXmXwXB.,.o.X.' ~ D C D D ^ '  . . .G e , X                                 4 ].*X*X;X,X;X&X`.`.).(.(./.`.}.pXI . . * @ $ .       . .     + . % v .               # A.'.d .                                                                                                                                                                               ",
"                                                                                                                                                                6 iXGXuXZ.<.o.o.o.o.X.' D B m p 3 , % # .     . %                             X . 4.}.+X*X*X*X*X&X+X+X`.+X).`.+XpXC.X   X @ O     .     X   + w 9 . 4 a                 & '.5.o                                                                                                                                                                                 ",
"                                                                                                                                                              6 iXbX^.z.k.1.#. .B a 3 - # .                 % G 4                 + + X . $ 2 2 e ].+X+X+X+X+X+X+X`.+X+X+X).+XpXiX5     + .           4 K v  .[ m @ v 4                 < uXn                                                                                                                                                                                   ",
"                                                                                                                                                            6 eX0X..F b 5 - # .                           # J b + + +     X $ : 9 2 0 p a C m a M.=X`.`.`.`.+X`.}.+X+X+X`.+X3XmXn.* $ + . + $         K ~.v.x.@.N % ..#                 6 qX%                                                                                                                                                                                   ",
"                                                                                                                                                          . 6 < .                                       . a v > 9 9 : $ X $ 0 s 2 : p C N q 0 ..OX~.H.(.).)._._._.`.`.`.+XpXmXuXe 2 3 4 w q $       # k.~.c.c.v.S c 4.                  L P                                                                                                                                                                                     ",
"                                                                                                                                                                                                      . e J p 0 1 ; + . + 1 s a s N m 1 . + 0 V.].v.v.H.H.(.(.).)._._.+XpXNXZX5.s m N C j > .       4 x.H.H.H.c. .b.n                   n &                                                                                                                                                                                     ",
"                                                                                                                                                                                                    . e ' m 9 ; ; > ; > y s m B N 3 X     X b '.B.j.z.v.F.H.~.(.).)._.;XmXHXbXJ D C j 2 +           B v.H.H.H.c.k.A.<                   #                                                                                                                                                                                       ",
"                                                                                                                                                                                                    e ..G > - O $ 2 a j M C S q +         o n.W.j.j.z.z.v.F.F.~.).).+XkXFXbXN.X.C j m p 2 X       # o.x.x.c.c.v./.A.o                             . .                                                                                                                                                                           ",
"                                                                                                                                                                                                  5 .. .a ; $ - w j M M ' v %             n '.<.<.j.z.z.v.v.v.~.(.+XjXSXbXN.O.X.X.o.X.~ s .       3 @.j.j.x.x.x.tXm.                              : $ $                                                                                                                                                                         ",
"                                                                                                                                                                                                4 ..+.C N p q a a q * + %               # A.^.<.<.j.z.z.z.x.F.(.`.;XNXfX#.{ ( X.O.} ~ V $ +     . N [ @.j.j.j.x.fXP 1 .       . .               + 2 : $                                                                                                                                                                         ",
"                                                                                                                                                                                              4 ..+.J J N 2 - : +                       L tXv.<.<.j.j.j.j.v.~.`.*XnXuX..~ ~ ~ { [ ~ A 9         - [ S  .@.@.<.B.uXe 2 + . . ; w * X X . + X     - 1 2 +                                                                                                                                                                         ",
"                                                                                                                                                                                            - K ..J F e % .                           & qX/.~.~.j.j.j.j.z.D.`.&XnXwXJ A ~ A ( ^ ~ ~ V 2 $ @   . a [ S [ X.@.@./.n.1 2 w 1 m V V m j s 9 1 .   + 9 2 - .                                                                                                                                                                         ",
"                                                                                                                                                                                          & 4.4.b , X                               * I tX_.*X+Xz.j.j.j.l.~.oXvXwXJ V ~ V ~ ~ ~ ~ D M M V : . + B ^ S ^ ^ @.<.Z.d $ m 2 M V M M j j j > .     . w ; -                                                                                                                                                                           ",
"                                                                                                                                                                                        < I P &                                   ; a wX:X*X;X+Xz.j.j.j.v.`.aXqXC A D V V V D ~ ^ M M A s @   ,  .^ S D ^ <.k.b.% 3 N s V M M j j j 1           $ * *                                                                                                                                                                           ",
"                                                                                                                                                                                        < #                                       : 5.vX:X*X*X&Xx.l.j.z.`.pXC.N M V M j j M V ( ^ V V V 2 *   v X.D S D [ j.k.b 3 B M j k k M M m 0 .             : X                                                                                                                                                                           ",
"                                                                                                                                                                                                                                . e wXdX=X&X*X&Xv.j.z./.pXm.s j k i y u j m C [ ^ V A w +   # +.[ S S D o.z. .m B V s y y u j i u 9 .             +                                                                                                                                                                             ",
"                                                                                                                                                                                                                                X I aX=X&X&X,X&Xz.v./.pXm.a j s 0 8 2 y j j ~ ( ^ D C $     e #.D S D D <.k.B B V s 1 ; > 0 0 0 0 0 * .                                       O O                                                                                                                                               ",
"                                                                                                                                                                                                                                # A.3X=X=X*X:X&X~.`.pXC.s j p ; X $ @ 0 u V ( [ ~ D w       H o.D D D ^ j.#.j M M ;     X X > 8 0 u m @                                         .                                                                                                                                               ",
"                                                                                                                                                                                                                                n pX=X=X&X*X1X&X&XaX0Xm j a *       . 2 j ~ ( X.^ C $     . b.X.^ D D X.v.J 0 M a @         . > y V C .         +                                                                                                                                                                               ",
"                                                                                                                                                                                                                              # A.:X*X*X&X:X:X=XaX0XN j j 9 .       . 2 V ^ { { ( p       # N.X.^ D ^ 1.#.9 s M 0 X           : j ( q         . $                                                                                                                                                                               ",
"                                                                                                                                                                                                                            @ n aX=X+X+X=X:X:XvX0XN j j y *     + $ * j ~ ( } o.N O   . $ 4 B.( D D X.z.N 2 m s $           $ s D v o         : $                                                                                                                                                                               ",
"                                                                                                                                                                                                                          + w A.kX+X*X,X=X,XvXqXN j j a ;   X 2 > X 0 D ^ { ^ 9 .   . 9 s b k.^ D ^ k.k.p y j 2           $ m J e .       X 3 q .                                                                                                                                                                               ",
"                                                                                                                                                                                                                          $ K vX,X*X:X*X;XzXA.N j s a 9 + ; y :   : D ' B q +       9 C p H k.^ ^ X.~...p s u $     . ; 2 V D ,           - m 1                                                                                                                                                                                 ",
"                                                                                                                                                                                                                          2 qXzX;X:X*X=XvXC.s i s i y 9 p s ; + 9 S B 1 .         2 ~ D 1 K @.D ^ 1./.J j j u *   . > a ~ D -             ; N +                                                                                                                                                                                 ",
"                                                                                                                                                                                                                        @ H vX:X:X=X:XnXm.a u a a y a m j 2 9 a p - .           + S X.v % #.X.D  .~.^.B M s y ; . > p D m +               3 e                                                                                                                                                                                   ",
"                                                                                                                                                                                                                        - 0XzX:X:XpXmXm.a s p 0 p j M j s w 1 +                 3 o.S + < 1.X.^ #.`.#.M M u y 9 2 p D q .           . + % a %                                                                                                                                                                                   ",
"                                                                                                                                                                                                                      @ n aX1X;XdXmXC.C M p w s M k j p : .                   . B  .-   d k.O.X.W./.J M m a j j s C 1               + + q e                                                                                                                                                                                     ",
"                                                                                                                                                                                                                      - C.kX;XdXmXm.C M s j N M j p : .                       1  .,     H z.,.<.OX1.m N j j M D D :                 $ * a %                                                                                                                                                                                     ",
"                                                                                                                                                                                                                    . n aX3XjXvXC.C M j V ~ V a : .                         . F 5     . 4.j.<.^.OXJ j N m V ^ S -                   ; q e                                                                                                                                                                                       ",
"                                                                                                                                                                                                                    . C.kXkXvXC.C V C X.o.C 2 X                             # -       & N.<.z.aXZ.N N C C ~ B #                     2 e +                                                                                                                                                                                       ",
"                                                                                                                                                                                                                    6 aXzXvXV.D D X.<. .q X                                           6 B.<.'.aX+.C V M V B #                     X w :                                                                                                                                                                                         ",
"                                                                                                                                                                                                                  . C.MXnXV.' X.<. .e X                                               n z.k.aXA.( A M s B -                       + e .                                                                                                                                                                                         ",
"                                                                                                                                                                                                                  d vXmXA.o.o.J 4 X                                                   I z.^.aX..A A M B ,                         - :                                                                                                                                                                                           ",
"                                                                                                                                                                                                                . 9XVX'.o.N -                                                       o 6.z.OXA.V Z M D ,                           - .                                                                                                                                                                                           ",
"                                                                                                                                                                                                                n CXV.a %                                                           & N.v.tX..M M S ,                             .                                                                                                                                                                                             ",
"                                                                                                                                                                                                              o 7.P X                                                               4 z.^.C.N a S ,                                                                                                                                                                                                                             ",
"                                                                                                                                                                                                              # <                                                                   n z.^.K j N ,                                                                                                                                                                                                                               ",
"                                                                                                                                                                                                                                                                                    K B.M.s N ,                                                                                                                                                                                                                                 ",
"                                                                                                                                                                                                                                                                                  o 5.Z.H m :                                                                                                                                                                                                                                   ",
"                                                                                                                                                                                                                                                                                  # V.n.N 1                                                                                                                                                                                                                                     ",
"                                                                                                                                                                                                                                                                                  < A.H 2                                                                                                                                                                                                                                       ",
"                                                                                                                                                                                                                                                                                  n m.1                                                                                                                                                                                                                                         ",
"                                                                                                                                                                                                                                                                                  P n                                                                                                                                                                                                                                           ",
"                                                                                                                                                                                                                                                                                  6 o                                                                                                                                                                                                                                           ",
"                                                                                                                                                                                                                                                                                                                                                                                                                                                                                                                                ",
"                                                                                                                                                                                                                                                                                                                                                                                                                                                                                                                                ",
"                                                                                                                                                                                                                                                                                                                                                                                                                                                                                                                                ",
"                                                                                                                                                                                                                                                                                                                                                                                                                                                                                                                                ",
"                                                                                                                                                                                                                                                                                                                                                                                                                                                                                                                                ",
"                                                                                                                                                                                                                                                                                                                                                                                                                                                                                                                                ",
"                                                                                                                                                                                                                                                                                                                                                                                                                                                                                                                                ",
"                                                                                                                                                                                                                                                                                                                                                                                                                                                                                                                                ",
"                                                                                                                                                                                                                                                                                                                                                                                                                                                                                                                                ",
"                                                                                                                                                                                                                                                                                                                                                                                                                                                                                                                                ",
"                                                                                                                                                                                                                                                                                                                                                                                                                                                                                                                                ",
"                                                                                                                                                                                                                                                                                                                                                                                                                                                                                                                                ",
"                                                                                                                                                                                                                                                                                                                                                                                                                                                                                                                                ",
"                                                                                                                                                                                                                                                                                                                                                                                                                                                                                                                                ",
"                                                                                                                                                                                                                                                                                                                                                                                                                                                                                                                                ",
"                                                                                                                                                                                                                                                                                                                                                                                                                                                                                                                                ",
"                                                                                                                                                                                                                                                                                                                                                                                                                                                                                                                                ",
"                                                                                                                                                                                                                                                                                                                                                                                                                                                                                                                                ",
"                                                                                                                                                                                                                                                                                                                                                                                                                                                                                                                                ",
"                                                                                                                                                                                                                                                                                                                                                                                                                                                                                                                                ",
"                                                                                                                                                                                                                                                                                                                                                                                                                                                                                                                                ",
"                                                                                                                                                                                                                                                                                                                                                                                                                                                                                                                                ",
"                                                                                                                                                                                                                                                                                                                                                                                                                                                                                                                                ",
"                                                                                                                                                                                                                                                                                                                                                                                                                                                                                                                                ",
"                                                                                                                                                                                                                                                                                                                                                                                                                                                                                                                                ",
"                                                                                                                                                                                                                                                                                                                                                                                                                                                                                                                                ",
"                                                                                                                                                                                                                                                                                                                                                                                                                                                                                                                                ",
"                                                                                                                                                                                                                                                                                                                                                                                                                                                                                                                                ",
"                                                                                                                                                                                                                                                                                                                                                                                                                                                                                                                                ",
"                                                                                                                                                                                                                                                                                                                                                                                                                                                                                                                                ",
"                                                                                                                                                                                                                                                                                                                                                                                                                                                                                                                                ",
"                                                                                                                                                                                                                                                                                                                                                                                                                                                                                                                                ",
"                                                                                                                                                                                                                                                                                                                                                                                                                                                                                                                                ",
"                                                                                                                                                                                                                                                                                                                                                                                                                                                                                                                                ",
"                                                                                                                                                                                                                                                                                                                                                                                                                                                                                                                                ",
"                                                                                                                                                                                                                                                                                                                                                                                                                                                                                                                                ",
"                                                                                                                                                                                                                                                                                                                                                                                                                                                                                                                                ",
"                                                                                                                                                                                                                                                                                                                                                                                                                                                                                                                                ",
"                                                                                                                                                                                                                                                                                                                                                                                                                                                                                                                                "
};
