/* XPM */
static const char *ice4[] = {
/* columns rows colors chars-per-pixel */
"256 256 256 2 ",
"   c #000000",
".  c #03050B",
"X  c #05090C",
"o  c #0A0B0D",
"O  c #040612",
"+  c #040A14",
"@  c #050B1B",
"#  c #0A0B18",
"$  c #110D1B",
"%  c #0B1219",
"&  c #15171A",
"*  c #080D24",
"=  c #091426",
"-  c #0A132C",
";  c #151926",
":  c #110E32",
">  c #0B1837",
",  c #141739",
"<  c #241B38",
"1  c #19232A",
"2  c #102537",
"3  c #172638",
"4  c #27282A",
"5  c #293038",
"6  c #0B1B46",
"7  c #161949",
"8  c #0D1B55",
"9  c #181A58",
"0  c #251B52",
"q  c #0D2348",
"w  c #162748",
"e  c #1B3449",
"r  c #0C2658",
"t  c #152759",
"y  c #1A3659",
"u  c #2C314E",
"i  c #263857",
"p  c #1A1B64",
"a  c #261C6F",
"s  c #0C2966",
"d  c #162967",
"f  c #18366A",
"g  c #172C76",
"h  c #0D3273",
"j  c #173778",
"k  c #252669",
"l  c #2D316D",
"z  c #262777",
"x  c #253578",
"c  c #48366E",
"v  c #314655",
"b  c #1B4466",
"n  c #1C427A",
"m  c #304D6E",
"M  c #274778",
"N  c #38667A",
"B  c #4B4E55",
"V  c #4E536F",
"C  c #69577A",
"Z  c #506776",
"A  c #6D7075",
"S  c #331D85",
"D  c #173B85",
"F  c #17378E",
"G  c #382689",
"H  c #322E8F",
"J  c #273886",
"K  c #2A3A98",
"L  c #2E3BA6",
"P  c #3738A6",
"I  c #453298",
"U  c #4638A8",
"Y  c #5134AD",
"T  c #633AB8",
"R  c #194489",
"E  c #194996",
"W  c #1C5298",
"Q  c #254788",
"!  c #2A5688",
"~  c #36508E",
"^  c #274A96",
"/  c #265599",
"(  c #1C639D",
")  c #376792",
"_  c #1A56A8",
"`  c #1A53AD",
"'  c #2A46A8",
"]  c #3548A7",
"[  c #2658A6",
"{  c #3658A9",
"}  c #274BB3",
"|  c #374AB4",
" . c #2957B8",
".. c #3657B8",
"X. c #1D62AB",
"o. c #1C64B8",
"O. c #2863AA",
"+. c #3771AE",
"@. c #2869B6",
"#. c #3667B9",
"$. c #2B73BB",
"%. c #4C518F",
"&. c #675594",
"*. c #4C6F92",
"=. c #6D7290",
"-. c #4945B6",
";. c #4F4FB1",
":. c #6B4FB3",
">. c #4B71B0",
",. c #706EB0",
"<. c #663BC2",
"1. c #305AC2",
"2. c #1E6CC5",
"3. c #2868C6",
"4. c #3768C5",
"5. c #2977C7",
"6. c #3878C8",
"7. c #3178D3",
"8. c #3E7CE1",
"9. c #5056C8",
"0. c #6E4FCA",
"q. c #4767C8",
"w. c #4676CA",
"e. c #546ED0",
"r. c #4879D4",
"t. c #5776D7",
"y. c #6868D7",
"u. c #6F70D4",
"i. c #5B7CE3",
"p. c #7275E3",
"a. c #8673AD",
"s. c #8455D2",
"d. c #9B6DD9",
"f. c #8C70D6",
"g. c #9075E6",
"h. c #AB74EB",
"j. c #C97BF2",
"k. c #3A82B6",
"l. c #738794",
"z. c #508AB3",
"x. c #6395AA",
"c. c #6F8FB0",
"v. c #2E86CE",
"b. c #3885CC",
"n. c #2C86D7",
"m. c #3889D5",
"M. c #3A95D9",
"N. c #3EA3DC",
"B. c #2F8FE2",
"V. c #3999E5",
"C. c #3BA6E7",
"Z. c #3CAFEE",
"A. c #4789CA",
"S. c #5393C8",
"D. c #4689D7",
"F. c #5688D8",
"G. c #4796DA",
"H. c #5797DB",
"J. c #6B90D4",
"K. c #4FA6DA",
"L. c #70ACD4",
"P. c #5289E3",
"I. c #489AE3",
"U. c #569AE5",
"Y. c #6E8EE7",
"T. c #7599E8",
"R. c #47A7E6",
"E. c #57A7E8",
"W. c #49B5EB",
"Q. c #58B7EB",
"!. c #49B8F3",
"~. c #59B9F2",
"^. c #66A7E9",
"/. c #79A8EA",
"(. c #66B7EC",
"). c #78B6EA",
"_. c #73A8F1",
"`. c #67B9F2",
"'. c #76B9F2",
"]. c #4BC7F2",
"[. c #59C8F5",
"{. c #5AD8F8",
"}. c #73C7EC",
"|. c #63D4EA",
" X c #69C7F5",
".X c #76C9F5",
"XX c #66D7F8",
"oX c #78D5F7",
"OX c #68E6FB",
"+X c #77E6FA",
"@X c #77F4FC",
"#X c #818181",
"$X c #89909A",
"%X c #8D92AE",
"&X c #92A8B8",
"*X c #A6A8BB",
"=X c #9290D0",
"-X c #A891D4",
";X c #8FB1D1",
":X c #AFB4D0",
">X c #8788E9",
",X c #9686EB",
"<X c #9398EE",
"1X c #B091EF",
"2X c #A79AF3",
"3X c #8CB4EC",
"4X c #86A6F3",
"5X c #96A7F4",
"6X c #99B6F6",
"7X c #A9A5F5",
"8X c #B6A9F6",
"9X c #AAB3F0",
"0X c #BBB4F7",
"qX c #DD9EED",
"wX c #CE8DF1",
"eX c #D0AFF1",
"rX c #C7B8F7",
"tX c #EDB1F7",
"yX c #92C7D6",
"uX c #B3C8D7",
"iX c #90CBEB",
"pX c #88C7F4",
"aX c #96C8F5",
"sX c #87D9F8",
"dX c #97D8F7",
"fX c #B0CFF0",
"gX c #A6D8F6",
"hX c #88E6FA",
"jX c #98E6F9",
"kX c #88F5FB",
"lX c #97F6FB",
"zX c #AEE3EB",
"xX c #A7E9F9",
"cX c #B7E8F9",
"vX c #AAF4FB",
"bX c #B4F4FB",
"nX c #BBF5FB",
"mX c #BAF9FC",
"MX c #C4CBD5",
"NX c #D7C8F6",
"BX c #CFD0F1",
"VX c #EED3F9",
"CX c #C7E8F8",
"ZX c #D3E8F2",
"AX c #C7F7FB",
"SX c #D4F8FB",
"DX c #DCFBFC",
"FX c #E3E6EC",
"GX c #E8E7F9",
"HX c #F5E9FB",
"JX c #E8F4FA",
"KX c #E4FBFC",
"LX c #EBFBFC",
"PX c #F8F4FB",
"IX c #F4FCFD",
"UX c #FBFCFC",
/* pixels */
"                                                                                                                                                                                                                                                                                                                                                                                                                                                                                                                                ",
"                                                                                                                                                                                                                                                                                                                                                                                                                                                                                                                                ",
"                                                                                                                                                                                                                                                                                                                                                                                                                                                                                                                                ",
"                                                                                                                                                                                                                                                                                                                                                                                                                                                                                                                                ",
"                                                                                                                                                                                                                                                                                                                                                                                                                                                                                                                                ",
"                                                                                                                                                                                                                                                                                                                                                                                                                                                                                                                                ",
"                                                                                                                                                                                                                                                                                                                                                                                                                                                                                                                                ",
"                                                                                                                                                                                                                                                                                                                                                                                                                                                                                                    .                           ",
"                                                                                                                                                                                                                                                                                                                                                                                                                                                                                                  4 4                           ",
"                                                                                                                                                                                                                                                                                                                                                                                                                                                                                                . B B .                         ",
"                                                                                                                                                                                                                                                                                                                                                                                                                                                                                                4 A A 4                         ",
"                                                                                                                                                                                                                                                                                                                                                                                                                                                                                              & A #X#XA &                       ",
"                                                                                                                                                                                                                                                                                                                                                                                                                                                                                          . 4 A #X#X#X#XA 4                     ",
"                                                                                                                                                                                                                                                                                                                                                                                                                                                                                        4 B A #X#X#X#X#X#XA B 4                 ",
"                                                                                                                                                                                                                                                                                                                                                                                                                                                                                        4 B A #X#X#X#X#X#XA B 4                 ",
"                                                                                                                                                                                                                                                                                                                                                                                                                                                                                          . 4 A #X#X#X#XA 4                     ",
"                                                                                                                                                                                                                                                                                                                                                                                                                                                                                              & A #X#XA &                       ",
"                                                                                                                                                                                                                                                                                                                                                                                                                                                                                                4 A A 4                         ",
"                                                                                                                                                                                                                                                                                                                                                                                                                                                                                                . B B .                         ",
"                                                                                                                                                                                                                                                                                                                                                                                                                                                                                                  4 4                           ",
"                                                                                                                                                                                                                                                                                                                                                                                                                                                                                                                                ",
"                                                                                                                                                                                                                                                                                                                                                                                                                                                                                                                                ",
"                                                                                                                                                                                                                                                                                                                                                                                                                                                                                                                                ",
"                                                                                                                                                                                                                                                                        %                                                                                                                                                                                                                                                       ",
"                                                                                                                                                                                                                                                                        5 ;                                                                                                                                                                                                                                                     ",
"                                                                                                                                                                                                                                                                        4 A .                                                                                                                                                                                                                                                   ",
"                                                                                                                                                                                                                                                                        % *Xu @ .                                                                                                                                                                                                                                               ",
"                                                                                                                                                                                                                                                                        . %X%X% - +                                                                                                                                                                                                                                             ",
"                                                                                                                                                                                                                                                                          =.ZXZ O > @                                                                                                                                                                                                                                           ",
"                                                                                                                                                                                                                                                                          V CXuXu + t =                                                                                                                                                                                                                                         ",
"                                                                                                                                                                                                                                                                          u fXCXc.@ - J -                                                                                                                                                                                                                                       ",
"                                                                                                                                                                                                                                                                          4 uXgXfXm + y ^ 2                                                                                                                                                                                                                                     ",
"                                                                                                                                                                                                                                                                          o :XgXCX;Xy - ^ ^ q                                                                                                                                                                                                                                   ",
"                                                                                                                                                                                                                                                                            %XcXcXZX,.d d { Q ,                                                                                                                                                                                                                                 ",
"                                                                                                                                                                                                                                                                            A cXxXSXuX~ x Q [ w -                                                                                                                                                                                                                               ",
"                                                                                                                                                                                                                                                                            B CXgXcXKX,.^ Q ^ x = ,                                                                                                                                                                                                                             ",
"                                                                                                                                                                                                                                                                            5 CXcXcXSXuXQ { Q Q 6 + -                                                                                                                                                                                                                           ",
"                                                                                                                                                                                                                                                                            & uXgXcXAXZX,.J { x g * + %                                                                                                                                                                                                                         ",
"                                                                                                                                                                                                                                                                            o :XgXxXAXcXuXQ Q ~ d 6 . .                                                                                                                                                                                                                         ",
"                                                                                                                                                                                                                                                                              $XcXdXnXxXcX,.d Q Q w *                                                                                                                                                                                                                           ",
"                                                                                                                                                                                                                                                                              A cXpXxXxXgXuXl w x ^ k @     # .                                                                                                                                                                                                                 ",
"                                                                                                                                                                                                                                                                              B cX3XdXdXdXcXc.t 7 f ] J @     .                                                                                                                                                                                                                 ",
"                                                                                                                                                                                                                                                                              5 fX3XpXdXpXdXfXm 7 : w ~ Q *                                                                                                                                                                                                                     ",
"                                                                                                                                                                                                                                                                              & yX).).aX3XaXgX%Xt * @ * x Q -       % .                                                                                                                                                                                                         ",
"                                                                                                                                                                                                                                                                              o &X).T.pX/.3X3XfXv *     @ x J @                                                                                                                                                                                                                 ",
"                                                                                                                                                                                      4 4                                                                                       l./.F.3XT./.T.6X&Xo       : d t .                                                                                                                                                                                                               ",
"                                                                                                                                                                                      o C A ; o                                                                                 A T.t./.T.T.Y.Y.fXB     . . @ - @                                             .                                                                                                                                                                 ",
"                                                                                                                                                                                        o $XMX,.V u %                                                                           B ;Xw.Y.T.Y.Y.t.6X;X#   .                                                 . O #                                                                                                                                                                 ",
"                                                                                                                                                                                          & MXGX7Xu.;.%.i ; .                                                                   4 =Xq.F.T.Y.Y.t.T.CXV                                                 . @ @ .                                                                                                                                                                   ",
"                                                                                                                                                                                            B FXJXBXu.q.e.e.>.m 1 X                                                             o c.q.t.Y.Y.T.F.F.fXuX& O                                         . @ @ . .                                                                                                                                                                     ",
"                                                                                                                                                                                              #XKXDXFX;Xe.q.e.t.t.>.m 3 #                                                         Z e.q.Y.T./.Y.i.4XCXB   .                                     + * O   . +                                                                                                                                                                     ",
"                                                                                                                                                                                              & :XSXSXLXBXJ.>.;.>.w.t.e.>.%.u ; .                                                 5 t.q.F._.4XT.Y.Y.aX%X.                                   @ , #     * -                                                                                                                                                                       ",
"                                                                                                                                                                                                B ZXSXSXLXGX;X>.;.;.>.q.w.w.t.>.*.m 3 %                                           X ,.q.t./.3X/.T.e.J.;X1                               * 7 7 O     * 7 .                                                                                                                                                                       ",
"                                                                                                                                                                                                  l.DXSXSXDXKXfXJ.q.q.q.q.w.q.#.{ { ^ Q x w - #                                     m t.e./.6X4XT.i w i 3                           ; , : - .     = k =                                                                                                                                                                         ",
"                                                                                                                                                                                                  & :XDXAXAXAXSXCX3Xt.w.w.w.w.w.w.#.] Q J J Q ^ ~ m e & .                           3 t.q.T.aX3XJ.%     ; %                     * 0 7 O       . , ~ w                                                                                                                                                                           ",
"                                                                                                                                                                                                    B ZXAXAXAXAXAXSXfXT.t.w.w.w.w.w.w.4.#.{ ' '  .4.F.J.x.Z 5 %                     o ;.;.t.3XpX*.      . ;                 # 0 J t - .     O 9 ] l .                                                                                                                                                                           ",
"                                                                                                                                                                                                    > l.DXAXnXAXAXAXAXCXfXJ.w.q.w.w.w.w.w.r.w.6.4... .4.r.F.F.>.*.v - .               x ] { F._.i         # +           # 0 H H z k t -   # 9 Q ~ +                                                                                                                                                                             ",
"                                                                                                                                                                                                    @ i :XDXnXnXAXAXAXAXAXCX3XF.r.w.w.w.r.D.r.w.w.w.6.4...#.4.4.4.#.{ Q t - .         , J d ] e.3                   & k H H J J z H k 7 : x x ~ -                                                                                                                                                                               ",
"                                                                                                                                                                                                      2 V ZXSXnXnXAXAXAXAXAXDXCX/.F.F.F.D.D.D.D.r.w.6.6.6.4.4..... . . . .} D r -     + t - 7 ] =                 o %Xg.;.;.%.;.I H z z ] ] J ,                                                                                                                                                                                 ",
"                                                                                                                                                                                                      = y %XKXAXnXAXAXAXAXSXDXJXJXfX^.H.H.U.U.I.G.D.6.6.6.8.r.8.6.4.4.4... .} ' ^ -     O . @ x #                 4 =X,X1X,Xf.u.;.I I ;.;.;.:                                                                                                                                                                                   ",
"                                                                                                                                                                                                      X w m uXSXAXAXAXJXLXKXKXLXUXUXJXaX^.E.E.H.I.G.D.r.8.8.D.D.I.E.(.(.^.r...[ ' 6           7 @                 V >Xu.1XeXeXh.:.;.u.:.:.t                                                                                                                                                                                     ",
"                                                                                                                                                                                                        2 y =.ZXAXAXAXKXIXUXIXIXIXUXUXUXZXiX}.(.E.I.D.D.D.D.U.(.`.`.^.H.D.4.[ ^ ^ 6       .   . O               . ,.p.u.8XVXHXwXd.d.f.f.l .                                                                                                                                                                                     ",
"                                                                                                                                                                                                        % y f &XAXnXAXSXIXUXUXUXUXUXUXUXUXIXcXoX X~.Q.R.I.I.I.I.D.6.4.#. . .^ r *         O .                   ; u.u.>XrXHXPXtXqXqX1X&.-                                                                                                                                                                                       ",
"                                                                                                                                                                                                          > y m uXAXAXDXJXIXUXUXUXUXUXUXUXUXIXCXoX~.W.R.I.D.8.6.6.4.4.#. .[ ' D r @         .                   i y.u.<XNXUXUXHXHXtXd.0                                                                                                                                                                                         ",
"                                                                                                                                                                                                          + w y =.AXnXAXDXLXLXJXKXKXJXLXIXIXKXDXSXdXQ.R.I.D.6.6.6.4.4.4.4.#. .[ ' E >                         . %.y.p.<XVXUXUXUXPXtXc                                                                                                                                                                                           ",
"                                                                                                                                                                                                            - y f :XAXnXbXAXKXKXDXSXAXSXDXKXDXAXAXDXCX}.I.I.G.6.6.6.6.4.4.3.3.3.@. .t O                       3 e.y.y.7XBXUXUXUXUX:X;                                                                                                                                                                                           ",
"                                                                                                                                                                                                            . w f %.ZXAXbXxXbXSXSXAXAXAXAXAXSXAXnXbXSXSXgXE.D.m.7.6.7.n.7.7.7.7.7.5.@.j -     #             . %.e.y.u.9XNXUXUXUXUXa.#                                                                                                                                                                                           ",
"                                                                                                                                                                                                              > y f c.SXnXxXxXbXAXmXmXmXmXmXmXAXAXnXvXbXAXCX3Xm.5.3.5.n.m.m.m.m.m.m.7.D 8     # %           1 >.q.e.4X9XGXPXUXUXBXc .                                                                                                                                                                                           ",
"                                                                                                                                                                                                              @ y f M uXSXxXxXvXbXmXmXmXvXhXxXAXAXAXbXxXjXxXbXdXH.6.@.5.m.M.M.V.V.V.M.E O     X V X         m q.q.t.6XBXGXHXPXPX=.$                                                                                                                                                                                             ",
"                                                                                                                                                                                                              . w f f *.CXnXxXvXvXmXmXmXbXsXsXxXnXAXmXvXjXhXhXhXxXdXL.D.7.m.V.V.V.M.m.5.>       V 1       ; >.>.>./.fXZXGXtX:XA $                                                                                                                                                                                               ",
"                                                                                                                                                                                                                , t f n c.nXxXxXvXbXmXmXmXjX.XsXsXbXmXvXjX+X+X+X+XhXhXsX).H.b.m.m.m.6.3./ =     5 3       m w.q.e.3XcXZXeXC &                                                                                                                                                                                                   ",
"                                                                                                                                                                                                                - t f f M ;XxXxXvXbXnXmXnXbXoX.X.XsXvXvXlXhXXXXXoXhX+XXX+XhXpXS.#.[ [ [ [ j +   % =     o >.w.>.J.aXCXuXu                                                                                                                                                                                                       ",
"                                                                                                                                                                                                                * t y f f ) gXjXxXvXbXnXnXnXsX X X XoXlXlXhXhXoXXXoXhXhXhX+XK.*.*.z.) j t d r .   .     3 w.q.F./.aX;X5                                                                                                                                                                                                         ",
"                                                                                                                                                                                                                > t t f f n c.xXvXbXvXbXbXnXxX X X X[.oXlX+XoX+X+X+XhXoXK.+.j r 6 y m N m e - +         m w.r./.J.=.&                                                                                                                                                                                                           ",
"                                                                                                                                                                                                          @ - - w t t f f n ! yXvXbXnXbXbXbXbX.X~.~.~.[.oX+XXXXXXX+X+XS.D j s r * .   . w ~ ~ i #     X ) r.U.z.5                                                                                                                                                                                                               ",
"                                                                                                                                                                                                X 4 5 ; - 7 9 t t t t f f j n *.zXvXbXmXnXbXbXsX[.~.~.~.[.XXXXXXXXXXOXK.D j h r *         . > i i e + 5 F.U.>.;                                                                                                                                                                                                                 ",
"                                                                                                                                                                                    o & 5 B A l.&X:XuX:X%X=.l w t t f M Q / / / L.AXnXnXnXnXnXxX X~.~.~.[.XXXXXXXX[.XXXX[ j h s >                 + X 1 >.*.%                                                           + +                                                                                                                                                     ",
"                                                                                                                                                            . . O # $ * ; ; 5 B C =.%X=X<X5X5X5X5X4X5X6XfXcXfX&X=.V ~ 6.D.I.I.I.G.(.pXgXbXbXmXAXsX[.~.[.[.XXOXXXXXXX{.OXG.F j s r -       @ > 6 8 6 > @ 1 %               @ @                                         @ X                                                                                                                                                       ",
"                                                                                                                                                . # : , , 7 7 < 0 u V =.%X=X7X7X7X2X5X<X<X5X5X5X5X5X5X6X6XaXgXcXCXCX:XL.S.w.D.I.E.W.W.R.E.).gXAXbX X[.[.[.[.XXOXOXOXOXOX[.[ D j s 6 .   + - > > s h h >                 . @ .                                     . .                                                                                                                                                           ",
"                                                                                                                                          O $ : 7 0 l c %.&.a.%X=X-X2X8X8X8X8X8X8X8X9X9X9X7X7X9X9X9XfXfXaX6X6X6XaXaX6XfXfXfX;XJ.A.m.V.R.W.R.I.E.pX.X[.[.[.XX{.OXOXXXXXOXOXb.F E E s * . > s j j h r - O                                                           .                                                                                                                                                             ",
"                                                                                                                                      # < u C =.%X*X:XMXNXNXrX8X1X1X1X1X2X2X2X2X7X7X7X7X5X5X5X5X5X5X6X5X5X4X4X4X/././.4X3XaXgXgXiX3XL.H.K.R.R.V.m.G.~.[.[.XX{.XX{.{.[.[.{.W.[ E  . .j > O * > 6 r s s 6 O                       & 4 1 X                                                                                                                                                                                         ",
"                                                                                                                          . u B B V =.*X:XBXBXNXNXNXNXrXrXrXeX8X8X1X1X2X7X8X8X8X8X8X8X0X0X7X7X5X5X6X6X6X5X5X4X4XT.T.T.T.T._._.`. XoXhXhXsXoX}.(.H.G.G.m.m.R.[.[.[.[.!.W.R.R.b._ E  . .j - + O . . + @ @ .                 o v l.*.u X                                                                                                                                                                                           ",
"                                                                                                                            4 #XFXPXHXGXGXNXNXNXNXNXNXNXNXrXrXeX8X8X1X1X7X8X8X8X0X8X0X8X7X7X5X5X5X5X6X6X6X6X6X6X4X4X/.T.T.^.`..XoXoXhXhXhXlXhXjXjXjXpX(.Q.I.G.V.V.M.V.M.v.v.v.@.W F D j M f w @                     & v N >.>.M =                                                                                                                                                                                               ",
"                                                                                                                              . B MXUXUXUXPXPXGXGXGXVXVXNXNXeXeXeXeX8X8X8X8X8X8X8X7X2X2X<X<X<X<X<X5X5X5X5X5X5X4X4X4X4X4X3X3XpXsXjXjXlXlXlXlXvXvXvXlXlXlXhXhX XQ.Q.v.5.@.F j h s s s 8 * . = > > @               1 Z S.G.#.M -                       2 w                                                                                                                                                                         ",
"                                                                                                                                  5 %XJXPXPXPXPXUXUXUXUXPXHXGXVXNXeXeXeXeX8X8X8X8X7X7X7X2X2X5X5X5X5X5X6X6X6X6X4X4X4X4X3XaXdXgXcXAXAXSXSXCXfXfX3X;X;X).L.S.A.$.O.[ E E E D j h s s r r 6 > > O             X u l.S.A.O.b -                         y ) 2                                                                                                                                                                         ",
"                                                                                                                                  . 7 =.FXUXPXPXPXPXPXPXUXUXUXUXUXPXHXGXVXNXNXrX8X8X7X7X7X2X2X2X2X5X<X<X5X5X5X5X6X6XaXfXfXfXcXCXfX3XJ.t.>... .} } } } } E E F F F F D j h h s s s D [ _ _ E 6         % v x.).G. .j > @ .                     X y f @                                                                                                                                                                           ",
"                                                                                                                                    # 0 C MXUXPXHXHXHXHXHXHXPXPXPXPXPXPXUXUXPXPXHXGXFXBXBX0X7X7X7X7X7X7X7X9XfXBX9X;XJ.,.,.>.e.e.4...1.1. . .} } } } } } } ` E E F F F F D h D W @.3. .F D s O   X 3 ) S.Q.G.[ f > O                           * @                                                                                                                                                                               ",
"                                                                                                                                      # 0 c *XPXIXPXHXHXHXHXHXHXHXHXHXHXHXVXVXNXNXNXGXGXGXGXGXGXGXGXBXrX0X:X,.;.P K K L ] ' | | .... . . . . . . . . .1.3.3.3.3.3.o.` ` @.5.5.@.E h s s s 6 3 N x.(.K.+.b - .                                                                                                                                                                                                                   ",
"                                                                                                                                        # 0 l a.FXUXPXHXVXVXVXVXVXVXVXVXNXNXNXNXNXrXrX8X8X8X0XNXNXGXBX-Xu.0.-.] P P K K K K L ' ' ' ' } }  . . . . . .1.1.3.3.3.3.7.M.V.n.5.` E R R E W [ $.K.E.G./ 2 .                                                                                                                                                                                                                         ",
"                                                                                                                                          # 7 0 &.MXPXHXVXVXNXNXNXNXVXNXNXNXrXrXrXrXrXrXrX0X8X2X2X2X0XBX7Xu.;.P K K K K K K L ' ' | | ..1.4.7.8.8.7.8.m.m.I.I.I.I.R.W.W.].].].W.C.v.O.[ 5.7.7.O.r .                                                                                                                                                                                                                             ",
"                                                                                                                                            . , 0 c %XGXGXNXrXrXrXrXrXrXrXrXrX0X8X2X8X8X0XrXrX0X0X8X7X8XNX8X<X>Xu.;.;.] L K L ' | | 1.1.4.r.r.8.8.8.m.I.I.R.!.[.XXOXOX{.{.{.!.V.3._ O.v.m.$.n 6 @ +                                                                                                                                                                                                                             ",
"                                                                                                                                                $ 0 0 =.FXVXrXrXrXrXrXrXrXrXrX8X7X2X2X2X2X7X7X0XrXrX0X7X,X>Xg.g.>X<X<X<X>Xu.>.;.9.q.r.P.^.'.'..XoXoXXX{.XXOXOXOXOXOX{.{.!.V.7.3.5.M.M.$.n r > r s 6 O             @ @                     . + .                                                                                                                                                                                 ",
"                                                                                                                                                  O , 0 &.FXHXNX0X8X8X8X8X8X0X8X7X7X2X2X2X2X7X7X0X0X0X2X,Xp.g.g.p.p.p.Y.Y.T.T.Y.Y.F.Y.Y.^.`..XoX+X+X+XkX@X+X+X@XOXXX[.R.7.5.m.R.R.b.W D j h q - O           . 2 r - .                     .                                                                                                                                                                                     ",
"                                                                                                                                                      : 0 V :XGXNXrX8X8X7X7X8X8X8X8X7X7X2X2X7X8X0X0X0X7X,Xg.y.y.y.9.9.y.y.p.p.p.i.Y.Y._.3XsXhXhXhXlXlXkXkXkXkXOX[.W.I.V.V.R.W.G.@.` E E D r @   + > > = - r n y +       . .               + +                   .                                                                                                                                                               ",
"                                                                                                                                                        $ 0 l %XBXNXNX0X8X8X7X7X8X0X8X8X8X8X8X8X7X2X,Xu.0.9.-.9.9.9.9.9.y.y.p.Y.Y.Y.T._..XsXhXlXvXvXlXhXhX+XXX[.].!.!.W.W.R.G.6.@.@._ _ E E R ( X.5.3.o.W f =       . + .                 * .           % 4 B B &                                                                                                                                                               ",
"                                                                                                                                                          $ 0 0 &.:X0XrX0X0XrX0X0X0X0X0X0X8X8X,Xu.9.-.-.-.-.-.-.-.9.9.9.9.y.y.p.p.Y.T.'.pXsXjXxXhXhXhXhXhXhXhXhXjXdXdXcXCXZXfXH.5.@.o.` ` 2.n.n.n.5.o.R *         * * . . + +                   . 1 V l.;XiXl.&                 X .                                                                                                                                             ",
"                                                                                                                                                            . , 0 V -X0XBXNXrXNXNXNXrX0X8X2Xf.0.-.Y Y Y U U U U U U -.9.9.y.p.Y.T.T.4X6XaXdXxXcXcXAXSXDXKXLXIXIXUXUXUXUXUXIXjXQ.R.M.n.5.5.n.B.B.5._ h O       @ > = @ + @ .                 & m x.}.pXpXsXl.o                 * @ . .                                                                                                                                           ",
"                                                                                                                                                                $ 7 l *XBXBXBXNXNXNXNXrX2Xf.0.0.;.U U U U U U -.9.9.y.p.p.Y.<X<X5X9XfXZXZXJXLXIXIXIXIXUXUXUXUXUXUXUXUXIXIXmXkXOX{.].Z.Z.C.V.V.n.o.D 6 +   . > > > > +                 X 5 *.L.`.`.^.).pXl.&                 O @                                                                                                                                                 ",
"                                                                                                                                                                  # 7 l %XGXGXGXBXNXNXrX1Xg.u.0.:.;.;.:.u.f.f.u.u.y.9.;.;.9.9.y.BXPXLXJXJXKXKXLXLXLXLXIXIXUXUXUXUXUXIXLXAXkX@XOX{.[.!.Z.C.C.B.o.F h r @ - r r 6 *               o 5 Z x.(.E.E.U.E.(.).*.%                               @ +                                                                                                                                     ",
"                                                                                                                                                                    : 0 k ,.BXGXGXNXeX1X1X1X-X-X-X=X%X,.&.%.I H H H P P -.9.y.Y.ZXJXJXJXJXJXJXKXLXIXIXIXIXIXIXIXIXKXDXSXvXkXOX{.[.!.!.Z.V.5.o.E E D s h f r > O             1 Z &XiX.X^.H.H.G.E.(.S.v X                               > >                                                                                                                                       ",
"                                                                                                                                                                    . 7 0 0 C MXJXBX:X:X%Xa.&.V l l k p a S H H P U -.9.u.p.p.<XJXJXGXGXGXJXLXLXLXIXIXIXIXIXLXKXDXDXSXAXAXlXXX[.].!.!.V.5.o.` _ E E E n r *           & B l.yXsX.XE.F.H.H.H.H.^.z.1                                 q y                                                                                                                                         ",
"                                                                                                                                                                    . , 0 0 7 u &.V k 0 0 9 9 9 p a a z S H K P -.-.-.9.y.u.p.rXUXPXGXJXLXIXLXLXLXLXIXIXIXLXKXKXDXDXSXAXbX+X{.[.].!.V.n.3.o._ E _ o._ j r > =     1 Z ;XjXhXoXQ.G.D.G.G.F.H.H.) %                               . f / %                                                                                                                                         ",
"                                                                                                                                                                o 5 C %.0 # . . , 9 9 9 p p a z z S S H H H H U P -.9.y.y.u.g.GXUXPXPXPXIXIXLXIXIXIXIXIXLXLXLXLXKXKXAXhXXX{.[.].!.Z.B.n.2.` ` 5.B.5.E h s r y m z.L. X[.~.E.I.D.D.D.D.A.H.L.m o   .                           . t n -                                                                                                                                           ",
"                                                                                                                                                            1 V %X9X=.$ .   . O , 9 9 9 9 9 p a a z S H H P P P P -.;.;.0.0.-XUXUXUXPXPXPXIXIXUXUXUXIXLXLXLXKXKXKXbXoX{.{.{.{.{.].Z.B.5.2.3.n.Z.B._ F D ! z.z.D.~.[.~.W.R.I.I.G.D.6.A.E.L.m * O + - .                         y y O                                                                                                                                             ",
"                                                                                                                                                      o B $X;XfXfX=.o # , 7 9 7 , 7 7 9 9 9 p p a a S H ;.9.Y Y U U U -.0.u.NXUXUXUXHXHXPXUXUXUXUXUXIXLXKXKXKXDXjXXXXXXXXXOXOX{.!.B.5.3.5.V.Z.n.$.>.S.L.}.I.M.[.{.[.W.R.R.R.I.D.6.6.E.S.m q - O + . .                       > y .                                                                                                                                               ",
"                                                                                                                                                  1 Z *XfX9X9XBX=., 7 t k k k t 9 7 9 9 9 p p p p z ;.y.y.p.y.U I U Y 0.0.d.GXUXUXUXPXPXPXUXUXUXUXUXIXLXKXKXSXsX XXXXXOX+X@XOX!.V.7.3.5.B.C.E.).pXoX+XOX[.[.{.{.].W.W.R.I.R.I.D.D.E.z.y > = O       .                     + =                                                                                                                                                   ",
"                                                                                                                                            & B $X:XfX6X5X5X0Xc.7 9 k x J J H H k - . # 7 9 9 a %.y.p.y.y.0.Y Y Y U Y 0.s.8XUXUXUXPXPXPXPXPXUXUXUXUXIXLXLXSXsX XXXXX+X+X@XXX!.V.B.m.V.C.V.Q.vX+XOXOXOXOXOXOXOX[.!.W.R.R.W.W.I.I.Q.+.w - =         .                       +                                                                                                                                                     ",
"                                                                                                                                        o A uXCXCXfX6X5X<X9X9Xw 9 x J J H J J J k 7 * , p z %.u.>Xp.y.;.H G S G U T T 0.s.NXUXUXUXPXPXPXPXPXPXUXUXIXLXIXSXdX.XoXoXXXXXOXXX~.R.V.V.C.!.W.M.sXkXOXOX@XOX@X@X@XXX].W.R.W.[.[.R.R.Q.) q @ *           @         .                                                                                                                                                                   ",
"                                                                                                                                      ; $XCXCXCXCX9X5X5X9X:XV , k J J J J z k , * , , 9 K -.e.y.y.;.z a a a S G G U Y <.s.VXVXHXUXUXPXPXPXPXPXUXUXIXIXZXaX.X.X.X X X X X[.!.I.V.V.Z.R.m.R.vXkX@X@X@X@X@X@X@XXX!.R.W.[.[.Q.Q.Q.) q - - .         . @ +                                                                                                                                                                           ",
"                                                                                                                                    B uXCXcXCXCXcXaX9XfXfX*.t k x x x z k p 9 t x J J K -.9.;.l 7 9 p p a a S G G Y T 0.h.VXVXVXUXUXUXPXPXPXPXUXUXUXZX6X'.'..X.X.X X~.E.I.M.m.V.C.R.n.B.oXvXkXkXlXkXkXkX@X@X{.!.!.{.{.XX+X}.) r - - @         . . .                 X +                                                                                                                                                         ",
"                                                                                                                                o A fXgXgXcXcXfXfXfXCXCXfXJ.~ k t 7 9 9 p z J x ] | ] ] ~ u #   . * 7 9 p a S G Y -.0.0.1XtXVXVXHXPXUXPXPXPXUXUXUXZX5X3X3XpX.X'.^.U.m.7.7.7.7.V.W.m.V.!.jXkXkXlXlXlXkXkXkXOX{.{.{.{.+XkXoXz.j 6 > =                               X e +                                                                                                                                                         ",
"                                                                                                                              5 &XfXgXgXcXgXgXfXCXSXSXZX=XQ d t 9 t t 7 z J K | 9.] k ;             * 9 p a G P U -.0.0.eXVXVXVXeXeXHXPXPXPXUXUXGXBXfXaX3X_.U.P.r.7.3.1.3.3.7.V.I. XXXoXvXlXlXlXlXlXkXkX@XOXOX{.XXhXlX+XS.R h r 6 .                               v 3                                                                                                                                                           ",
"                                                                                                                          o V uXgXaXgXgXgXaXgXCXSXDXZXc.J x x z k d 9 7 7 J ..] t #               . O 7 a H P H Y T T 0.VXVXVXVX1Xh.eXVXPXUXUXNX0XfX5X/.T.i.r.4.1. . . .1.3.7.R.oX+X{.xXvXvXvXlXlXlXkXkX@XOX{.{.hXbXlXL.W j s r *                               3 m                                                                                                                                                             ",
"                                                                                                                        4 $XaXpXgXgXgXaXaXgXCXSXSXfX>.J J J x g d , , d J J w .                 . @ : a G H P Y Y Y Y -XVXVXVXNXh.h.d.wXtXPXNX2X<X>XT.Y.t.q.1.} } } }  .1.D. XXXhX[. XAXmXvXvXvXlXkXkX@XOXOXOXkXbXvXL._ E h r > .                             . Z ;                                                                                                                                                             ",
"                                                                                                                    . B ;XaXaXgXgXaXaXaXaXgXCXSX:X%.J J x g d d 7 9 d t - .         . & 4 4 , * * : 9 a S P U Y I Y T eXVXtXVXeXh.d.s.h.qXeXg.g.p.p.y.9.9.| } } ' ' } 4.3XjXOX+XoX!.dXKXAXmXmXvXlXkX@X@X@XOX@XlXvX^.o._ D s r >                               5 V                                                                                                                                                               ",
"                                                                                                                  & l.aXaXaXaXpXpXpXaXaXgXcXCX;X~ J x z d d d 9 d 8 #     & u u B V V B u ;     . : p a G U I I I I s.VXtXtXVXeXd.s.s.h.h.s.s.f.u.y.9.-.| L ' } L } F.aXdXoX+XoXQ.W.CXDXAXAXmXbXvXlXkXkX@X@XkXxXE.o.` E j s r > . O + . X                   . 5 &                                                                                                                                                               ",
"                                                                                                              . B ;XdXpXpXpXpXpXpXpXaXgXcXfXc.J x x g d d d d x ~ v Z c.%X%Xl.V B u , , * O O * : 9 a G U G G I G I -XtXqXtXVX1Xd.0.0.s.0.0.0.0.0.9.-.P P L L | >./.dX X~.(.E.I.R..XDXAXDXSXSXAXmXlXlXkXkXhXjXQ.2.o._ R j s r q > q s R y                 1 B &                               . .                                                                                                                               ",
"                                                                                                            & l.gXaX3X).).'.'.'.3XdXcXcX;X*.J x g d d d J >.J.iXcXcXfX%XV ; .   # : : : , , : * : p G -.I G G S S :.eXqXqXtXeXd.0.<.<.<.0.0.0.0.0.Y P P P L -.t./.).U.D.r.6.7.G.W.cXDXAXKXLXKXLXDXbXlXlXkXhXE.5.o._ E D h s s s h E @._ @             % m l.4                               .                                                                                                                                   ",
"                                                                                                        . v ;XdX'._.^.^.'.'.'.'.aXgXcX;X~ J J g j J { S.).aXdXaX&XZ 1 * O       . * : - * @ * , 9 z I I z I z z S a.qXqXqX:X:.T Y Y Y <.<.<.0.0.-.U P P | 9.9.q.q.1...q.#.3.m.I.}.KXDXSXKXIXUXUXLXDXvXkXjXE.n.2.o._ R h s s j E o.5.X.q           . q M >.5                                     .                                                                                                                               ",
"                                                                                                      ; l.iXpX).^.'.'.'.'.'.pXaXdXgXJ.^ J J ^ >.F./.aXxXdX;X*.u X           . * : * . . * , 9 9 p G G a I ;.S a G -XwXqXf.Y I I Y Y Y <.<.0.0.0.-.P P P | | L L | ..e... .3.G.R.dXIXKXDXLXIXUXUXIXIXAXxXQ.B.n.2.` E j s h R o.2.5.o.n .         % M Q >.v                                     .                                                                                                                                 ",
"                                                                                                  . v ;XdX'.'.'.'.'.`.`.'.pXpXdXaXz.^ ] >.F.).pXgXcXxXL.Z 1             O - * @ # @ @ @ # . @ 7 k a p z u.U G a :.wX-X:.I I I I Y Y T 0.s.0.0.T U U P P P P | 9.q.q.{ } 4.D.I.E.CXLXDXKXLXUXUXUXUXUXKXoXC.B.n.2._ D h h _ 5.o.5._ R @         2 / f m Z .                                                                                                                                                                       ",
"                                                                                                & *.iX.X'.}..X'.'.(.'..XpXpXsX3X>.#.F.).pXpXaXgXgXL.m %             . @ * * * * # # # $ $ : : 7 a a a ,.u.I z G -Xa.I I I I I Y Y 0.s.s.<.Y Y Y U U U U -.9.y.p.q.' '  .6.D.M.(.DXDXDXKXLXIXUXUXUXUXSX[.Z.B.5.` E D R o.5.o.$.W j *         t [ r i *.&                                                                                                                                                                         ",
"                                                                                            . v &XdXoX.X.X}.(.(.(.'..X.XpXaX/.F.U.^.^.J.F.T.).c.v #                 % , 3 u u u u w : $ O   . 0 G G %.-X0.G a &.,.G I G G I I T 0.0.0.T T :.=Xs.s.f.g.g.>X>X>Xu.] ' ' ..4.6.m.aXKXDXKXLXIXIXUXUXUXLXxX].V.5.` E F _ 2.2.X.o.W s +       @ j [ y 3 z.3                                                                                                                                                                           ",
"                                                                                          & l.zXxXhXsX.X(.(.(.(.'..XpXgXxX3X^.^.A.{ Q ~ >.*.e * .       X = e v N *.>.=.Z v 5 ; # .       # a I G z =X,X0.G z I G I I G I I :.0.T Y :.d.eXGXVXwXwX1X,Xg.g.p.e.] ' ^ '  .#.6.H.CXKXDXKXLXIXIXUXIXAXsXW.n.2.` E E _ 2.2.o.o._ r O       > E ` r = +.M                                                                                                                                                                             ",
"                                                                                        v yXmXvXjXsX.X(.Q.(.`.'.pXjXnXcXpXJ.>.Q f f f i w > > - - > t R / +.>.*.m e ; X               $ l T <.I a ,.2Xg.:.G G G I I G I Y 0.T Y :.d.eXHXPXPXVXqXwXh.h.g.g.,.K K K K ....#.D.3XKXDXDXKXLXLXIXJXxX[.V.5.2.` _ ` o.2.2.o.2.o.q       O f ` _ s @ ) +.;                                                                                                                                                                             ",
"                                                                                    & l.zXmXvXxXsX.X`.`.`.`..XjXnXnX3Xz.~ x f j f y f d d j D R D j d t > = .                     O u :.s.0.Y p c -Xg.f.:.G G I U G G I Y Y ,.eXVXqXtXHXPXUXPXtXwXh.h.,Xy.K J J K  .| [ 4.D.fXKXSXKXKXLXIXCXoX~.V.7.2.o.` o.2.2.2.o.2.o.q       = W o._ r - ! G.M                                                                                                                                                                               ",
"                                                                                  v *XAXbXvXvXxXjXdXdXjXxXxXbXmXdXS.^ j Q ! ) >.>.+.^ f t > - * +                               ; &.0.0.0.T a k =X,Xf.u.0.G I ;.I G I Y ,.-XqXtXtXVXVXVXUXUXUXtXwXh.d.:.H J z K { ^ ^ { 4.H.ZXDXKXKXLXIXcX~.W.V.7.3.o.o.2.2.2.2.o.o.X.2       2 O.@._ r 6 R M.$.-                                                                                                                                                                               ",
"                                                                              & l.CXAXbXbXbXvXvXbXAXAXAXnXmXbXiXz.+.+.z.z.z.>.m w - .       . .                               $ &.s.0.<.Y z 9 ,.8Xg.p.p.;.G -.;.G Y f.eXwXwXwXqXtXVXtXHXPXUXPXtXwX1Xf.H S z K { K K '  .4.3XKXDXKXLXUXfXU.V.7.3.3.3.5.5.5.5.5.5.2.o.2   .   y 5.@.R h 6 R m.M.b                                                                                                                                                                                 ",
"                                                                          . B uXAXmXvXvXbXbXmXmXAXAXAXAXDXAXdX(.K.S.z.! f w 2 > *                 .                         O &.s.:.I a 7 7 c 8X,Xp.p.p.I G U &.=XNXeX1Xh.j.j.qXtXtXtXHXHXPXHXqXqX-XI G z S ] J J K '  .w.BXDXKXJXUXBXU.D.4.3.3.5.n.n.n.n.n.B.n.o.r @ > @ b v.[ D E h D 5.C.+.=                                                                                                                                                                                 ",
"                                                                        & l.zXmXvXvXbXmXmXAXmXmXAXDXLXUXKXdXL.z.m 1 @ = > > = .                 .                           c s.c < $ : 9 0 =X7Xf.p.g.f.&.,.-XeXeX1Xh.h.h.h.h.wXj.j.tXVXVXPXVXqXeXU G z z z J J J K { 4.J.JXKXLXIXBXF.7.3.3.7.n.B.B.B.V.Z.Z.B.o.q . 6 r N b._ W @._ D @.V.b.e                                                                                                                                                                                   ",
"                                                                      v &XvXvXvXbXAXAXnXmXAXDXKXJXJXZXfXc.) f r - + . + .                                                 $ u $     7 9 9 &.rXg.p.g.,X1XNXNX8X1X1Xh.g.h.h.h.h.j.h.j.qXtXVXHXtXqX:.G G z z z J K K ^  ...9XJXLXIXfXw.3.3.7.7.7.n.n.n.C.].].V.o.q   . t +.A.[ E _ o.W @.M.N.M .                                                                                                                                                                                   ",
"                                                                  % A zXvXvXbXAXSXDXSXCXCXCXfXiX).H.A.6.@./ n > .                                                               O , , 7 l 8X2Xg.g.,X1X8XrX1X1X,Xg.g.g.g.g.h.j.h.h.h.wXtXVXHXtX:.G G z z z z K ] ' | } >.ZXJXUXfXw.3.3.3.1.3.3.3.v.W.[.W.7.W -     3 z.b.W D j h _ @.n.R.k.=                                                                                                                                                                                     ",
"                                                                5 *XnXbXCXSXDXZXCXfXiX).E.D.6.@.O.O.O.O.@.6.6.+.) y =                                                         * , , 7 7 a.0X,X,X,X,X1X8X1X1X,Xg.g.g.g.g.h.1Xh.h.h.h.j.qXVXGXa.G G z a z K K K ' ' | ' =XJXIXuXw.1.} ' } } } @.M.W.R.5.[ D > . . o z.+.R D j s h @.n.C.M.e                                                                                                                                                                                       ",
"                                                            & A ZXKXZXuX;Xc.z.>.>.w.6.$.#.O.[ [ [ / / / [ @.6.b.M.G.b.! e 2 % .                                             * p k k 7 l 8X2Xg.,Xg.,X1X1X1X1Xg.f.f.g.g.1X1X1X1Xh.d.h.j.tXVX-XI G z z z ] q.K ^ ] ] | { BXPX:X..' ' } ' F F [ 6.6. .E Q l 6 6 >   v z.j D D h s D n.R.R.!                                                                                                                                                                                         ",
"                                                        o B &X:X%X=.%.Q Q ^ / [ [ [ [ [ / / / ^ / ^ ^ / O.$.6.b.M.G.G.G.G.b.+.f @                                         - k H 9 @ 7 =X7Xg.g.g.g.2X2X2X,Xg.p.p.g.g.1X1X1X1X1Xh.d.h.wXVX:XI G G z a J ] J ] ..' ] K ,.JX:X{ ' K F F D F F F D g g Q M r f >   & x.Q j D h r s _ V.W.G.;                                                                                                                                                                                         ",
"                                                        o 5 u m ~ ! M j f f j j M Q Q Q Q Q Q Q ^ / [ @.$.b.b.m.M.G.D.D.m.#.Q > +                                     * k H J :   O %.8X,Xg.g.g.1X2X2X,Xp.u.y.y.g.1X8X8X8X1X1Xh.g.h.qXNXY G G z a a a d K q.| ' L K :X=X| K F F F g g g s s s g Q Q g / w     Z >.f j j r - s 5.R.K.m                                                                                                                                                                                           ",
"                                                              . 1 v m M f t d f j j j Q Q Q Q ^ / [ @.$.6.b.b.m.m.m.m.b.6.#.#.{ { Q w #                         O O w %.;.%.;     4 -X<Xg.,Xg.,X2X,X,Xp.y.y.y.u.g.1X2X8X8X8X1Xg.g.1XeX,.G G S z a k d J q.q.' ' K ;.J.| ' ' } ' F s 8 8 p g g f g d ^ w     5 z.d g j d 8 * R b.R.+.o                                                                                                                                                                                           ",
"                                                                    X 3 m ) ! n j j n R Q Q ^ ^ / [ O.@.$.6.b.b.b.b.b.6.6.6.4.4.4.4.#.{ ~ ~ w .           . * 7 7 l ;.u.%.$     . =.<Xg.,X,X,X7X,X>Xg.y.y.y.y.p.,X2X8X8X8X8X2X,X,X1X-XI H G z k a z J ] r.| K L J >.L ' } } } F s 6 : p g w 6 8 8 r q     % *.f r j g s 8 d O.R.S.3                                       .                                                                                                                                                     ",
"                                                                          ; v ! ! M j j n Q ^ / [ [ O.@.$.6.6.b.b.b.b.6.6.4.#.#.4.4.#.{ M e %         + , 7 9 , l u.,.u         u >Xp.,X<X,X2X<X>X>Xy.y.y.y.u.>X2X2X7X8X8X8X2X,X,X7X,.H H z z z z K J q.q.| ' ' ;.] L } ' L F p 8 6 t 8 > 8 s > O * .     V ~ 6 d f d 8 8 / M.R.m                                     . =                                                                                                                                                       ",
"                                                                              o 3 m / ^ Q R R R Q ^ [ O.@.$.6.6.6.6.6.4.4.6.w.w.{ M 3 +     @ - . @ 7 9 , 7 : u &.u o         & %Xp.>X<X,X<X2X>X>Xp.y.y.y.y.p.,X,X2X7X7X8X7X2X,X,X-XI H H S S H K J { r.q.| | | ] L ' ' K D 6 > t y = > s s 6 . O @     5 >.r 8 d d t 6 d $.E.+.%                                     ; +                                                                                                                                                       ",
"                                                                                  . ; i M ^ Q j j j R E / [ O.@.#.#.6.D.w.+.! e %       - w 7 > t d 7 7 9 : . $ X         .   A 7X>X<X>X>X<X,X<XY.y.y.y.y.y.p.>X>X<X<X7X8X2X<X>X2X,.S K P H L L z K q.q.1.| | ' L L K F g 6 * f i > 8 g d * . O O @   X %.f 8 9 9 t 8 - n G.S.;                                     * %                                                                                                                                                         ",
"                                                                                        + e ! O.[ ^ ^ / [ @.#.b.G.D.>.! e %         - d x 9 7 g g f x d *             = i , u BX9X>X<X>X>X>X7X<Xu.y.y.y.y.y.Y.Y.>X<X<X7X9X<X<X5X9X~ H L K | ..' J q.e.q.1.9.q.L K K F g g M *.i 6 D F g 8 O - @ @     u ~ > 9 9 9 8 > > ) K.e                                     . O                                                                                                                                                           ",
"                                                                                            o e ) z.A.b.G.Q. XL.*.e %           - d J J g g J J J z > .         . , k ~ k k :XBX<X<X<X>XY.<X9X>Xt.t.y.e.e.p.p.p.Y.>X<X9X5X<X<XfX=XH K ] 9.q.1.' | q.e.9.9.t.;.K J F D ^ A.S.f s ' } D s > , * O .   # ,.l 7 9 9 8 8 6 f A.!                                       .                                                                                                                                                             ",
"                                                                                                X u x.}.}.L.Z 1 .           - f J J x g x K ^ J w +         o u J ~ k 7 9 &.ZX6X<X5X<X>XT.6X5XJ.t.t.e.e.y.p.p.p.Y.<X6X9X5X5X9XBX,.] 9.q.q.q.1.' 1.e.e.e.e.<Xu.L } ..7.(.x.j D  . .D s > > : O O     u -X%.d d p 9 8 d +.>.+                                     .                                                                                                                                                               ",
"                                                                                                    X 5 V &             X y ^ K J J J J ^ J t @         o v *.;.~ w 7 t k :XCX5X<X5X<XY.3X6X3Xe.t.e.e.t.t.t.t.p.T.5XfX9X6X9XCX:X;.q.r.r.q.q...| q.t.t.i.Y.Y.Y.t.r.P.E.*.d D  .} g 6 - > : * * O   X %.1X%XH z d 9 7 x >.1                       . .           @ .                                                                                                                                                               ",
"                                                                                                                      % Q ] ^ K K ^ ] ^ t +         . u ,.J.;.~ 7 7 z p =.ZXfX4X<X5XT.4X6XfXJ.e.t.e.e.t.t.t.i.Y.4X6XfX6X6XfXSX=Xq.P.r.r.r.4...| q.i.Y.Y.i...| 4.P.F.m 6 g F F s * - y > * @ :     u 0.8XeX,.H d 9 , ~ i                       . : .       # , $                                                                                                                                                                 ",
"                                                                                                                    1 ) { { ] { { ~ i -           o Z >.e.e.~ w t z d l MXCX3X4X4X4XT.3XaXaXt.t.e.e.t.e.e.t.i.Y.4X6XaX6XfXCXZXt.P.P.F.F.r.4.| | t.Y.Y.t.| | 4.D.>.w 6 d j g 8 * , ~ t O O # #   . &.u.1X1X1X;.z k l l .                       , *       , l 0                                                                                                                                                                   ",
"                                                                                                                  5 z.F.F.w.>.m 3 X             . V ;.q.t.%.w d z x d %XKXgX4X4X4XT.T.3XfXT.r.t.e.t.e.e.t.t.Y./.6XaX6XaXcXSXfXP.U.U.P.P.r.1.| e.P.i.e...q.P.F.~ , : 6 d s * . ; ~ g * O   O     < f.f.h.h.qXd.:.H J =   . @                 : :       : I c O                                                                                                                                                                   ",
"                                                                                                                v L./.L.*.i %                   i ;.>.J.m , t z x d %.FXCXaX4X4X4XT.T.aXfXJ.t.t.t.t.e.t.t.t.T.3XaXaX6XaXCXJX3XU.^.E.U.P.r...q.P.i.q.1.r.U.F.m - > O > 8 *   % ~ D > #           V h.d.1XwXqXeXf.;.7   . @ .               # :         l :.;                                                                                                                                                                     ",
"                                                                                                            . V 3XL.*.5 X                     5 >.e.J.m # 7 z x x l :XLXcX6X4X4XT.F./.fXaXF.F.F.F.r.r.t.t.Y.4XaXgXaXpXgXSXCX^.`.`.~.U.U.4.4.Y.F.q...r.U.>.e * -   O 6 @   X V J > *           o a.h.h.1XwXqXVX1XI O @ - O               . , # . . O : :.<                                                                                                                                                                       ",
"                                                                                                          o A c.V ;                         ; >.F.T.%.@ , f x x d =.JXSXcX3X4X/.F.Y.3XfX/.P.U.U.F.t.t.P.Y._.pXdXaXaXaXcXSXaX(. X X~.Q.P.4.F.F...4.P.U.*.;   .   . * .     V ] 6 *             5 1Xh.h.1XqXtXVXeXu * 7 * .               - , : , 9 l &.u                                                                                                                                                                         ",
"                                                                                                        & v u o                           % *.J.4XJ.i w d f x g l uXKXCXgX3X4XY.F./.gXiXP.E.E.E.P.t.P._._.3XdXgXdXdXxXAXCX'. XXX X~.(.r.D.r.1.r.^.H.m X         . .     3 ;.g ,               C 1Xg.h.h.qXtXVX:Xk 7 *                           . $ < .                                                                                                                                                                         ",
"                                                                                                        o X                             o %.J.4XL.M t d d f x d =.DXAXcX3X'./.F.T.iXgXU.U.(.`.E.P.U._._.pXgXgXgXgXcXAXDXgX XXX X~.`.U.D.D.6.D.^.z.e                   . l K t .             o -Xh.f.h.h.wXtXPX%X7 .                                                                                                                                                                                                             ",
"                                                                                                                                      . Z J.3X;X~ t d d f J x l MXAXcXaX)._.F.H.3XfX^.I.`. X`.^._.'.3XdXxXxXxXxXnXAXDXKXdXXX X X XE.H.F.F.H.E.z.w .                   , J i .               5 wXd.f.d.d.wXVX*X4                                                                                                                                                                                                                 ",
"                                                                                                                                      B J.3X;X~ d d d x J J d %XSXcXaX'._.F.F./.gX3XU.`..X X`.'.pXgXxXbXbXbXbXAXAXSXKXSXsXXX X XE.U.U.H.U.).>.d >                   + x i .                 V 1Xf.f.s.h.eX$X&                                                                                                                                                                                                                   ",
"                                                                                                                                    v J.3X6X%.d d d f J ^ x %.ZXCXdX'._.U.r.U.iX3XU.`..X^.`..XaXcXnXbXbXmXmXAXAXAXDXLXbXoXXXXXQ.E.E.E.(..X>.d s 6 @                 i i .                   =.f.0.u.d.wX=.X                                                                       . , .                                                                                                                                         ",
"                                                                                                                                  5 c.4XaX>.d d d f x ^ Q x :XDXgX'.`.U.w.F.).iXH.(.}.^.(.pXdXbXnXbXbXmXmXmXAXSXSXLXJXjXoXoX[.Q.Q.(.sXoX+.j s s 6 .               ; i X                   % a.0.0.0.-XC o                                                                       . , @                                                                                                                                           ",
"                                                                                                                                4 c.3XfXJ.f t d x J ^ ] g =.JXgXpX'.^.r.r.).iXH.E.`.^.^..XdXbXbXxXxXbXmXmXAXSXDXKXIXSXoXoX X XoXjXxX}.$.j h d r O               . w X   .                 4 ,.P 9.u.B .                                                                       9 p -                                                                                                                                             ",
"                                                                                                                              & c.3XfXL.Q d x J ^ { ..x i BXcXpX'.'.U.r.).dXH.U.^.E.E.'.sXxXvXxXjXxXbXmXmXSXDXDXLXIXxXoXXXsXxXAXnX(.6.E j h s >                 > #   @               .   B ;.P u.v                         + -                                             < :.0                                                                                                                                               ",
"                                                                                                                            % l.3XfX;X~ x ^ ] ..4.{ f - $XSXpX'.'.'.^.).gXL.H.E.E.U.E.'.sXjXjXjXjXxXmXmXAXDXDXKXIXKXjXxXAXLXLXzXE.b.[ D j d r > .             @ @   - O             .   . =.%.,.V                           > =                                             z l .                                                                                                                                               ",
"                                                                                                                          o =.3XgXL.{ ] ..4.w.{ y %   u ZXdX.X.X'.'.3XcX3XF.U.U.U.E.E..XdXdXjXjXxXbXmXmXSXDXDXLXUXJXDXUXUXLXdXR.m.@.R j f s s 6     .       . @   - *                   ; ,.;.V .                         > >                                             * k .                                                                                                                                                 ",
"                                                                                                                        . A 3XaXJ.{ ..q.w.{ y %     # *XcXpXsXsXpXpXcXcXJ.U.U.U.U.E.^.pXjXdXjXjXvXmXmXAXDXDXLXUXUXUXUXUXKXdXE.m.$.E D j h h s @ . - O       @ . - - .                   B ,.V o                         > y .         . .                               . , +                                                                                                                                                   ",
"                                                                                                                        V iXaXJ...q.r.>.i %       @ V ZXxXdXxXdXpXxXAX;XU.U.U.U.U.E..XjXdXdXjXxXmXmXmXAXSXDXUXUXUXUXIXDXxX~.M.5.[ R D j D h r - 6 @     . = O - > *                 . X =.V X                         @ M ;         * 6 .           O                   - +                                                                                                                                                     ",
"                                                                                                                      B iX3XJ.w.J.z.i #         - y uXSXxXxXxXdXxXAXiXH.U.U.U.U.E.`.dXjXdXjXjXvXmXmXmXAXAXKXUXUXUXIXKXvXXXR.v.@.W R D D j s r d r @   * > * @ > - O         % =       5 =.%     @ . =                 i 3         + g -                               - *                                                                                                                                                       ",
"                                                                                                                    5 ;X/././.c.v o           + w =.KXAXbXAXbXxXmXgXH.P.U.U.U.E.(.sXjXjXjXjXxXvXvXvXbXAXDXLXUXUXUXLXmX+X].V.v.O.E R R D j h f f s > > 6 = . - = - +     + y M =     . B ;     - > q w               1 u           w j +                             . *                                                                                                                                                         ",
"                                                                                                                  1 &X/.3X&XV %               2 m MXKXAXAXSXnXbXxX^.I.P.U.E.E.`.sXjXjXjXjXjXjXjXjXvXmXAXDXIXUXUXIXSXlXOXW.M.5._ E R R j j j j h r r s *   * > w w ;   2 M ! - O .   & 4       q - M >             X i #         > g d                                                                                                                                                                                           ",
"                                                                                                                & c.aX&XB %                 = y l.IXDXSXDXSXnXbX).I.P.I.E.E.`.sXdXjXdXjXjXsXsXhXlXvXmXAXDXUXUXIXDXvXkX{.!.n.o.W E E R D j R R D j s *   + > i v u ; e ! M =   @ .   .       @ 6 q ! X             3 ;         . 8 g 7                                                                                                                                                                                           ",
"                                                                                                              o $X:XV %                     > m BXLXDXKXKXAXmXdXI.D.I.E.(.'.sXdXdXdXsXsXsXsXsXhXvXmXmXAXLXUXKXAXvXkXOX].Z.5._ W E E D R E E R h > @   * w m i 3 3 m ! y +     .             > > M e             + =             > g -       . .                                                                                                                                                                                 ",
"                                                                                                            o A A &                       @ r c.IXKXKXKXDXAXxX^.D.U.(..XsXsXsXsXsXsXsXsXoX.XoXjXvXmXmXKXLXbXlXlXkX@X{.].B.2._ W E R R E R j h 6 O   % y Z v = y ) ! w                     @ r 6 f +     . .     %             . 8 d O     O , .                                                                                                                                                                                 ",
"                                                                                                          X u 5                           2 m BXIXKXKXLXSXxX).^.}.sXsXsXsXoXoXoXoXoXoX.X X.XsXvXvXmXKXJXjXOXOX@XOX{.{.].n.o._ W R D R E R h r 6 * + v Z v - f R f =                       q q y >       + . . + .             * 8 *     * x ,                                                                                                                                                                                   ",
"                                                                                                          o o                           = y c.IXLXKXKXKXnXiXdXxXjXsXsXoX.X.X.XoXoXoX X`. XoXvXbXmXDXJXjX{.{.{.{.{.{.OXW.5.o._ E R R E R h s r r r v Z i - f f @                         O f > w .     - @   + O               . .     * x ~ .                 .                                                                                                                                                                 ",
"                                                                                                                                      X q m ZXIXLXKXKXAXzXcXvXjXsXoXoX.X.X.X.XoX.X`.~.`..XxXbXAXDXKXjX{.].].].].].].OXR.2.o._ E E E D h h s s f *.*.y 6 r q .                           > n q =     * j +   @       +               * d K ,               @ = =                                                                                                                                                                 ",
"                                                                                                                                      2 f &XUXLXKXKXAXbXnXxXjXsXsXoXoX.X.X.X.X X~.~.~. XjXvXAXKXJXjX{.].].Z.Z.Z.].].{.N.2.o._ E E R h h h h n *.*.f s s =                               f Q y .   O d j + . .     @ @             O t g k           + 1 O - @ .                                                                                                                                                                 ",
"                                                                                                                                    . q ) FXIXLXKXSXnXbXjXhXhXsXoXoX.X.X.X.X`.E.E.~. XjXvXAXKXKXjX{.].!.C.V.V.C.Z.Z.].M.o._ _ W R j h h h R *.*.f h s 6                     # X       O / O.2     r D j +         - @           . - t z #           v v . O                                                                                                                                                                     ",
"                                                                                                                                    - f &XUXIXLXDXAXnXjXhXhXsXoXoX.X X X X XE.E.E.`.hXvXAXKXSXjXXX!.!.V.B.B.B.B.C.C.C.5.o._ _ E D j R R E >.) R D s s -           o ; 3 v m v #       * / ! .   @ j j j O       . 6 .       . O * > t =           & z.e @                                                                                                                                                                       ",
"                                                                                                                                  X q *.FXIXLXKXSXAXxXhXsXsXoXoX X X X X X~.Q.Q. XsXjXAXDXAXhX[.W.W.V.n.n.n.n.n.B.n.n.o._ _ _ E E W E _ z.) W E s j y X ; v v N ) z.S.S.*.1           > R -     * j j j .       @ 6       + * * , t -             N S.1                                                                                                                                                                         ",
"                                                                                                                                  > f :XUXLXLXDXAXvXhXsXoXoX.X X`.`. X X X~.~. XsXjXAXDXAXsX[.R.W.C.v.v.v.5.5.v.n.v.5.o._ o.o._ o.o.@.S.) ( W f ) x.*.x.L.(.E.G.D.H.*.3               t d .     - j j j O       - =     . - > 6 t >             3 S.z.o                                                                                                                                                                         ",
"                                                                                                                                . q *.JXIXLXKXSXbXhXsXoXoX.X X~.~.`. X X~. X.XsXxXAXSXnXoXW.C.C.C.v.5.5.5.5.5.v.5.5.5.o.o.o.o.2.5.v.;Xz.k.z.x.).dXpX X`.Q.G.D.S.*.e X     X %       . r >       > j j j @       - .     - > q t >             o ) G.z.                                                                                                                                                                          ",
"                                                                                                                                = f uXUXLXKXSXbXjXoXoX.X X X~.Q.~.~.~.~. XoXsXxXAXSXvXoXW.M.V.C.v.5.$.$.5.5.5.5.5.v.5.@.o.$.v.n.m.yX;X).dXsXoX XQ.~.`.`.E.H.z.v X         3 +       + q O       q j D j @     O -     = 6 t d q .     O       e / G.*.                                                                                                                                                                          ",
"                                                                                                                                > =.LXIXLXDXnXjXsXoX.X X X~.E.E.Q.Q.~. X.XoXxXSXSXvXXXW.m.M.V.n.5.@.@.@.5.5.5.5.v.n.5.5.v.v.v.A.fXcXxXjXoX`.Q.Q.`. X X(.H.*.;           ; ; X       @ =         r j R j O     * +   @ w 8 d q @     . .     1 ) E b.N                                                                                                                                                                           ",
"                                                                                                                              X y uXIXLXKXAXxXsX X.X X XQ.E.R.R.R.W.~. XoXxXSXSXxXXXW.n.n.M.v.5.@.@.@.@.5.5.v.n.n.v.n.M.v.@.z.zXAXxXdX.X`.(. X X XoX}.z.5 .           X 3 ; .     . = .       . t j R n O     - . @ e q t 6 =       +     o ) O.D +.v                                                                                                                                                                           ",
"                                                                                                                              = =.JXLXKXSXxXjX X XoX.X`.E.R.I.I.R.Q. XoXjXSXSXjXXXR.m.n.n.v.5.@.@.@.@.@.5.v.n.n.n.M.M.5.+.;XCXxXsX.X X`. XoXsXsXhXL.v X             . ; ;         + @         . t j R R +     @ . e f > - @       @ .     N +.W j k.5                                                                                                                                                                           ",
"                                                                                                                              w uXLXKXDXnXjX.X`.oX.X(.E.R.I.I.I.R.~. XhXAXAXhX[.R.b.v.v.5.$.@.@.O.O.@.5.v.m.m.M.V.m.6.L.zXnXsX X X X X.XsXjXxXzXc.e .               + X           + .         @ d j R E @ + . + = ) y @ +       . O     b b.5.W D z.1                       .                                                                                                                                                   ",
"                                                                                                                              A KXDXDXAXjXsX`. XoX(.E.I.G.m.m.I.Q. XsXnXbXXXW.D.6.5.5.5.5.$.@.O.O.@.5.v.m.n.M.M.b.J.fXcXxXsX X X X XoXjXvXnXuX*.r f w                             O           > g j R W - @   . b m .           .     e k.m.v.O.R z.&                     = -                                                                                                                                                   ",
"                                                                                                                            ; uXDXDXAXjXjX.X`..X(.E.I.D.m.b.D.R.`.sXnXxX[.C.6.$.5.$.$.$.$.@.O.O.@.$.v.v.n.n.m.A.yXZXxXsX.X`. X XoXsXvXmXCX&XM h W O.w .                   .             .   . t j j R / @ + * 2 ) %                 = k.5.M.N.@.W z.%                     q -                                                                                                                                                   ",
"                                                                                                                            A DXSXSXxXjXsXQ. X`.E.I.D.b.6.m.G.Q.sXAXbX XM.@.@.@.@.@.@.@.@.@.@.$.5.5.v.v.n.m.^.gXcX.X`.(.`..XoXoXjXmXAXuX*.f W v.b./ - @                                 * + - g j D E W O - - ) v             .   X ! b.5.R.N.@.[ z.X                   O y X                                                                                                                                                   ",
"                                                                                                                          4 MXSXSXbXjXsX`.(.`.E.I.D.6.6.6.G.Q.sXAXbX Xb.[ [ O.[ [ O.O.O.$.v.5.5.5.5.5.v.G.(.sX'.E.I.E.`.oXoXhXvXAXCXc.b s ( m.C.m.n @ .                                 y q d j j D W W + - e z.X           @ .   y @.5.v.N.R.@.+.z.                    > w                                                                                                                                                     ",
"                                                                                                                          l.SXAXnXjXsX`.Q.(.Q.I.D.6.6.6.m.Q.sXAXbX(.O.R [ [ [ [ [ O.$.m.m.5.$.5.5.5.v.G.(.(.U.D.I.E.`.sXhXjXAXAX;X! r f O.M.Z.Z.6.w @                                   ) f f j D R [ [ = @ *.v           + -   - ( $.v.M.N.N.O.A.*.                    w %                                                                                                                                                     ",
"                                                                                                                        4 zXAXAXxXdX}.E.Q.E.I.D.6.5.6.m.E.oXbXxXS.^ R W / / / [ @.v.v.5.@.O.@.@.5.6.G.E.G.m.m.D.I.(.sXjXmXAX:X*.f s n O.M.Z.].W.#.> @                                 % +.j j j D R [ [ - e z.o           2 X + j O.$.v.M.M.M.[ K.m                   . >                                                                                                                                                       ",
"                                                                                                                        l.mXmXxXsX.XE.E.E.G.D.6.6.6.m.R.oXbXdX>.j D R E E E [ @.$.@.[ [ [ [ [ @.5.D.G.D.6.6.m.G.(.hXbXcX;X*.f f n O.v.M.M.C.W.W./ > =                                 1 +.j j j D R [ [ q *.v           > >   q R O.$.v.$.@.v./ Q.e                   % %                                                                                                                                                       ",
"                                                                                                                      5 zXbXxXsX}.E.I.E.G.D.6.6.6.m.R.oXvXdX+.j j D R R E W [ W E E E E W [ [ @.m.D.6.6.6.m.G.}.xXzX$XN f s j [ v.M.M.M.M.C.Z.W.! q O                                 e +.j j j D E [ / ! z.o         - y   . - R [ @.$.W W $./ Q.3                   =                                                                                                                                                         ",
"                                                                                                                    X x.vXxXsX(.E.G.G.G.D.b.6.6.m.G..XvXiX) j j j j D D R R D R R R R R E [ [ @.6.6.6.6.D.^.gXzX$X5 X > s R $.M.M.M.M.M.M.N.C.W.f @                                   m +.j j j D E [ W +.i .       @ n =       q R W W n n O./ K.1                 . @                                                                                                                                                         ",
"                                                                                                                    v sXjX.X(.U.G.G.G.D.b.6.6.m.G.}.xXiX) f g j j j j j g j j j j D R R E W [ 6.6.@.#.H.gXCX$X5       2 W $.M.M.M.M.M.M.M.C.C.W.2                                     ) / j j j j E [ [ +.% .     - n y         @ j R R j j / ^ S.&                 @ X                                                                                                                                                         ",
"                                                                                                                  o x.sX}.E.E.G.G.D.D.6.6.6.m.G.}.xXiX) d f f j j f d s d g j j j j D R E [ 6.#.[ w.3XCX&X5 .         b O.b.M.N.M.M.M.M.N.R.W.|.2                                   . *.Q j j j j E / >.i O     > R ^ +       . * R R R j j E ^ z.%                 @                                                                                                                                                           ",
"                                                                                                                  v ^.^.U.E.G.G.D.A.A.6.b.m.G.}.xXsX) d d d f d d r r s d f g g j j D ^ #.w.[ { L.fX&XB o           # ! $.m.M.N.M.M.M.M.R.W.].|.&                                   o z.Q j j j D R O.>.- .   > R [ w     O * > > R R j h j R E +..           O     .                                                                                                                                                           ",
"                                                                                                                % >.F.F.E.U.G.D.A.A.6.b.D.G.}.jXsX+.d d d d 6 > 6 r r d f f d d h j [ w.6.#.J.;X$XB o               3 O.$.M.N.N.M.M.M.R.R.W.W.Q.% .                                 & S.Q j j j D R >.m =   > R ^ f       = r s f W R j h j D R !           @ -                                                                                                                                                                 ",
"                                                                                                                v w.F.^.^.G.D.D.D.6.m.D.D.(.jXsX>.d d d q @ .   @ r s d d s s d R +.6.6.F.;Xl.5 .                   m +.b.M.R.M.m.M.M.M.W.W.Q.|.& .                                 5 J.j j f j D / >.2 + q E Q f +       % f f j W R j f j j R M     .     > @                                                                                                                                                                 ",
"                                                                                                              & >.F.^.).H.D.D.D.m.6.m.D.Q.hX.X) d t q - .       - r d s s r f ^ #.w.H.L.=.4                       % +.6.M.R.I.M.m.M.M.R.W.R.[.}.; .                                 v S.j j j j D +.m - > R E j -         . b j j W R j f j f n n     > . O q .                                                                                                                                                                 ",
"                                                                                                              m e.T.3X^.H.D.D.D.6.D.m.E.sX}.) d q =           - r t 6 6 6 j +.A.^.L.Z 4                           e b.b.G.W.M.m.M.M.M.R.I.G. XL.2 .                                 Z z.f j j j ^ ) w r j ^ Q w             y R E [ R j f j r n b @ @ t . > q                                                                                                                                                                   ",
"                                                                                                            ; >.J.3X/.U.F.D.D.6.6.6.G.sX}.! t - .         . > r 6 @ @ 2 ! D.^.L.Z 1                               N b.m.R.R.m.m.M.M.M.M.M.Q.hX}.1                                   l.>.f D D R >.m q j E ^ j +             2 / E [ R j j j t ! b - q f * r =                                                                                                                                                                   ",
"                                                                                                          . *.J.3XiX^.H.D.A.6.6.6.G.oX).M - @             - 6 - . X y +.A.>.v &                                 o z.b.G.R.G.m.m.m.M.M.M.I.sXjXl.X                                 o x.) D Q D >.z.w f R R Q >               + ! / [ D j j R n O.b > j t > r .                                                                                                                                                                   ",
"                                                                                                          u T.T.aX^.U.F.A.w.6.6.D..X).b * .           O - = .   2 / O.M > .                                     5 K.b.G.R.M.m.m.M.M.M.R.XXdXZ X                                   & L.~ ^ ^ { L.) f Q R ^ y                   m [ ^ j D R W / k.b > j 6 6 6                                                                                                                                                                     ",
"                                                                                                        o c./.3X3XU.H.A.6.6.6.S.sX).i .           . * * .   % M [ f =                                           N G.M.G.R.R.I.M.M.R.W.[.}.v                                       1 x.{ [ ^ J.L.x J R Q Q %                   e +.R j D E O.@.S.b q d > t - . O                                                                                                                                                                 ",
"                                                                                                        V 4X4XaXY.U.F.w.6.w.H.sXL.y           . + @ .   X y O.M =                                             o z.M.M.G.G.R.W.W.].[.[.L.u                                         u S.#.{ >.gX>.j Q j [ w                     % ) R f R / $.6.K.M d q 6 t * - +                                                                                                                                                                 ",
"                                                                                                      & =XT.6X/.H.H.w.6.w.H.dXL.e O       . @ * .     w ) ! ;                                                 5 (.M.M.M.M.R.W.].[.[.L.5                                           v H.#.#.3XfX~ Q j Q M .                       M n f R O.b.m.(.M d t r q @ > .                                                                                                                                                                 ",
"                                                                                                      Z 4X3X6XF.H.F.w.w.H.pXc.3 .       O + .     2 ! ! 3                                                     *.Q.M.M.M.G.R.W.W.[.L.5                                             Z H.6.H.xXL.Q D t / -                         y n f E O.m.G.(.M d r d 6 - >                                                                                                                                                                   ",
"                                                                                                    4 J.4X6XT.F.F.w.w.H.pXx.; .     . O .     2 ) ) 3                                                       % S.R.m.M.M.R.R.R.W.S.5                                               l.U.F.pXxX>.j t f b                           3 Q j E @.m.G.L.M r d d > > *                                                                                                                                                                   ",
"                                                                                                  o =.T.5X3XJ.F.F.r.H.pXz.%             X w ) *.e X                                                         u ^.G.D.G.R.R.R.R.z.1                                               o L.U.^.xXyX! w > M %                           % ! j E $.m.K.L.f r d r * - .                                                                                                                                                                   ",
"                                                                                                  u J.T.6XT.F.F.r.H.pX*.#           ; b +.>.b +                                                             *.E.G.G.G.R.R.I.z.1                                                 & ;XU.'.bXc.f - y 3                               ! R ^ @.m.Q.L.t d 6 - - -                                                                                                                                                                     ",
"                                                                                                & ,.p.>X4XJ.t.t.J.iX*.%       + w / w.w.m %                                                               % z.G.D.G.R.R.I.+.&                                                   5 iX^.dXzX~ q w y                                 m / Q $.m.(.L.d t + @ - +                                                                                                                                                                     ",
"                                                                                                V p.u.<XY.t.e.J.3X*.+   . - x #.r.r.! ;                                                                   u K.m.m.G.G.R.k.&                                                     B pX).cX;Xf > b ;                                 e / R @.m.}.c.d >   X -                                                                                                                                                                       ",
"                                                                                              4 u.e.p.Y.t.q.J.3X~ * + w ^ q.r.q.~ 3                                                                       *.D.6.b.G.K.z.1                                                       Z 3X).cX*.q y y                                   ; ) R O.G.}.*.r +   - =                                                                                                                                                                       ",
"                                                                                            . &.y.e.Y.Y.e.e.J.M : t ] q.q.q.{ w .                                                                       & z.$.6.m.I.z.1                                                         =.).).yXM y M X                                   X ) Q O.G.}.*.>   X w .                                                                                                                                                                       ",
"                                                                                            u u.9.y.Y.J.t.t.x t ] q.q.q...f #                                                                           v A.@.6.G.A.3                                                           l.Y.3Xc.d ~ 3                                       m / O.G.}.M *   > >                                                                                                                                                                         ",
"                                                                                          & ,.9.9.Y.Y.Y.t.^ K ;.q.q.;.x =                                                                               ) #.#.D.A.e                                                           . l.F.yX~ M m                                         5 +.[ S.iXm *   w @                                                                                                                                                                         ",
"                                                                                          V 9.-.u.Y.>Xu.] | ;.;.9.Q ,                                                                                 & >.O.6.A.e                                                             o =.J.;XQ ! #                                         % ) { S.sXm > @ w                                                                                                                                                                           ",
"                                                                                        < ;.-.9.Y.<XJ.;.| -.-.] w .                                                                                   i +.#.A.b                                                               % ,.L.*.Q 3                                             ! { S.iXv - > -                                                                                                                                                                           ",
"                                                                                      X %.-.-.p.<XJ.-.| | ] t #                                                                                       ! #.A.m                                                                 & c.L.~ f                                               b { A.iXi @ q .                                                                                                                                                                           ",
"                                                                                      0 -.U y.5XJ.-.| | x *                                                                                         = >.>.m .                                                                 5 ;Xc.M %                                               3 / A.yXw - q                                                                                                                                                                             ",
"                                                                                    ; U -.y.5Xu.-.| J ,                                                                                             v A.m X                                                                   v ;X*.2                                                 % / A.;X3 6 @                                                                                                                                                                             ",
"                                                                                  . G -.u.7Xu.P K t .                                                                                             X *.! X                                                                     V ;Xi                                                   . M S.L.- >                                                                                                                                                                               ",
"                                                                                  0 U u.7Xy.H t @                                                                                                 5 *.+                                                                       =.=.+                                                     e A.c.> -                                                                                                                                                                               ",
"                                                                                - I p.2X;.z :                                                                                                     v &                                                                         =.u                                                       - >.x.q +                                                                                                                                                                               ",
"                                                                              O G u.>X-.7 O                                                                                                     o &                                                                         o Z #                                                       + >.*.>                                                                                                                                                                                 ",
"                                                                              k y.u.z *                                                                                                                                                                                     ; 5                                                           ) Z @                                                                                                                                                                                 ",
"                                                                            k y.;.7 .                                                                                                                                                                                       % X                                                           m m                                                                                                                                                                                   ",
"                                                                          0 9.I *                                                                                                                                                                                                                                                         u v                                                                                                                                                                                   ",
"                                                                        0 -.k .                                                                                                                                                                                                                                                           1 3                                                                                                                                                                                   ",
"                                                                      0 I ,                                                                                                                                                                                                                                                               % &                                                                                                                                                                                   ",
"                                                                    , 0 #                                                                                                                                                                                                                                                                                                                                                                                                                                                       ",
"                                                                  O $                                                                                                                                                                                                                                                                                                                                                                                                                                                           ",
"                                                                                                                                                                                                                                                                                                                                                                                                                                                                                                                                ",
"                                                                                                                                                                                                                                                                                                                                                                                                                                                                                                                                ",
"                                                                                                                                                                                                                                                                                                                                                                                                                                                                                                                                ",
"                                                                                                                                                                                                                                                                                                                                                                                                                                                                                                                                ",
"                                                                                                                                                                                                                                                                                                                                                                                                                                                                                                                                ",
"                                                                                                                                                                                                                                                                                                                                                                                                                                                                                                                                ",
"                                                                                                                                                                                                                                                                                                                                                                                                                                                                                                                                ",
"                                                                                                                                                                                                                                                                                                                                                                                                                                                                                                                                ",
"                                                                                                                                                                                                                                                                                                                                                                                                                                                                                                                                ",
"                                                                                                                                                                                                                                                                                                                                                                                                                                                                                                                                ",
"                                                                                                                                                                                                                                                                                                                                                                                                                                                                                                                                ",
"                                                                                                                                                                                                                                                                                                                                                                                                                                                                                                                                ",
"                                                                                                                                                                                                                                                                                                                                                                                                                                                                                                                                ",
"                                                                                                                                                                                                                                                                                                                                                                                                                                                                                                                                ",
"                                                                                                                                                                                                                                                                                                                                                                                                                                                                                                                                ",
"                                                                                                                                                                                                                                                                                                                                                                                                                                                                                                                                ",
"                                                                                                                                                                                                                                                                                                                                                                                                                                                                                                                                ",
"                                                                                                                                                                                                                                                                                                                                                                                                                                                                                                                                ",
"                                                                                                                                                                                                                                                                                                                                                                                                                                                                                                                                ",
"                                                                                                                                                                                                                                                                                                                                                                                                                                                                                                                                ",
"                                                                                                                                                                                                                                                                                                                                                                                                                                                                                                                                ",
"                                                                                                                                                                                                                                                                                                                                                                                                                                                                                                                                ",
"                                                                                                                                                                                                                                                                                                                                                                                                                                                                                                                                ",
"                                                                                                                                                                                                                                                                                                                                                                                                                                                                                                                                ",
"                                                                                                                                                                                                                                                                                                                                                                                                                                                                                                                                "
};
