/* XPM */
static const char *ice5[] = {
/* columns rows colors chars-per-pixel */
"256 256 256 2 ",
"   c #000000",
".  c #02060A",
"X  c #04090D",
"o  c #090B0D",
"O  c #060B11",
"+  c #040C13",
"@  c #040D1A",
"#  c #0A1216",
"$  c #06121C",
"%  c #0A151B",
"&  c #15191B",
"*  c #040E22",
"=  c #061423",
"-  c #0A1A25",
";  c #06172A",
":  c #0A1C2B",
">  c #141D23",
",  c #071B35",
"<  c #16242A",
"1  c #0B2234",
"2  c #0B243B",
"3  c #0D293C",
"4  c #122833",
"5  c #142936",
"6  c #2A3031",
"7  c #071C47",
"8  c #0A2447",
"9  c #0C2B44",
"0  c #0C2D4B",
"q  c #122D45",
"w  c #0E314D",
"e  c #163549",
"r  c #0B2858",
"t  c #122D56",
"y  c #0E3454",
"u  c #0E355B",
"i  c #0F395C",
"p  c #113553",
"a  c #143958",
"s  c #123A5C",
"d  c #273C49",
"f  c #0B2A66",
"g  c #112F6A",
"h  c #0E3567",
"j  c #123C63",
"k  c #123A69",
"l  c #0C2C76",
"z  c #0E3578",
"x  c #123B78",
"c  c #1F404F",
"v  c #1A435C",
"b  c #264759",
"n  c #344A53",
"m  c #144265",
"M  c #14436B",
"N  c #1A4769",
"B  c #1A4E6B",
"V  c #154A74",
"C  c #1A4C74",
"Z  c #164878",
"A  c #164C7B",
"S  c #1B5579",
"D  c #1B537C",
"F  c #244A66",
"G  c #29546B",
"H  c #32576F",
"J  c #265778",
"K  c #336478",
"L  c #4E5558",
"P  c #485B63",
"I  c #486876",
"U  c #737474",
"Y  c #0E3687",
"T  c #0D328C",
"R  c #123C86",
"E  c #113C97",
"W  c #113EA1",
"Q  c #0F418C",
"!  c #154787",
"~  c #1A5583",
"^  c #1C5A84",
"/  c #185488",
"(  c #1B5B8B",
")  c #144797",
"_  c #1B5D93",
"`  c #195798",
"'  c #235C87",
"]  c #265792",
"[  c #1D628B",
"{  c #1D6394",
"}  c #1D6799",
"|  c #1F719F",
" . c #276589",
".. c #376988",
"X. c #226493",
"o. c #256996",
"O. c #236C9B",
"+. c #376E91",
"@. c #26739C",
"#. c #377798",
"$. c #1548A7",
"%. c #1857A8",
"&. c #164AB6",
"*. c #1957B8",
"=. c #245AAB",
"-. c #1C65A7",
";. c #1F71AC",
":. c #1D68B5",
">. c #236BA4",
",. c #2474A3",
"<. c #2879A8",
"1. c #347AA6",
"2. c #2C6FB5",
"3. c #2678B6",
"4. c #477589",
"5. c #50748B",
"6. c #477995",
"7. c #6E7E83",
"8. c #4C7BB0",
"9. c #194DC4",
"0. c #1B57C7",
"q. c #1D5BD5",
"w. c #215DD5",
"e. c #1D64C9",
"r. c #1F74CD",
"t. c #1D64D7",
"y. c #2368C9",
"u. c #2C77CB",
"i. c #2267D9",
"p. c #2676D9",
"a. c #1F6DE1",
"s. c #256BE6",
"d. c #2876E9",
"f. c #327AEB",
"g. c #2B7AF3",
"h. c #477ADA",
"j. c #2C82AB",
"k. c #3685AA",
"l. c #2C87B7",
"z. c #358AB6",
"x. c #3292B5",
"c. c #389CB6",
"v. c #3794BB",
"b. c #4B8295",
"n. c #56859A",
"m. c #6C8997",
"M. c #588AA5",
"N. c #508FAE",
"B. c #4895B8",
"V. c #6696A9",
"C. c #6F97AD",
"Z. c #5BA4BD",
"A. c #72A5B7",
"S. c #2A87C8",
"D. c #3394C4",
"F. c #399AC9",
"G. c #328FD2",
"H. c #3CA2CA",
"J. c #3CA5D5",
"K. c #2B86EA",
"L. c #338AEA",
"P. c #3597E7",
"I. c #2E87F5",
"U. c #338AF6",
"Y. c #3797F7",
"T. c #3BA7E9",
"R. c #3EB3ED",
"E. c #3CA6F7",
"W. c #479AC5",
"Q. c #5092CD",
"!. c #6B9CD6",
"~. c #47A5CB",
"^. c #58A7C8",
"/. c #56AFCF",
"(. c #46AAD5",
"). c #4AB3D9",
"_. c #4CB3DB",
"`. c #56B7DB",
"'. c #70B0CC",
"]. c #68B9D7",
"[. c #4A95EE",
"{. c #49B8E5",
"}. c #57BCE3",
"|. c #45A9F6",
" X c #47B6F8",
".X c #52B1F2",
"XX c #6CB3F0",
"oX c #59C3DE",
"OX c #71C3DC",
"+X c #5AC4E7",
"@X c #4BCCF1",
"#X c #4CC8F8",
"$X c #54CAF6",
"%X c #56D6F7",
"&X c #66C6E6",
"*X c #64CBEB",
"=X c #6BCCEB",
"-X c #75CCE7",
";X c #6BD2ED",
":X c #76D5ED",
">X c #6CC9F5",
",X c #6DD4F2",
"<X c #69D7F5",
"1X c #74D6F3",
"2X c #74DBF3",
"3X c #7CDCF3",
"4X c #5AEAF8",
"5X c #67E8F6",
"6X c #79E5F6",
"7X c #70F4F6",
"8X c #818181",
"9X c #83979E",
"0X c #8AA2B3",
"qX c #87AAB5",
"wX c #8EBACA",
"eX c #A2BBC5",
"rX c #8AB8EF",
"tX c #89C8D9",
"yX c #93CDD7",
"uX c #98C9D8",
"iX c #ABCED7",
"pX c #87D7EB",
"aX c #98D9E8",
"sX c #91CDF0",
"dX c #85DBF3",
"fX c #A6DAE6",
"gX c #B0D9EE",
"hX c #94E2EE",
"jX c #83E3F5",
"kX c #8BE3F5",
"lX c #8AE9F7",
"zX c #97EAF6",
"xX c #87F4F7",
"cX c #99F4F8",
"vX c #A9E2EC",
"bX c #B6E2EA",
"nX c #A8EAF6",
"mX c #B7EAF4",
"MX c #A8F6F8",
"NX c #B7F5F8",
"BX c #B4FAF9",
"VX c #BBFAF9",
"CX c #C3DEE3",
"ZX c #C5EDF6",
"AX c #D0EAF2",
"SX c #C7F5F7",
"DX c #C4FBFA",
"FX c #CBFBFA",
"GX c #D6F5F9",
"HX c #D4FBFA",
"JX c #DCFBFA",
"KX c #E7F7FB",
"LX c #E3FCFB",
"PX c #EBFCFC",
"IX c #F3FCFD",
"UX c #FBFCFD",
/* pixels */
"                                                                                                                                                                                                                                                                                                                                                                                                                                                                                                                                ",
"                                                                                                                                                                                                                                                                                                                                                                                                                                                                                                                                ",
"                                                                                                                                                                                                                                                                                                                                                                                                                                                                                                                                ",
"                                                                                                                                                                                                                                                                                                                                                                                                                                                                                                                                ",
"                                                                                                                                                                                                                                                                                                                                                                                                                                                                                                                                ",
"                                                                                                                                                                                                                                                                                                                                                                                                                                                                                                                                ",
"                                                                                                                                                                                                                                                                                                                                                                                                                                                                                                                                ",
"                          .                                                                                                                                                                                                                                                                                                                                                                                                                                                                                                     ",
"                          6 6                                                                                                                                                                                                                                                                                                                                                                                                                                                                                                   ",
"                          L L                                                                                                                                                                                                                                                                                                                                                                                                                                                                                                   ",
"                        6 U U 6                                                                                                                                                                                                                                                                                                                                                                                                                                                                                                 ",
"                      & U 8X8XU &                                                                                                                                                                                                                                                                                                                                                                                                                                                                                               ",
"                  . 6 U 8X8X8X8XU 6 .                                                                                                                                                                                                                                                                                                                                                                                                                                                                                           ",
"                6 L U 8X8X8X8X8X8XU L 6                                                                                                                                                                                                                                                                                                                                                                                                                                                                                         ",
"                6 L U 8X8X8X8X8X8XU L 6                                                                                                                                                                                                                                                                                                                                                                                                                                                                                         ",
"                  . 6 U 8X8X8X8XU 6 .                                                                                                                                                                                                                                                                                                                                                                                                                                                                                           ",
"                      & U 8X8XU &                                                                                                                                                                                                                                                                                                                                                                                                                                                                                               ",
"                        6 U U 6                                                                                                                                                                                                                                                                                                                                                                                                                                                                                                 ",
"                          L L .                                                                                                                                                                                                                                                                                                                                                                                                                                                                                                 ",
"                          6 6                                                                                                                                                                                                                                                                                                                                                                                                                                                                                                   ",
"                          . .                                                                                                                                                                                                                                                                                                                                                                                                                                                                                                   ",
"                                                                                                                                                                                                                                                                                                                                                                                                                                                                                                                                ",
"                                                                                                                                                                                                                                                                                                                                                                                                                                                                                                                                ",
"                                                                                                                                                                                                                                                                                                                                                                                                                                                                                                                                ",
"                                                                                                                                                                                                                                                                                                                                                                                                                                                                                                                                ",
"                                                                                                                                                                                                                                                                                                                                                                                                                                                                                                                                ",
"                                                                                                                                                                                                                                                                                                                                                                                                                                                                                                                                ",
"                                                                                                                                                                                                                                                                                                                                                                                                                                                                                                                                ",
"                                                                                                                                                                                                                                                                                                                                                                                                                                                                                                                                ",
"                                                                                                                                                                                                                                                                                                                                                                                                                                                                                                                                ",
"                                                                                                                                                                                                                                                                                                                                                                                                                                                                                                                                ",
"                                                                                                                                                                                                                                                                                                                                                                                                                                                                                                                                ",
"                                                                                                                                                                                                                                                                                                                                                                                                                                                                                                                                ",
"                                                                                                                                                                                                                                                                                                                                                                                                                                                                                                                                ",
"                                                                                                                                                                                                                                                                                                                                                                                                                                                                                                                                ",
"                                                                                                                                                                                                                                                                                                                                                                                                                                                                                                                                ",
"                                                                                                                                                                                                                                                                                                                                                                                                                                                                                                                                ",
"                                                                                                                                                                                                                                                                                                                                                                                                                                                                                                                                ",
"                                                                                                                                                                                                                                                                                                                                                                                                                                                                                                                                ",
"                                                                                                                                                                                                                                                                                                                                                                                                                                                                                                                                ",
"                                                                                                                                                                                                                                                                                                                                                                                                                                                                                                                                ",
"                                                                                                                                                                                                                                                                                                                                                                                                                                                                                                                                ",
"                                                                                                                                                                                                                                                                                                                                                                                                                                                                                                                                ",
"                                                                                                                                                                                                                                                                                                                                                                                                                                                                                                                                ",
"                                                                                                                                                                                                                                                                                                                                                                                                                                                                                                                                ",
"                                                                                                                                                                                                                                                                                                                                                                                                                                                                                                                                ",
"                                                                                                                                                                                                                                                                                                                                                                                                                                                                                                                                ",
"                                                                                                                                                                                                                                                                                                                                                                                                                                                                                                                                ",
"                                                                                                                                                                                                                                                                                                                                                                                                                                                                                                                                ",
"                                                                                                                                                                                                                                                                                                                                                                                                                                                                                                                                ",
"                                                                                                                                                                                                                                                                                                                                                                                                                                                                                                                                ",
"                                                                                                                                                                                                                                                                                                                                                                                                                                                                                                                                ",
"                                                                                                                                                                                                                                                                                                                                                                                                                                                                                                                                ",
"                                                                                                                                                                                                                                                                                                                                                                                                                                                                                                                                ",
"                                                                                                                                                                                                                                                                                                                                                                                                                                                                                                                                ",
"                                                                                                                                                                                                                                                                                                                                                                                                                                                                                                                                ",
"                                                                                                                                                                                                                                                                                                                                                                                                                                                                                                                                ",
"                                                                                                                                                                                                                                                                                                                                                                                                                                                                                                                                ",
"                                                                                                                                                                                                                                                                                                                                                                                                                                                                                                                                ",
"                                                                                                                                                                                                                                                                                                                                                                                                                                                                                                                                ",
"                                                                                                                                                                                                                                                                                                                                                                                                                                                                                                                                ",
"                                                                                                                                                                                                                                                                                                                                                                                                                                                                                                                                ",
"                                                                                                                                                                                                                                                                                                                                                                                                                                                                                                                                ",
"                                                                                                                                                                                                                                                                                                                                                                                                                                                                                                                                ",
"                                                                                                                                                                                                                                                    @                                                                                                                                                                                                                                                                           ",
"                                                                                                                                                      @ @ X                                                                                         - .                                                                                                                                                                                                                                                                         ",
"                                                                                                                                                      @ # O .                                                                                       -                                                                                                                                                                                                                                                                           ",
"                                                                                                                                                                                                                                                    :                                                                                                                                                                                                                                                                           ",
"                                                                                                                                                                                                                                                    1             O O                                                                                                                                                                                                                                                           ",
"                                                                                                                                                                                                                                                    4 .           ; $                                                                                                                                                                                                                                                           ",
"                                                                                                                                                                                                                                                    e X                                                                                                                                                                                                                                                                         ",
"                                                                                                                                                                                                                                                  . H #                     . X . O                                                                                                       O .                                                                                                                                   ",
"                                                                                                                                $ .                                                           . .                                                   H #                     # % X o                                 # #             .                                                     O                                                                                                                                     ",
"                                                                                                                                .                                                           - H K G e % @ . % H b X                                 b O                                                           < d <             % .                                                                                                                                                                                         ",
"                                                                                                                                                                                            . # # # O .     . > # .           .                   . b O                                                                                                                                                                                                                                                                         ",
"                                                                                                                                                                                              # - O                                       .     @ X 5 .                                                                                                                                                                                                                                                                         ",
"                                                                                                                                                                                              X X                                         .     - X O                                               .                                                                                                                                                                                                                           ",
"                                                                                                                                                                                                                                                3 X O             X                             .                                                                                                                                                                                                                               ",
"                                                                                                                                                                                              . % #                           .               X a X               ; .         X                                   .                                                                                                                                                                                                             ",
"                                                                                                                                                                                            - e %                             : .             % G .   .         . m %       X q . .                               O @                                                                                                                                                                                                           ",
"                                                                                                                                                                                          < e o                             % b .             5 K     O         X J e       O F 4 .                                 . O O                                                                                                                                                                                                       ",
"                                                                                                                                                                                          O                                 5 e       .       5 d               X J H       # G e                                 X .   X @ O                                                                                                                                                                                                   ",
"                                                                                                                    . X O X                                                                                                 . .     @ X       5 e               . s ..#     . b %                                   # %     $ X                                                                                                                                                                                                 ",
"                                                                                                                X O X                                                                                     - =         .     X @ . . $ .       b b   .             = G 5       5 -             . .                     # @       . X .     .                                                                                                                                                                                     ",
"                                                                                                          . O X .                             . X                             .                       o q e X             . - ; .             K G                   3 3       - q             X d #                     . .       . O O                                   $ $ @ .                                                                                                                                               ",
"                                                                                                    . X # O . . # % < 5 n G e $ X . . @ 4 e 5 4 %                           $ O                   . 5  .#.4                 . O             o #. .;               . 1 w O     . 4 @             < 4.<                           O X   @ $ .                             . $ : 2 - = $ X                                                                                                                                         ",
"                                                                                                  - 5 5 e < b H H K K K +.+. .B e 1 4 q 5 - X                             @ 9 @ .               % F  . .b             .         X           < ].^.S =   @         . 9 a .       @ 1               G M.n .                       : ;   $ N m w : O O   .                   : 2 1 2 ; = : @                                                                                                                                       ",
"                                                                                                    . . . X % - - < 4 4 < 4 4 : @ .                                     . 9 0 @       $ .   . ; a v s v X             # o       $           n pX].+.V = , .       . 0 N .       . w O             o M.'.5.>                     = p $ $ S [ [ S ..6.H 5 $ .                 @ - 9 w $         O $ $ .                                                                                                                           ",
"                                                                                                                                                                        - e ;     $ , ;   $ 2 e p w N %               b %     O $ X X       H *XOX+./ M p =         0 ' @       . ; =               e +.6.M.d .             . @ O 9 0 - B [ [ S  .B.OX'.4.d X                   @ .             . : q 1 O                                                                                                                       ",
"                                                                                                                                                                      $ 2 3 $ + 2 1 X . q S C V M C 1               < d       $ X X         G {.&XN.! ( D 3 . X   X u X.:         . 1 X             . G M J 6.G %     @ ; @ $ $ $ + + - b ....#.#.#.B.-X-X'.5.n %                                   3 m N e #                                                                                                                   ",
"                                                                                                                                                                    + 9 , 2 2 1 + . 5  .<.O.[ A j p               . n %       .           ;  .}.}.^.! ~ ( C 9 2 + $ k o.w           3 ;               < ' k C +.6.e $ : 0 y 9 , ; = .     o - e b K 4.n.Z.A.'.uXqXP &         X .                   X - ; 3 a e %                                                                                                               ",
"                                                                                                                                        X 1 :                     . 0 s y 9 ; O % +.v.l.,.O.} v y @               6 H                 X + 7 ..}.}.^.! x / ( A h r t ! O.B X O       : e .               N V V A  .N.K p w j i y 0 ; +                 . # # & < 6 L n #       O 1 .                         $ q a e O                                                                                                           ",
"                                                                                                                                  . . : p j ;                     1 M M i 8 2 b ^.).l.<.<.,.<.m ;               . 4.5                 + = r ..}.{.^.` x Z _ _ Z f k ! o.+.; @       o N 4               < ^ A ^ ^ @.Z.6.N j A M j 2                                           . 9 ,       . @ .             O @ = q e : .                                                                                                       ",
"                                                                                                                              . : e 9 a u M =                   $ M M i u J N.oX(.z.z.l.l.l.D.B .       .       e +.X ; * @ X . X   X , r r +.{._./.-.! x ! >.` x x / ` +.; = .       3 G .             X J o.} } { #.tXA...Z A j y .                                         X s j 2 . . ; m C q X         . O $ ; 2 w e : .                                                                                                   ",
"                                                                                                                            $ 3 q w s s V V =   . +           . a y 8 N 6.yX3X}.H.D.F.F.D.F.#.#         *     . #.b ; f 7 7 7 7 7 , 7 f f f 1.J._.`.-.%.) ! %.-.) ! %.%.@., , O       > K $     . .       e z.<.<.l.z.].nXbXm.J M u ,                                         X j j j 0 9 0 u V ( v .                 X @ - - .                                                                                                 ",
"                                                                                                                        X a N 3 y j s i M m O + @ 2 X         1 a p 4.wXmXBXkX&XH.D.F.D.F.v.4 X @     X , X   < B.1 f f z f f f f f f l l g 1.G._._.:.:.%.) %.%.` Q %.%.1.8 r ; . X   q 4.;   .   X O   . O 4.~.F.(.&XpXnXNXZXeX4.M j O                                     . ; m j j m i 0 0 y j D q                                                                                                                           ",
"                                                                                                                      : ^ D u y u 0 $ 3 ~ 3 : X   X         $ s F qXZXBXMXpX/.l.l.l.v.l.D.v O ; , X + , r ; * K x.8 z z ! f f l l l l Y z l N.G.{.}.u.y.y.:.*.:.%.) *.%.l.f f r 7 7 , t M.3 . @ .   @ . @ 8 b wX-X=X=X:X=X,XdXnXbXm.C 2           X                         . e V M j M i 0 8 , ; a J :                                                                                                                         ",
"                                                                                                                    - X.A u y y 0 @ X N D e $               3 I iXmXnXpX`.F.v.F./.`.`.]...@ , 8 f , , r r 7 f F.k.z R ) ) l l z z z Y R Y Y Q.G.{.}.G.p.p.p.y.y.*.%.:.:.S.z l f f f f g 8.s . O @ O @ + X h h e n 5.A.yXpX3X;X;XpXaXC.m .         . X                         - V V M M j w , .   $ m D -                                                                                                                       ",
"                                                                                                                  $ S M 0 y y 9 2 X 9 s : X               % m.bXnXnXmX&X].OXOXtXwXA.V.6.2 ; r h g r r f f f ] {.@.R ) %.) l Y Y Y T E E E E ^.P.}.}.P.P.G.L.G.G.e.*.e.e.S.Q T l l R l l Z N = X : O = +   0 A 0   @ # < L m.qXyXpX-X].0X>         $ @                         X m V V k i 0 X       $ C S @                                                                                                                     ",
"                                                                                                                O S N 1 ; 9 2 , ; = $ . X               . I bXiXwXA.V.4.K H d s u r r r r r x ! z f f f g l D.{.] $.$.*.$.Y T E E E W $.$.$.'.{.+X}.T.T.T..XpX.Xp.t.p.y.S.` ) T Y ) ) R l g 9 @ 0 @ ; X . 8 Z u O + @       o > 6 P 5.A.9X<       O 1 1 % .                   . 1 M V M y , X         2 ~ m .                                                                                                                   ",
"                                                                                                              @ S C 9 ; ; : 2 2 = ; 2 , O         . X   # P H F s u r r r r 7 7 7 r k f x x ` ` z g f g l ` _.D.$.*.*.y.$.E E E W $.$.$.$.&.].=X1X*X|.|..XzXNXkXP.d.p.p.G.=.$.$.Y ) ) ) Y f 8 , w 8 * + = j x k X   O @               o d L o       . = q v c 4 % .         . O w 2 u j y ;           ; u D q                                                                                                                   ",
"                                                                                                            % J D s 0 9 9 1 , @ : s 0 @       & c v $       , 8 8 0 8 ; 8 8 0 ; ; 8 h / / Y -.) R z l l l 3.{.u.*.0.e.e.$.&.$.&.&.&.&.&.&.0.p.[.kX,X$X>XzXVXDXMX,XY.K.K.G.:.$.&.E E E Y l l 8 1 A k , ; , u ~ M O     1 .                               . % 5 v ..5.n < X   , 1 2 v N M s 1           . , p S 1                                                                                                                 ",
"                                                                                                          4  .A M m s u 0 ; @ 1 y 1 O O o 6 4.'.#.-       . , O . , +   = , $ = ; . w ] l R %.) ) R Y Y R J.{.P.p.i.p.y.&.*.&.9.9.0.0.9.9.i.i.[.dX<XdXNXVXDXFXDXcX>XY.K.P.u.&.&.$.E T l l l r 2 @.x f 7 , 9 D A + .   4 d                                 . X @ = e b.A.A.m.P e , $ 3 N C s ; @ X       . , p C :                                                                                                               ",
"                                                                                                      X c  .M M M M M M s p p 3 = $ 5 I Z././.v.@.S v -   = O     . X 5 4 @ ; =   O N f l R *.%.$.) E Y >.{.{.T.K.K.K.p.0.0.q.q.q.t.q.q.q.s.d.[.dXzXDXDXVXDXDXDXDXMX.XY.[.G.&.&.&.$.T T l Y l g 1._ h ; * 0 M _ ; +   @ 5.L                               O 9 m N S  .k./.tXfXuXn.d % 3 N C M p 0 $       . 2 s S -                                                                                                             ",
"                                                                                                    % b J V C N V C V V C m 2 4 n N.'.B.v.@.o.@.<.z.l.v   .       . 2 4   . O     , r f l R *.*.%.$.$.) (.{.{.T.P.P.Y.d.t.t.t.s.s.s.s.s.d.d.g.Y.nXHXHXDXDXDXDXDXDXDXnX.X|.L.9.&.&.*.$.T T T Y z 1.3.z 7 @ 0 S / 9   . X 3 m.L   . O                         w [ @.v.c.c.v.x.x.B./.Z.b.F m N M V V s 2 $ ; ; 9 j S S #                                                                                                           ",
"                                                                                                  . b N D ^ N N A C S C m a 4.Z.^.k.o.{ } } O.O.<.x.x.S .         . .         X @ , r l l Y *.:.*.*.&.Q.+X{.T.|.Y.Y.Y.K.d.s.d.d.d.g.d.g.g.I.I.|.nXFXJXDXDXFXDXDXDXDXDXnX>XP.0.&.$.&.e.$.T E T l >.F.! f * , o./ s   X @ ; H iXL   . X                       O  .x.v.H.H.c.x.j.j.@.<.k.k. .B v 0 a m j u u y y j V ^ B #                                                                                                         ",
"                                                                                              . X % J ' S N N N V V S ..V.OX`.v.<.{ { { { { @.j.x.x.x.J $     .             X * @ , f z l R *.e.e.0.u.&X X$XR..XY.Y.Y.P.K.d.U.U.Y.I.I.I.U.Y..XmXJXNXFXHXHXHXFXFXFXDXDXHXNX.Xt.9.$.$.p.r.W W T ) ] ~.>.g r ; _ X.r   X , 8 h wXbXP o                       .   v v.c.H.H.c.x.j.@.@.@.<.j.z.k.#.J 9 2 y s j s u u j C D B =                                                                                                       ",
"                                                                                              O 4 K  .C N S V V ' M.tXhXpX=X/.j.{ ^ D D D ^ [ O.<.<.^ 1 X                 X = X   * l z Y ) *.e.e.t.!.>X>X.X X$XY.Y.Y.Y.U.Y..X.XY.Y.U.Y.[.XXZXPXLXFXBXMXFXLXLXJXJXHXFXcX6XsXp.0.&.$.e.K.&.$.T ` =.Q.3.R l r k 1.8 X   , r r 5.ZXvXm.#             O $     . X K ~.~.H.H.x.j.j.@.X.^ ^ [ O.<.j.x.#.N p p j M M m j j C C B <                                                                                                     ",
"                                                                                              < J S m N S ' +.A.yXzXlX3X&X~.x.<.} { [ ^ D ^ [ { ^ v 1 X   .             . = .     , R R ) $.e.t.a.L.sX>X6X.X$X,XE.Y.E.|.>X.X.XY.Y.Y.Y.|.sXLXPXPXLXLXDXcXxXMXDXJXFXMXjX5X@X>Xd.t.0.&.&.K.i.&.E ) 2.2.D.` l l r z.a * . + 8 r k uXNXhX9X>           . e 2 X     5 K k.x.v.x.j.@. .[ ^ ^ S D D ^ X.1.z.k...J N M M M M C C s C :                                                                                                   ",
"                                                                                            e J m s m J M.tXvXzX6X2X;X*X=X&X`.D.j.O.^ ^ [ [ B 3 $     @ 2 $             = X       f E ) $.*.t.d.d.rXdX3X6X$XjXzX$X.X.X}..X.X.XY.E. X.XnXKXPXPXPXLXKXJXcX7XxX6X6X6X5X4X%X@X>XL.i.q.&.9.e.i.0.$.E u.y.u.*.Y l l 1.K   .   = = , I bXzXnXqX<       . . $ 2 .         + 4 B @.@.[ S S S S S S S S S ^ o.z.~./.^.#.J m m V C V M S :                                                                                                 ",
"                                                                                        X c J m s F n.uXvXhX3X:X2X6X6X5X*X`.~.l.,.[ ^ ^ S 3 X     X w S a X         X @ .     + , R E $.&.0.d.K.[.nX2XlX6XkXNXdX>X.X X XE. X X|.>XnXNXPXIXIXPXPXLXKXPXMX7X7X5X%X%X%X%X@X@X,XY.d.t.0.q.0.9.y.&.$.y.u.y.:.E l l 2.B.@     X *   , m.vXhXNXeX6         . $ O   .           + 3 N [ [ ^ ^ D S S S S D D ^ o.1.~.`./.1.J V A A A k S :                                                                                               ",
"                                                                                      # F J m G n.'.OXOX/./.`.=XjXlX6X;XoXH.H.v.l.,.S 1 X       = B X.A 0 X       O @         @ z $.$.*.0.i.K.L.aXlXlXxXzXMXMXdX.XE.E. X X$X>XmXKXJXHXIXIXIXPXPXJXLXUXDX7X7X5X%X%X%X%X%X%X2X[.K.s.t.a.t.0.y.9.9.y.p.y.y.$.Y Y ) ~.C *     ;   . e A.].pXnXwX6         . $ .                   % e C  .X.[ S S ^ ^ ~ D ^ ^  .#.B.OXOXZ.@.( A Z k S :                                                                                             ",
"                                                                                    % G S G 6.A.Z.k.x.v.F.`.:XzXzXzXjX-XOX'.N.+.G w +       + w ^ S N w u 9 .     1 O       X 7 ) *.*.e.e.d.K.XXMXlXxXcXcXxXcXnX.X|. X X>XmXKXUXIXJXIXUXUXIXPXJXMXLXUXJXxX5X%X%X$X$X%X%X4X6X.XI.g.s.d.d.t.i.0.0.p.p.y.0.*.E E ) Q.] ,     = X   , C V.].pXnXwXn       . @ $                     . O : v +.#.o.o.X.( ^ ^ D D ^ X.<.^.aXaXA...C M a N <                                                                                           ",
"                                                                                  % G K n.C.N.#.N.W.^.].tXyXuXwXqXV.5.P 6 < o   - m =   X 1 S } ( m 3 u y 0 ;   ; 2         X g $.&.0.i.i.d.[.mXMXcXMXcXxXxXcXdXE. X,XnXKXIXIXUXIXIXUXUXUXIXLXcX7XJXUXPXxX5X%X$X#X$X%X%X5X6XXXU.I.g.d.d.d.s.i.0.p.d.i.w.*.$.W W Q.+.7 +   . @   * 7 j M.pXdXnXyXL . . . $ @ O   $ $ .             .     # e H b.N.B.k.k.@.X.X.O.<.<.z.'.aXaXA...M j N :                                                                                         ",
"                                                                                - H n.A.V.6.4.5.I P n 6 6 < # # X X O X       . K @.S M V ( } D m i j y 0 y = @ y O       X t Q $.&.y.f.d.K.XXVXMXMXMXcXxXxXNXhXdXnXKXUXIXIXIXIXIXPXPXPXPXIXMX4X7XHXUXIXcX5X%X%X#X$X%X5X7X6X>XY.Y.I.I.g.g.d.s.q.s.s.i.i.0.&.&.&.Q.'.g @     * , ; * ; > qX&X&XzXfX5.2 ; @ = @ . O q ,   X . O   @ : + =       . # 4 c H ..#.1.k.l.j.<.<.k.^.OXtXC.K s m 1                                                                                       ",
"                                                                            . < I I n 5 & # .                                 5 j.} } { { } [ s j j M M j 9 $ p 2 .     O j ! R ) *.p.L.f.[.vXVXBXMXMXMXMXVXFXnXzXKXPXPXPXPXIXPXJXJXLXJXLXFX7X4X7XVXUXKXcX5X$X$X%X#X#X5X5X7XmXXXY.U.U.I.I.I.g.s.d.d.i.w.w.9.&.&.Q.vX6.7 X   + r r *     n ].(.`.pXvXC.a ; . X X . w j @ 2 a $   $ V s 2 O         $ a p 1 # < d H 4.N.B.z.k.z.v.^.'.M.H N 2                                                                                     ",
"                                                                            o < #                                           .  .<.| } } | | D M D ~ | ,.C 1 3 M 8 ,   O j Z ! ) $.*.p.L.K.XXSXDXBXMXBXFXFXnX2X%XdXJXHXHXLXPXPXLXHXJXJXHXJX6X4X4X7XMXUXLXMX7X$X$X%X#X#X5X5XcXLXJXsX[.Y.U.U.U.U.d.g.s.s.s.i.0.&.&.p.sXwXf 7   @ f r 8 @   < Z.F.(.].dXhXwXn X     @ 3 C 2 p ~ V 9 2 M A C w $       . 9 C S v O     . & 6 n I 6.N.z.z.B.Z.n.H 1                                                                                   ",
"                                                                                                                            4 l.<.,.| ,.,.| } | ,.<.l.<.A 9 J h h 8 = 0 k x ` ) $.*.e.p.K.sXHXDXBXFXJXZX1X#X%X%XkXFXFXHXJXLXLXJXHXHXFXJXzX%X4X4X7XMXPXHXBXxX$X$X%X#X#X5X6XFXLXPXKXmXXXY.Y.U.U.g.g.g.s.d.i.w.9.&.i..XsX~ r , , f r r r 8 5 A.l.F.~.`.&X:XtXI X   $ 3 N j m X.~ D V M M V A V w $     . 9 ~ X.S -             . # 5 n K 5.V.A.m.n X                                                                               ",
"                                                                                                                            J l.j.l.l.<.| | ,.<.<.j.j.<.A ' o.' M r f x ' +.! R ) $.*.t.L.mXFXFXJXZXsX|. X#X%X%XdXDXDXFXHXHXJXHXFXFXHXnX$X%X4X4X7XcXGXMXMXcX%X$X<X$X#X5XMXHXJXLXPXPXGXrX[.Y.U.U.g.U.d.d.s.i.w.9.0.[.sX8.f r r r 7 7 r r u n.W.l.~.`._._.&XpXC.6 = 2 m C j o.{ ~ ~ D V V V D D C p O   . 2 S X. .:                     . # < n P 6                                                                               ",
"                                                                                                                          - j.l.D.D.l.,.| | <.<.<.<.<.,.^ N.Z.o.f C 6.'.V.~ z R ) ) *.e.[.SXHXGXsX|.Y.E.E.#X%X#X1XBXBXVXFXFXHXFXFXFXNX$X#X%X%X4X4XxXMXxXxXMX%X%X<X$X%XcXFXHXJXLXPXKXPXKXsX|.Y.Y.Y.U.I.d.s.i.i.q.w.[.sX!.x r r r 7 ; r r r  .].v.~.)._._.(.`.pXiXn.e a S A X.O.( ~ ~ ^ ^ ~ ^ ~ ^ ( N X     O 3 C  .5                                                                                                             ",
"                                                                                                                          B l.x.D.l.<.,.| | ,.,.,.<.,.[ b.fX'.' M.wX'.1.! z z R R ) &.y.sXSXsX[.U.U.Y.Y. X#X#X XdXBXMXBXDXDXFXFXFXHX>XE. X#X%X4X4X7X7X7X7XNX<X$X2X%XjXFXHXHXJXLXPXKXJXLXLXZXXX|.|.Y.Y.f.d.s.s.s.i.[.XXrX..f 7 7 r ; 8 r r k '.=X`.).H.(.`.`.+XpXmXuX5.J X.X.X.{ ^ ~ ~ ( [ ( [ { { o.9         . : F -                                                                                                           ",
"                                                                                                                        - o.,.D.D.j.,.,.} } | } } | } #.iXbX^././.W.O./ x x x R R ) &.Q.aXQ.i.d.I.U.U.Y.E. X XE.>XBXMXBXVXDXDXFXJXsX X X X X%X%X%X4X4X5X4XMX,X#X<X3XDXHXHXHXHXHXHXJXHXFXHXHXHXgX>X-X|.U.g.s.d.[.[.[.XX[.8.f 7 7 r 8 , r r u +.:X).F.D.v.~./.`.+X3XmXZXbXN.O.( ^ ( ~ D C C ~ ( ( { o.^ O           . #                                                                                                           ",
"                                                                                                                        v [ j.l.| ( ( ^ ~ [ [ [ | ,.j.uXvX-X(.D.D.l.,./ x x x R R ) :.Q.=.&.0.s.d.f.L.d.I.Y.E.Y.XXNXMXBXVXVXVXJXnX X X X X X#X#X#X%X%X5X4XxXdX#X2XNXFXHXFXHXFXFXDXHXJXFXFXFXHXFX.XXXsXsXXXf.d.[.XXXXXXh.u.x 7 * 7 f r r r r j Z.~.v.F.F.~.(.).).+XpXNXHXbXN.{ ~ A ~ C M j j V ~ ^ ( { q                                                                                                                         ",
"                                                                                                                      $ S O.<.[ V V V V A ( { ,.l.v.yXmX-XJ.D.H.(.v.( z z z z x R =.=.Q ) &.*.t.s.d.L.t.d.I.Y.Y..XNXMXVXBXBXFXZX.X X X XE. X X X#X#X#X4X4X5XkX$XMXVXBXHXHXHXHXFXFXJXLXFXDXVXDXDX.XU.|.sXbXgXsXsXsXsXXX[.i.) r , 7 r h r r r r J W.F.F.F.H.(.+X+X`.+XpXmXFXbX#.~ ~ V V j j j i j V D ^ C X                                                                                                                       ",
"                                                                                                                      p | @.^ V V V V A [ | <.v.D.yXZX-X).J.).`.k.! z k k h z ! ` ! z R $.$.&.0.q.f.p.q.s.I.Y.Y.|.NXBXVXBXVXFXXXY.|. XE.E. X X|. X#X#X%X4X5XzXlXMXFXDXHXLXLXLXJXHXJXJXDXVXVXVXDXXXU.I.U.XXgXmXZXSXZXsX.Xf.=.g r r r r f r r t w k.H.H.F.H.).`.+X+X`.+X;XhXDXfX..A ~ V j u w 0 2 2 j D ' 1                                                                                                                       ",
"                                                                                                                    - O.@.( V V V V V ( ,.j.F.H.tXmX-X{.{.&X/.X.x x k k k k ! ` ! z R ) %.) $.*.*.[.u.t.d.Y.Y.Y.[.mXBXDXVXFXsXY.Y.E.|.Y.Y. X X|.|. X X<X5XxXNXBXDXNXJXPXIXIXIXIXHXFXFXDXVXBXBXVXXXI.U.g.s.f.rXgXZXSXSXgXXXy.) f r r , u h t 0 t J ~.~.H.(.`.}.+X+X`._._.+XjXNXuXJ V D M y 2 @ . . = 0 S B .                                                                                                                     ",
"                                                                                                                  . S ,.^ ~ V C A A ^ ,.l.J.(.yXmX:X+X*X-XZ.^ M k k h k h x ! ! x x Q %.$.) $.&.2.XXu.t.K.I.Y.Y.Y.nXBXDXHXgXY.Y.Y.Y.E.Y.Y. X X|.E.|. X%X5XMXJXFXLXMXDXIXIXIXIXIXJXFXFXDXBXMXMXVX>XI.U.g.s.s.f.[.rXgXmXGXZX!.=.R f f 8 r h k M s u k.(.~.).`.+XoX`.`._.).).+X;XnXwXJ A V s 8 $     $ X : S -                                                                                                                     ",
"                                                                                                                  5 <.^ D ~ C ^ ( ^ @.l.H.~.pXnX:X2XjX-Xz.( Z M k h h h k _ } ! Z ! ) %.) ) $.2.-X].0.e.d.K.I.I.U.nXBXDXZX[.U.U.I.Y.Y.U.Y. X|.|.E.|. X#X6XJXIXPXIXBXcXNXIXPXLXLXLXHXFXVXMXMXMXBXsXU.U.g.s.s.s.w.w.h.rXmXGXZX!.=.h f u t j C ~ C j C ~.(.oX*X&X+X}.).).).).(.`.*XnXwXC M k 0 X     + 1 . 9 a                                                                                                                     ",
"                                                                                                                X  .[ V ( ~ ( } { O.l.v.~.pXzX1XkXnXOXl._ ! A M k j h A <.l._ Z x ! ) %.) ) 2.-XMXQ.*.*.p.p.d.K.K.aXBXNXXXg.g.g.I.U.U.U.Y.E.E.E.E.|. X#XnXUXUXIXIXVXcX7XMXPXIXPXIXLXFXVXMXMXcXMXgXU.U.g.s.i.w.w.9.9.0.Q.wXZXSX'.! f f t N X.o.' '  .k.`.&X;X*X+X`.).).(.~.~.(.`.&XvXqXM j s ;       2 : @ a O                                                                                                                   ",
"                                                                                                                e @.V D { ( @.@.| <.l.v.pXzX<XlXhX/.l.>.( ! ~ Z M D 1.F.l.{ ! Z Z ! ! ) ` Q.pXMXnX2.$.*.r.e.t.p.d.sXNX-Xg.g.g.g.g.I.I.I.Y.Y.Y.Y.|.|. XkXDXIXUXUXIXBXxX5X4XzXIXUXIXPXJXDXMXcXcXMXmX[.I.f.s.q.0.0.&.$.&.*.=.8.eXAX0Xk f ; X e ' o.X.B.N.pX3X;X*X+X}.).(.~.H.v.F.~./.oXaXC.s j p = X   X y ; 9 1                                                                                                                   ",
"                                                                                                              X  .~ V { { | ,.,.<.l.~.aXzXjXzX:X~.z.3.<.{ _ ( o.B.(.H.j.<.{ _ A x ! ! 1.].kXkXMXuX%.) *.:.*.e.t.t.sXnXL.s.s.s.g.g.g.g.I.Y.Y.Y.U.|.|.XXNXDXKXUXUXPXMXxX4X%X%XnXIXPXJXJXDXMXzXzXMXZX[.I.s.w.9.9.&.&.W W $.=.) $.8.eX7.f ;     :  .k.^.B.tXjX,X*X+X`.).~.~.F.v.x.v.v.~.`.pXm.a j u 9 =   : s 2 e .                                                                                                                 ",
"                                                                                                              q o.C ^ O.@.<.,.<.x./.hXlXcXzX&XF.D.l.l.l.l.~.`.+X`.(.z.z.<.^ M k Z 1./.dXkX3XkXMX!.) $.:.%.*.*.e.e.rXXXK.i.q.w.s.s.s.d.g.Y.|.U.Y.|.|.dXMXVXKXUXUXPXMX7X%X%X%X$XhXPXJXFXVXNXzXlXzXGX[.g.s.q.9.&.&.&.$.E E =.) ) E R 5.H ;       X b N.~.Z.dX*X*X+X`.).H.F.v.v.z.j.z.l.v.`.pXm.s j j p ; O p j s :                                                                                                                 ",
"                                                                                                            X  .^ D | @.<.<.j.v.].mXcXcXzX`.F.D.D.F.(.`.*X;X&X`.H.D.z.@.C k k ' B.}.+X2X1X1XkXnX8.) %.:.%.*.*.*.*.!.[.[.0.0.q.a.q.q.s.g.E.|.I.Y.|.|.zXMXVXKXUXUXIXcX7X#X#X%X X XsXGXFXVXDXMXkXkXSXXXd.s.s.9.&.$.E =.` l ) E Y R z r , +           % K '.nX*X+X+X`.(.H.v.x.x.z.j.j.j.j.x./.pXC.m j j u 9 9 m j p .                                                                                                               ",
"                                                                                                            4 o.D } ,.,.<.<.x.].ZXNXNXzX+X).)._.+X;X,X+X}.).~.(./.B.' j h C b./.}.}.*X,X2X3XjXaX>.) :.:.%.:.%.%.*.u.[.u.9.9.0.t.0.0.s.d..X|.U.|.Y.|.kXMXVXKXUXUXIXcX5X X X#X XE.Y.XXJXHXVXDXzXlXnX[.s.s.d.q.&.W E R =.l x R l g g r @                 < m.].}.+X`.H.v.z.z.z.z.j.j.j.j.j.x./.pX0XN j j u w u M j :                                                                                                               ",
"                                                                                                          . S X.[ ,.,.<.<.l.'.mXVXNXhX*X+X*X2X2X2X;X{.J.(.`.].'.6.C j j 6.OX1X+X+X+X*X,X,X2XkX'.` %.;.-.:.%.$.$.%.y.!.*.&.&.0.q.*.0.p.L.=X|..XY.U. X3XMXVXJXUXUXPXcX<X X|. X XY.Y.Y.rXKXLXDXMXjXnX!.t.w.i.i.0.E Y l ] x h Z f r r * X                   . 5 4.].-X/.v.j.j.j.j.j.j.j.j.j.j.v.`.aX0XN j s s p j k p .                                                                                                             ",
"                                                                                                          1 <.X.@.<.<.j.l.'.mXNXNXkX=X;X;X,X;X+X}.(.H.(./.N...N M M j +.pX,X,X+X+X+X*X,X,X2XzXZ.` -.;.%.-.%.) ) %.u.!.$.&.&.*.*.&.*.p.[.,X+X[.f.Y. X>XMXBXHXUXUXPXcX$XE.E.E.E.Y.U.Y.U.rXIXFXNXjXnXXXq.w.0.y.y.&.l l z k F +.f 7 * .                         . e M.OX/.v.j.<.1.1.j.z.x.x.v.z.~.&XaX0XN j s u w M m ,                                                                                                             ",
"                                                                                                          J j.@.<.j.l.l.'.mXNXMXdX;X;X=X*X}.(.F.J.(.^.b.G a u j M M k M.lX,X;X+X+X+X+X<X,X2XvX8.` -.-.` -.) ) ) %.!.8.E $.$.&.&.&.*.r.}.2X.Xd.f.Y. X#XkXBXFXIXUXLXlX XY.Y.E.E.Y.I.U.U.U.rXKXMX2XdX!.0.0.e.*.0.*.Q z g f H V.h *                             X 2 u ..V.'.W.<.,.<.~.+X+X&X*X&X&X&X=XvXqXN s u 0 s M a X                                                                                                           ",
"                                                                                                        - z.j.<.j.x.x.'.NXNXzX1X,X;X&X`._.~.(.].'.6.F p y y u m M M M M.zX3X*X+X}.{.}.*X<X1XaX>.} ;.-.` %.) ) ` >.OX=.) $.) $.$.$.*.S.,X&Xp.s.f.Y. X X,XNXDXPXUXFX3X|.Y.Y.Y.Y.I.g.I.g.g.f.rXGXjXjXXX0.*.y.*.$.$.) R z r t V.F *     .                         2 m 0 0 b n.'.^.z.~.=X;X*X*X;X1X1X-X1XzXA.s y p w V C 3                                                                                                           ",
"                                                                                                        N v.j.j.x.F.].NXDXzX2X,X*X}._._.`.-XwXn.N y y y y 9 y s j M k M.zX3X*X{.{.{.{.+X*XdXyX-.>.>.-.} ` ! ` %.z.].) ) ) R ) ) $.*.`.aXu.q.i.d.Y. X X<XzXVXJXUXBX>XY.Y.Y.Y.Y.I.f.f.g.s.s.s.rXSXkXrX0.*.*.*.R Q R z x g r ..b       X +                       $ C q X X X n A.tX/.`.*X*X&X*X*X*X1X:X1XnXC.a s p j ~ C X                                                                                                         ",
"                                                                                                      O @.l.l.x.~.aXFXVXkX<X<X+X{.).&XpXwX5.N u y w 1 , ; = s y M j h M.zX1X+X{.(.(.{.}.+XdX].-.3.>.-.-.` ` ` %.].'.Q Q R z R E ) u.pX!.*.0.t.s.|. X X<XdXDXHXLXlX.XU.Y.U.Y.L.K.d.d.L.s.i.q.i.gXmXaXy.*.$.%.! z z h h z f F H         $ =           O         . u N X       # L qXtX-X:X=X*X=X&X&X=X;X;XnXm.a k s C o.q                                                                                                         ",
"                                                                                                      e F.l.v.W.fXLXNXjX<X*X+X+X:XtXA.4.m i y w 1 = .     : m i N i h n.dX*X+X_.J.J.(.{.{.hX].3.l.3.;.} / ` ` >.fXC.Q R z z z R %.`./.*.&.*.q.p..X X|.<X,XNXVXVX6XY.I.E.L.Y.K.d.i.i.f.d.q.0.q.u.gXmXu.*.) ) ) z k h f g k N 6.O       - V +         :         X p C 1           & I wXvXdX=X&X=X*X+X;X*X;XvXm.N M j X.X.X                                                                                                       ",
"                                                                                                       .F.x.~.fXJXNXkX3X1X1XdXtXV.H a y 0 9 ; = .         e w M M u u 6.+X+X{.J.H.J.J.(.}.nX/.F.l.l.l.{ ` ` ` W.mX8.! Q z z z R 3.W.:.&.&.&.0.G..X|.E.$X%XkXMXcXdXL.U.R.K.K.p.i.e.q.p.i.0.&.9.0.h.AXN.%.>.! ! x h h h f h k M.a O     - D 0         1 .       O 0 p m X           = a 5.wXaX:X=X*X+X*X1X*X1XmXC.N M C <.e                                                                                                       ",
"                                                                                                    : v.D.~.vXHXnXjXlXzXzXwXn.F y y 9 1 X .             O e : V M u u +.}.{.).F.F.H.J.(.].NX].`.l.D.D.;.-.` >.&XbX>.) ! z z z ! 3.` %.&.$.&.0.P.|.Y.E.$X%X,XcXcX1XK.P.R.L.p.p.e.*.*.y.p.9.&.&.&.$.!.A.) >.] R x h h h h h h n.H ,     3 ~ A , .     q $       @ 2 , N 3           . ; : e I A.pX:X*X+X*X1X;XpXmXm.C C X. .X                                                                                                     ",
"                                                                                                    K F.~.vXFXcXlXzXaXA.4.N a y 0 ; X                   ; 9 a V M y y +._.).J.F.F.F.(.(.-XZXpX`.S.F.D.>.} ` z.zXuX` / x z x ! ` >.) $.$.$.e.e.P.T.P.|.$X#X$XlXxX=XL.T.T.P.p.e.*.$.$.*.p.0.$.W $.) ) V.] ) 1.o.x k h h j h h ..4.$ @   w ( ~ M $ + ; a 4         9 2 a N O               . X # n A.aXkX;X;X:X-XdXnXC.C D <.3                                                                                                     ",
"                                                                                                  < D.~.vXDXcXzXtXV.H s a a y 3 @                       w w B m 9 9 y +.(.J.H.D.D.F.(._.fXSXzX`.G.F.D.>.-.>.&XnXA.` ! x x ! ` ` >.R $.$.$.r.r.P.T.K.{.#XR.R.1XxX&XP.{.T.P.r.:.%.) ) %.e.*.$.E E R Y R R R ) B.+.k h u u h h ' M.$ + + a X.^ A p 9 0 J b         : u u N q                       # n A.vXzX:X,X;XdXvXC.S X.J                                                                                                     ",
"                                                                                                  K /.vXDXnXtXn.F a y p 9 1 @ .                       O 3 p N 1 . $ 0 ..(.J.F.D.D.F.(.}.ZXNXzX}.F.D.F.>.} ^.zXnX8.` Z Z / ` ! <.>.R Q ) :.r.u.P.P.K. XR.T.T.$XxX=XP.@XT.P.r.*.%.Q Q ) %.&.E Y z x ! l z z l ] ^.6.j u h j j C V.q @ , M X.X.D C A s J K         $ 0 a m S %                       @ w K qXvXzX1X;XjXvXV.' o.-                                                                                                   ",
"                                                                                                - B.vXNXqX5.v w 9 1 ; $ .                             + : p a .   . 1 ..F.J.F.D.D.F.J.&XGXMXkX{.D.D.H.l.z.pXMXfXo.! Z ! } ! ` (.] R Q ) u.r.u.P.P.P.{.T.P.P.{.xX&XP.%X{.J.u.%.) Q R Q ) ) Y l l g ..g g z g f +.W.#.k u k k k V.G ; 9 A X.O.~ A D V N +..       X $ 1 s S v                         O $ 3 H 0XfXkX3XkXnXV.o.N                                                                                                   ",
"                                                                                                K uX9Xn % + $ $ X                                       1 e 5       $ J z.F.D.D.D.F.J.pXSXMXkX(.D.H._.}._.cXMXuX_ ! ! _ / ! v.}.] R ! -.S.:.u.G.G.T.R.P.G.G.{.lX&XP.$X%XT.S.:.) ! x x R R z l f r 6.C f r r r k 1.k.B.' h j j M.6.0 p ^ _ O.( ~ D D M +.%         X @ y M ' %                             + - n C.aXkXzXnXA.o.$                                                                                                 ",
"                                                                                              < 5.6 .                                                 X 3 e X       $ H v.F.F.D.D.F.(.vXNXMX3X(.F.`.,X=X+XMXNX'./ ! _ ! Z o.+X-X] ) ) ;.S.:.r.G.G.T.P.G.S.G.{.jX&XG.@X%XR.G.:.` ! x z z x g f r r 6.6.r r 7 r r D ,.z.].6.M j 4.A.j C ' X.>.X.~ D ~ A @.5         $ . , j M O                                 + - n C.aXMXmX'.a                                                                                                 ",
"                                                                                              # o                                                     $ 3 :         $ K D.H.F.D.F.H._.NXMXzX=XJ._.,X,X,X;XMXNXM.! _ _ ! ! W.,X].` ) ` 3.3.:.3.S.G.P.G.S.u.G.{.jX&XG.{.4X@X(.3.` ! x z z x f r r r ..^.s , @ , r h ( <.~.&XW.J J eXK A X.O.>.O.^ D ^ ~ X.b       @ ; + ; p M =                                     . . 6 C.vXNXV.X                                                                                               ",
"                                                                                                                                                      : 1 X         O J F.F.F.F.J.J.].SXcXlX+X{.*X,X,X1X1XMXvX+./ _ ! _ >.}.1X'.! ) ` 3.3.:.:.S.S.G.G.S.3.G.(.jX+XG.T.%X@X{.D.` ! x k k x r r 8 7 F /. .@   @ 0 h M j.D.}.}./.#.'.C.C o.,.,.O.' ^ ( ^ ' J       @ 9 ; , 2 j q                                           . d 9XCXP                                                                                               ",
"                                                                                                                                                    X 1 $             G D.H.F.F.(.~.sXDXcXjX+X*X,X,X,X3XjXBXuX] _ _ _ >.z.*XkX'.! ) -.;.3.:.:.3.S.S.r.3.3.G.J.jX+XG.P.@X%X@X(.` ! x k h Z h r , , a ^.z.q @   ; s j #.H.&X=X&X&X`.uX..X.<.<.,.X.X.( ^ ~ ..X % 5 O 9 1 ; $ e a O                                             . n 7.<                                                                                             ",
"                                                                                                                                                # O $ =               G D.J.J.J.(.~.gXVXcX3X<X<X,X,X1X3XkXVX'.( _ _ _ ,.D.,XnXC.! ` 3.;.3.:.:.3.S.3.;.:.:.S.(.kX&XP.G.R.@X@X).O.Z Z k h ! x 8 8 ; 5 N.z.J 2 O X 9 j ' (.&X,X;X&X-X-XqX' <.<.,.O.X.[ ( D #.4 . G b , 0 ; + - s :                                                 o #                                                                                             ",
"                                                                                                                                                < < $ $               J F._.(.(.(./.ZXNXMX1X2X<X,X,X1X1XzXNXN._ o.l.X.>.~.3XnXM./ 3.3.>.3.-.-.;.S.:.-.-.;.S.}.NX:XJ.G.G.R.{.(.<.x x k k / Z f k O # N.z.@.j 0 @ + 9 m /.=X:X:X:X:X-XaXM.o.<.<.,.o.{ ^ ~ @.e   % J v p 9 ; $ q -                                                                                                                                                 ",
"                                                                                                                                                < 5 O X               K J.{.(.(.(.].HXBXzX2X2X<X,X,X,X1XnXmX1._ ~._.3.z.+XkXvX6.} l.l.3.-.%.-.-.3.-.-.-.>.S.pXJXnX{.G.S.G.J.J.l.x k h k / Z j ~ = . M.W.@.C X.m O . 9 V.:X3X3X3XdXdXpXiX..<.<.<.o.X.^ ^ X.G     # a J m , ; p 2 .                                                                                                                                               ",
"                                                                                                                                                                      +._.{.(.(.(.aXJXBXkXjX2X,X,X,X;X,XnXwX( k.,X;X=X&X3XzXgX .3.l.l.3.` ` -.-.:.` ` -.-.D.nXKXFX=XF.3.3.3.D.D.Z h h k ~ Z A o.2   b.`.,.' 1.1.J = , ..pXdXdX3X3XjXhXmXwXX.j.<.O.X.^ ~ (  ..     . e ' G a N N %                                                                                                                                               ",
"                                                                                                                                                                      4._.}.(.(._.mXHXNXzXjX1X,X,X=X*X;XaX+.Z 6.3X3XkXdXzXnXwX( l.S.D.;.` -.-.-.-.` ` } -./.MXFXnXdX(.>.` -.3.F.( h h k ! M S ,.p . I -Xk.@.1.1.#. .w s uXzXjXjX3X1XkXlXmXV.<.<.,.o.( ~ ^ ..#       . e ....N J e                                                                                                                                               ",
"                                                                                                                                                                      4._.}.)._.}.ZXDXMXzXjX,X1X,X*X=XpXM.V V ' tX1XkXnXnXnXM.} D.D.D._ / -.` -.-.` _ } >.OXNXDX:X*X}.l.~ / -.l.O.M h k V V A <.V @ H hXW.1.1.1.@.1.N y V.NXjX3X3X1X3XlXzXbX1.j.<.@.X.~ D  .%         . q ..+.J F o                                                                                                                                             ",
"                                                                                                                                                                      4._.+X_._.-XFXVXnXzX3X,X1X;X*XpXA.A V V C '.3XdXnXNXvX+.l.H.D.x./ / } ` ` } ` _ -.D.pXzXNX*X).}.F.( Z / ,.,.M u j M V ~ <.^ ; b tX/.k.1.1.1.#.a y F wXkX1X3X1X,XjXzXNXwX1.l.<.X.~ A ' <             5 ..+.J 4                                                                                                                                             ",
"                                                                                                                                                                    X 6.}.+X_.}.aXHXBXcXlX1X1X1X=XpXwXJ M M M M n.dX2XnXVXuXX.F.H.F.l.! / } _ _ ` ` _ >.`.,X2XnX+XJ.(.(.<.A Z { >.V r i j M ~ <.X.w q '.].B.1.1.k. .w y y F A.kX1X1X,X1XkXMXSXA.l.<.o.^ C ^ 3               5 ....b                                                                                                                                             ",
"                                                                                                                                                                    = M.*X+X}.}.mXHXNXzX6X,X1X:XdXuX..M m m j j F tX1XzXFXA.o.H.F.F.,.Z / } _ _ { _ _ v.=X`.2XhX`.F.D.H.F.X.k ~ } D 0 w j k ~ >.X.j 0 M.].^.1.1.k.a ; , 9 w b qXkX1X,X=X:XzXDXbXB.j.O.( A S e                 5 K 4.&                                                                                                                                           ",
"                                                                                                                                                                  . 2 M.1X*X*X=XGXFXMXlX6X,X1X:XfX4.M m j i i i i V.dXkXZX6.O.H.F.F.>.A ( } / _ _ _ ,._._._.2XkX`.F.l.3.D.j.A M { ( u w u j ~ X.X.M 0 5.'.'.1.z.#.@     . : 0 b qXkX1X=X;XdXMXHXtXl.,.X.S A m                   - 4.P                                                                                                                                           ",
"                                                                                                                                                                  . 9 M.3X2X6XhXJXDXcX6X2X;X;XyX4.M m i i i y y y J pXjXfXJ ,.(.F.F.} A _ } / _ _ O.~.(.F.(.1XkX_.D.3.>.,.l.>.M ~ _ j w y y A ( [ M 0 I '.'.k.W.c         . : 9 v A.aX:X-X:XkXNXmX^.<.o.D A C .                   > I #                                                                                                                                         ",
"                                                                                                                                                                  X 0 M.jXjXzXmXJXBXlX6X2X;XpX4.m j i y y 0 9 9 y s Z.lXqXj 1.(.D.D._ ~ } } ( _ O.W.).D.D.~.;XzX_.l.3.} } O.3.' A _ V y w 0 M ( ( M 2 b '.'.B.N.#             @ 2 s C.fX:X-X:XkXNXyXl.O.~ S J @                     < <                                                                                                                                         ",
"                                                                                                                                                                  O w V.zXlXzXGXJXMXjX6X2XpXn.j s y 0 2 ; O X + 2 w K hXn.y @.H.v.l.( / } } ( _ B.pX(.D.F.W.=XzX_.l.3.{ _ _ O.l.( _ ~ i w 2 y ~ ( j + < '.'.W.H                 - p m C.fX=X=X:XzXZX^.<.X.~ ' :                                                                                                                                                                 ",
"                                                                                                                                                                  $ y V.zXxXMXLXHXnX6X6XjXV.m s y 9 $           . ; 4 wX4.u @.z.l.j.{ { >.} _ 1.fXpX(.F.F.W.*XzX_.l.3._ / / ( <.v.X._ j w : 9 A ~ M . & wXtXB.<                 . 1 p s m.aX=X=X3XnXfXz.,.' X.3                                                                                                                                                                 ",
"                                                                                                                                                                  = y V.zXxXNXLXDXzXjXzX'.N a y 2 X                   7.H u O.<.,.,.{ } >.} o.uXmX,X}.(.F.W.&XzX_.l.3.{ / ~ / _ F.v.>.M 9 ; 2 A A N X o qXsX...                   . 1 p a n.fX=X*X3XmX'.<.X.o.a                                                                                                                                                                 ",
"                                                                                                                                                                  : i M.zXxXDXJXNXzXzXyXJ a y 2 .                     n a y X.,.o.O.{ } -.-.'.GXNX;X*X`.H.W.*XnX`.S.3.{ / ~ ~ / ,.(.v. .0 , 9 A V C X   U yXe                         : p a n.vX1X,XhXgXB.o.o.G                                                                                                                                                                 ",
"                                                                                                                                                                  ; y M.MXzXHXFXMXMXnX6.s a 9 X                       - # ; ^ ,.X.@.O.} -.N.AXHXMXzX;X+X(.W.*XMX&XD.3.{ ( ~ ~ ~ ( l.`.B.a ; 3 A V C O   d qX#                         . : 9 a n.vXjX3XmX'.,.o. ..                                                                                                                                                               ",
"                                                                                                                                                                  : p M.MXMXJXNXMXNXC.m a 9 @                             X ^ <. .,.<.} ,.fXJXVXMXBXkX*X_.(.;XNX=XF.3.} ( / ~ ~ ~ _ v.].4., ; C A ~ @   & P                               @ w a 5.bXzXzXgXB.o.#.#                                                                                                                                                               ",
"                                                                                                                                                                  $ p M.zXNXJXMXBXwXN a 0 $                               . ' <.^ <.<.} '.FXVXBXBXVXMX3X+X(.1XDX:XJ.l.} _ / ~ A A / o.^.wXd ; C A ' =   . o                                 : e a 5.bXzXnXwX<.1.-                                                                                                                                                               ",
"                                                                                                                                                                  @ w M.zXHXDXBXuXJ a w @                                   S z.' <.,.N.bXVXMXMXBXVXVXnX*X_.2XSXdX(.S.-._ ( ~ ! A A { <.].5.u ~ ^ ' $                                         - q p 4.bXNXmXW.k.5                                                                                                                                                               ",
"                                                                                                                                                                  . 3 V.nXJXVXvX..u w $                                     J v.X.l.,.uXDXMXMXMXBXVXVXBX3X}.3XFXzX{.D.>._ ( ~ ! A V ~ O.B.wX' ' ' J X                                           @ 1 y 4.bXHXuXz.b                                                                                                                                                               ",
"                                                                                                                                                                    = V.SXHXNXn.a 9 $                                     O B B.o.l.^.NXcXzXMXMXBXVXVXVXzX=XkXHXnX+XD.,._ / ~ A A A V _ <.'.V.' X.N                                               . 1 y I CXGX^.F                                                                                                                                                               ",
"                                                                                                                                                                    X n.HXFXA.s w $                                       O v B.<.^.bXzXjXkXzXMXBXBXVXVXBXkXzXHXNX&XD.,._ ~ ~ A A A A ( >.^.uX..@.e                                                   - 9 H iXbX..                                                                                                                                                              ",
"                                                                                                                                                                      m.LXqXa 9 $                                         + e N.1.fXzX3X3X3XjXcXBXBXVXVXDXNXnXHXNX&XD.>._ ~ A A A A / _ O.l.tXC.#.<                                                     . X 6 iXqX.                                                                                                                                                             ",
"                                                                                                                                                                      m.iX< @ .                                             : b.'.zX,X=X:X3X3XzXMXBXVXDXFXHXVXJXVX-XD.>._ ~ D A A ~ _ } O.,.~.wXM.%                                                           6 eX<                                                                                                                                                             ",
"                                                                                                                                                                      7.n                                                   - n.nX1X*X&X=X,X1XkXMXBXVXDXFXJXHXLXDX=XD.>.{ ~ D A A ( } O.>.O.z.pXV.X                                                   # X       6 6                                                                                                                                                             ",
"                                                                                                                                                                      < .                                                   = 5.nX*X&X}.&X=X;X3XMXMXVXFXHXJXJXLXFX=XD.,.} ( ~ A ~ { O.>.,.O.z.-XI                                                     5 4         .                                                                                                                                                             ",
"                                                                                                                                                                                                                            $ G aX&X}.}.`.&X*X1XcXMXBXFXHXLXLXPXFX=XD.,.} ( ~ A ( } >.>.>.@.D.OXd                                                     . .                                                                                                                                                                       ",
"                                                                                                                                                                                                                            @ w A.-X`.}.`.}.&X;XcXMXBXDXHXLXLXPXDX*XD.>.} ( / ~ { O.>.,.,.O.F.V.o                                                                                                                                                                                                                               ",
"                                                                                                                                                                                                                            . 2 I pX`.`.`.`.+X=XcXMXMXDXHXLXLXLXVX*XD.>.} ( / ~ o.,.,.,.o.O.B.n                                                                                                                                                                                                                                 ",
"                                                                                                                                                                                                                              : v wX].(._.`.+X=XzXcXMXVXJXLXLXLXNX*XD.,.o.( / ( ,.,.,.,.{ @.M.#                                                                                                                                                                                                                                 ",
"                                                                                                                                                                                                                              $ w 6.-X(.(.`.+X&XlXcXcXVXJXLXLXLXMX&XD.<.o./ ~ ( ,.<.,.,.{ k.H                                                                                                                                                                                                                                   ",
"                                                                                                                                                                                                                              . 2 N ].`.(.`.}.+XjXcXcXBXJXLXLXLXMX}.D.<.o.( ~ ( <.,.,.,.@.b.&                                                                                                                                                                                                                                   ",
"                                                                                                                                                                                                                                $ 0 6.-X~.`.+X}.3XlXcXMXHXLXLXLXnX}.D.<.{ ( ~ { <.{ ,.,.j.b                                                                                                                                                                                                                                     ",
"                                                                                                                                                                                                                                . 1 v ].`.`.&X`.1XlXzXnXFXJXJXLXnX}.D.<.{ ( ~ o.O.{ <.<.@.%                                                                                                                                                                                                                                     ",
"                                                                                                                                                                                                                                  - p n.-X`.&X`.;XjXlXzXFXJXJXLXnX}.D.<.[ ~ ~ O.( o.<.<.v                                                                                                                                                                                                                                       ",
"                                                                                                                                                                                                                                  $ y G tX&X&X}.*X6X6XlXSXJXLXLXzX}.F.<.[ ~ ^ o.( O.<.@.-                                                                                                                                                                                                                                       ",
"                                                                                                                                                                                                                                  X w s V.3X&X}.+X2X1XkXNXJXJXLXhX_.F.<.{ ~ [ { ^ O.j.J .                                                                                                                                                                                                                                       ",
"                                                                                                                                                                                                                                    1 y K pX=X}.}.,X,XjXNXJXJXLXdX(.F.j.{ ^ { [ ^ O.z.a                                                                                                                                                                                                                                         ",
"                                                                                                                                                                                                                                    @ w s A.:X`.`.;X*XjXNXJXJXLXpX(.F.j.{ ( o.^ ^ @.k.%                                                                                                                                                                                                                                         ",
"                                                                                                                                                                                                                                      1 y ..pX}.`.=X*XdXNXJXJXJXpX(.F.l.o.[ O.^ ( <.J                                                                                                                                                                                                                                           ",
"                                                                                                                                                                                                                                      = w N ].=X`.&X&XdXMXHXJXJX-X~.F.z.O.{ O.^ X.k.5                                                                                                                                                                                                                                           ",
"                                                                                                                                                                                                                                      . 2 p N.:X}.&X*X3XMXHXJXHX&X~.F.z.,.O.@.( <....                                                                                                                                                                                                                                           ",
"                                                                                                                                                                                                                                        $ w J -X&X&X=X:XMXHXJXFX].F.F.z.,.@.O.o.k.e                                                                                                                                                                                                                                             ",
"                                                                                                                                                                                                                                        . 3 s ^.=X&X1X:XMXHXJXFX`.F.F.z.<.@.o.<.k.O                                                                                                                                                                                                                                             ",
"                                                                                                                                                                                                                                          1 p +.3X=X6X3XMXFXJXSX`.F.D.z.<.,.O.v.G                                                                                                                                                                                                                                               ",
"                                                                                                                                                                                                                                          = e N OX3XjXjXMXFXJXSX`.F.D.z.<.@.,.v.-                                                                                                                                                                                                                                               ",
"                                                                                                                                                                                                                                          . 9 s N.lXlXkXnXDXJXSX`.F.D.z.<.O.l...                                                                                                                                                                                                                                                ",
"                                                                                                                                                                                                                                            1 a +.hXcXlXzXVXJXGX`.W.F.z.1.@.v.5                                                                                                                                                                                                                                                 ",
"                                                                                                                                                                                                                                            ; a F tXMXcXzXNXJXAX`.W.W.v.<.j.#.X                                                                                                                                                                                                                                                 ",
"                                                                                                                                                                                                                                            $ p s V.MXcXcXNXJXSX`.~.W.v.j.W.b                                                                                                                                                                                                                                                   ",
"                                                                                                                                                                                                                                            . 9 a ..hXcXcXMXJXGX&X~.W.v.v.B.%                                                                                                                                                                                                                                                   ",
"                                                                                                                                                                                                                                              : a N OXMXcXMXJXGX-X/.~.v.(.K                                                                                                                                                                                                                                                     ",
"                                                                                                                                                                                                                                              O w a N.MXMXMXJXGX-X].`.~./.4                                                                                                                                                                                                                                                     ",
"                                                                                                                                                                                                                                                1 p J hXMXMXHXJXpX=X`.`.M.@                                                                                                                                                                                                                                                     ",
"                                                                                                                                                                                                                                                @ e s '.MXMXHXJXdX1X`.].H O                                                                                                                                                                                                                                                     ",
"                                                                                                                                                                                                                                                . 9 p n.MXMXFXJXzX:X}.Z.e X                                                                                                                                                                                                                                                     ",
"                                                                                                                                                                                                                                                  : p G aXMXDXLXnX:X]...=                                                                                                                                                                                                                                                       ",
"                                                                                                                                                                                                                                                  X w a '.BXFXLXnX;X/.a @                                                                                                                                                                                                                                                       ",
"                                                                                                                                                                                                                                                    1 p 4.nXFXPXnX;X6.$                                                                                                                                                                                                                                                         ",
"                                                                                                                                                                                                                                                    @ e N tXDXPXnX&Xb                                                                                                                                                                                                                                                           ",
"                                                                                                                                                                                                                                                      1 a M.NXLXnXZ.%                                                                                                                                                                                                                                                           ",
"                                                                                                                                                                                                                                                      O 9 G aXJXnXK                                                                                                                                                                                                                                                             ",
"                                                                                                                                                                                                                                                        X 1 C.JXaX5                                                                                                                                                                                                                                                             ",
"                                                                                                                                                                                                                                                            n FXqXX                                                                                                                                                                                                                                                             ",
"                                                                                                                                                                                                                                                            & iXI                                                                                                                                                                                                                                                               ",
"                                                                                                                                                                                                                                                              7.6                                                                                                                                                                                                                                                               ",
"                                                                                                                                                                                                                                                              6 o                                                                                                                                                                                                                                                               ",
"                                                                                                                                                                                                                                                                                                                                                                                                                                                                                                                                ",
"                                                                                                                                                                                                                                                                                                                                                                                                                                                                                                                                ",
"                                                                                                                                                                                                                                                                                                                                                                                                                                                                                                                                ",
"                                                                                                                                                                                                                                                                                                                                                                                                                                                                                                                                ",
"                                                                                                                                                                                                                                                                                                                                                                                                                                                                                                                                ",
"                                                                                                                                                                                                                                                                                                                                                                                                                                                                                                                                ",
"                                                                                                                                                                                                                                                                                                                                                                                                                                                                                                                                ",
"                                                                                                                                                                                                                                                                                                                                                                                                                                                                                                                                ",
"                                                                                                                                                                                                                                                                                                                                                                                                                                                                                                                                ",
"                                                                                                                                                                                                                                                                                                                                                                                                                                                                                                                                ",
"                                                                                                                                                                                                                                                                                                                                                                                                                                                                                                                                ",
"                                                                                                                                                                                                                                                                                                                                                                                                                                                                                                                                ",
"                                                                                                                                                                                                                                                                                                                                                                                                                                                                                                                                ",
"                                                                                                                                                                                                                                                                                                                                                                                                                                                                                                                                ",
"                                                                                                                                                                                                                                                                                                                                                                                                                                                                                                                                ",
"                                                                                                                                                                                                                                                                                                                                                                                                                                                                                                                                ",
"                                                                                                                                                                                                                                                                                                                                                                                                                                                                                                                                ",
"                                                                                                                                                                                                                                                                                                                                                                                                                                                                                                                                ",
"                                                                                                                                                                                                                                                                                                                                                                                                                                                                                                                                ",
"                                                                                                                                                                                                                                                                                                                                                                                                                                                                                                                                ",
"                                                                                                                                                                                                                                                                                                                                                                                                                                                                                                                                ",
"                                                                                                                                                                                                                                                                                                                                                                                                                                                                                                                                ",
"                                                                                                                                                                                                                                                                                                                                                                                                                                                                                                                                ",
"                                                                                                                                                                                                                                                                                                                                                                                                                                                                                                                                ",
"                                                                                                                                                                                                                                                                                                                                                                                                                                                                                                                                ",
"                                                                                                                                                                                                                                                                                                                                                                                                                                                                                                                                ",
"                                                                                                                                                                                                                                                                                                                                                                                                                                                                                                                                ",
"                                                                                                                                                                                                                                                                                                                                                                                                                                                                                                                                ",
"                                                                                                                                                                                                                                                                                                                                                                                                                                                                                                                                ",
"                                                                                                                                                                                                                                                                                                                                                                                                                                                                                                                                ",
"                                                                                                                                                                                                                                                                                                                                                                                                                                                                                                                                ",
"                                                                                                                                                                                                                                                                                                                                                                                                                                                                                                                                ",
"                                                                                                                                                                                                                                                                                                                                                                                                                                                                                                                                ",
"                                                                                                                                                                                                                                                                                                                                                                                                                                                                                                                                ",
"                                                                                                                                                                                                                                                                                                                                                                                                                                                                                                                                ",
"                                                                                                                                                                                                                                                                                                                                                                                                                                                                                                                                "
};
