/* XPM */
static const char *ice6[] = {
/* columns rows colors chars-per-pixel */
"256 256 256 2 ",
"   c #000000",
".  c #03050B",
"X  c #05090C",
"o  c #0A0B0D",
"O  c #040612",
"+  c #040A14",
"@  c #050B1B",
"#  c #0A0B18",
"$  c #110D1B",
"%  c #0B1219",
"&  c #15171A",
"*  c #080D24",
"=  c #091426",
"-  c #0A132C",
";  c #151926",
":  c #110E32",
">  c #0B1837",
",  c #141739",
"<  c #241B38",
"1  c #19232A",
"2  c #102537",
"3  c #172638",
"4  c #27282A",
"5  c #293038",
"6  c #0B1B46",
"7  c #161949",
"8  c #0D1B55",
"9  c #181A58",
"0  c #251B52",
"q  c #0D2348",
"w  c #162748",
"e  c #1B3449",
"r  c #0C2658",
"t  c #152759",
"y  c #1A3659",
"u  c #2C314E",
"i  c #263857",
"p  c #1A1B64",
"a  c #261C6F",
"s  c #0C2966",
"d  c #162967",
"f  c #18366A",
"g  c #172C76",
"h  c #0D3273",
"j  c #173778",
"k  c #252669",
"l  c #2D316D",
"z  c #262777",
"x  c #253578",
"c  c #48366E",
"v  c #314655",
"b  c #1B4466",
"n  c #1C427A",
"m  c #304D6E",
"M  c #274778",
"N  c #38667A",
"B  c #4B4E55",
"V  c #4E536F",
"C  c #69577A",
"Z  c #506776",
"A  c #6D7075",
"S  c #331D85",
"D  c #173B85",
"F  c #17378E",
"G  c #382689",
"H  c #322E8F",
"J  c #273886",
"K  c #2A3A98",
"L  c #2E3BA6",
"P  c #3738A6",
"I  c #453298",
"U  c #4638A8",
"Y  c #5134AD",
"T  c #633AB8",
"R  c #194489",
"E  c #194996",
"W  c #1C5298",
"Q  c #254788",
"!  c #2A5688",
"~  c #36508E",
"^  c #274A96",
"/  c #265599",
"(  c #1C639D",
")  c #376792",
"_  c #1A56A8",
"`  c #1A53AD",
"'  c #2A46A8",
"]  c #3548A7",
"[  c #2658A6",
"{  c #3658A9",
"}  c #274BB3",
"|  c #374AB4",
" . c #2957B8",
".. c #3657B8",
"X. c #1D62AB",
"o. c #1C64B8",
"O. c #2863AA",
"+. c #3771AE",
"@. c #2869B6",
"#. c #3667B9",
"$. c #2B73BB",
"%. c #4C518F",
"&. c #675594",
"*. c #4C6F92",
"=. c #6D7290",
"-. c #4945B6",
";. c #4F4FB1",
":. c #6B4FB3",
">. c #4B71B0",
",. c #706EB0",
"<. c #663BC2",
"1. c #305AC2",
"2. c #1E6CC5",
"3. c #2868C6",
"4. c #3768C5",
"5. c #2977C7",
"6. c #3878C8",
"7. c #3178D3",
"8. c #3E7CE1",
"9. c #5056C8",
"0. c #6E4FCA",
"q. c #4767C8",
"w. c #4676CA",
"e. c #546ED0",
"r. c #4879D4",
"t. c #5776D7",
"y. c #6868D7",
"u. c #6F70D4",
"i. c #5B7CE3",
"p. c #7275E3",
"a. c #8673AD",
"s. c #8455D2",
"d. c #9B6DD9",
"f. c #8C70D6",
"g. c #9075E6",
"h. c #AB74EB",
"j. c #C97BF2",
"k. c #3A82B6",
"l. c #738794",
"z. c #508AB3",
"x. c #6395AA",
"c. c #6F8FB0",
"v. c #2E86CE",
"b. c #3885CC",
"n. c #2C86D7",
"m. c #3889D5",
"M. c #3A95D9",
"N. c #3EA3DC",
"B. c #2F8FE2",
"V. c #3999E5",
"C. c #3BA6E7",
"Z. c #3CAFEE",
"A. c #4789CA",
"S. c #5393C8",
"D. c #4689D7",
"F. c #5688D8",
"G. c #4796DA",
"H. c #5797DB",
"J. c #6B90D4",
"K. c #4FA6DA",
"L. c #70ACD4",
"P. c #5289E3",
"I. c #489AE3",
"U. c #569AE5",
"Y. c #6E8EE7",
"T. c #7599E8",
"R. c #47A7E6",
"E. c #57A7E8",
"W. c #49B5EB",
"Q. c #58B7EB",
"!. c #49B8F3",
"~. c #59B9F2",
"^. c #66A7E9",
"/. c #79A8EA",
"(. c #66B7EC",
"). c #78B6EA",
"_. c #73A8F1",
"`. c #67B9F2",
"'. c #76B9F2",
"]. c #4BC7F2",
"[. c #59C8F5",
"{. c #5AD8F8",
"}. c #73C7EC",
"|. c #63D4EA",
" X c #69C7F5",
".X c #76C9F5",
"XX c #66D7F8",
"oX c #78D5F7",
"OX c #68E6FB",
"+X c #77E6FA",
"@X c #77F4FC",
"#X c #818181",
"$X c #89909A",
"%X c #8D92AE",
"&X c #92A8B8",
"*X c #A6A8BB",
"=X c #9290D0",
"-X c #A891D4",
";X c #8FB1D1",
":X c #AFB4D0",
">X c #8788E9",
",X c #9686EB",
"<X c #9398EE",
"1X c #B091EF",
"2X c #A79AF3",
"3X c #8CB4EC",
"4X c #86A6F3",
"5X c #96A7F4",
"6X c #99B6F6",
"7X c #A9A5F5",
"8X c #B6A9F6",
"9X c #AAB3F0",
"0X c #BBB4F7",
"qX c #DD9EED",
"wX c #CE8DF1",
"eX c #D0AFF1",
"rX c #C7B8F7",
"tX c #EDB1F7",
"yX c #92C7D6",
"uX c #B3C8D7",
"iX c #90CBEB",
"pX c #88C7F4",
"aX c #96C8F5",
"sX c #87D9F8",
"dX c #97D8F7",
"fX c #B0CFF0",
"gX c #A6D8F6",
"hX c #88E6FA",
"jX c #98E6F9",
"kX c #88F5FB",
"lX c #97F6FB",
"zX c #AEE3EB",
"xX c #A7E9F9",
"cX c #B7E8F9",
"vX c #AAF4FB",
"bX c #B4F4FB",
"nX c #BBF5FB",
"mX c #BAF9FC",
"MX c #C4CBD5",
"NX c #D7C8F6",
"BX c #CFD0F1",
"VX c #EED3F9",
"CX c #C7E8F8",
"ZX c #D3E8F2",
"AX c #C7F7FB",
"SX c #D4F8FB",
"DX c #DCFBFC",
"FX c #E3E6EC",
"GX c #E8E7F9",
"HX c #F5E9FB",
"JX c #E8F4FA",
"KX c #E4FBFC",
"LX c #EBFBFC",
"PX c #F8F4FB",
"IX c #F4FCFD",
"UX c #FBFCFC",
/* pixels */
"                                                                                                                                                                                                                                                                                                                                                                                                                                                                                                                                ",
"                                                                                                                                                                                                                                                                                                                                                                                                                                                                                                                                ",
"                                                                                                                                                                                                                                                                                                                                                                                                                                                                                                                                ",
"                                                                                                                                                                                                                                                                                                                                                                                                                                                                                                                                ",
"                                                                                                                                                                                                                                                                                                                                                                                                                                                                                                                                ",
"                                                                                                                                                                                                                                                                                                                                                                                                                                                                                                                                ",
"                                                                                                                                                                                                                                                                                                                                                                                                                                                                                                                                ",
"                                                                                                                                                                                                                                                                                                                                                                                                                                                                                                                                ",
"                          4 4                                                                                                                                                                                                                                                                                                                                                                                                                                                                                                   ",
"                          B B                                                                                                                                                                                                                                                                                                                                                                                                                                                                                                   ",
"                        4 A A 4                                                                                                                                                                                                                                                                                                                                                                                                                                                                                                 ",
"                      & A #X#XA &                                                                                                                                                                                                                                                                                                                                                                                                                                                                                               ",
"                    4 A #X#X#X#XA 4                                                                                                                                                                                                                                                                                                                                                                                                                                                                                             ",
"                4 B A #X#X#X#X#X#XA B 4                                                                                                                                                                                                                                                                                                                                                                                                                                                                                         ",
"                4 B A #X#X#X#X#X#XA B 4                                                                                                                                                                                                                                                                                                                                                                                                                                                                                         ",
"                    4 A #X#X#X#XA 4                                                                                                                                                                                                                                                                                                                                                                                                                                                                                             ",
"                      & A #X#XA &                                                                                                                                                                                                                                                                                                                                                                                                                                                                                               ",
"                        4 A A 4                                                                                                                                                                                                                                                                                                                                                                                                                                                                                                 ",
"                          B B                                                                                                                                                                                                                                                                                                                                                                                                                                                                                                   ",
"                          4 4                                                                                                                                                                                                                                                                                                                                                                                                                                                                                                   ",
"                                                                                                                                                                                                                                                                                                                                                                                                                                                                                                                                ",
"                                                                                                                                                                                                                                                                                                                                                                                                                                                                                                                                ",
"                                                                                                                                                                                                                                                                                                                                                                                                                                                                                                                                ",
"                                                                                                                                                                                                                                                      %                                                                                                                                                                                                                                                                         ",
"                                                                                                                                                                                                                                                    & 5                                                                                                                                                                                                                                                                         ",
"                                                                                                                                                                                                                                                  . A 4                                                                                                                                                                                                                                                                         ",
"                                                                                                                                                                                                                                              . @ u *X%                                                                                                                                                                                                                                                                         ",
"                                                                                                                                                                                                                                            + - % %X%X                                                                                                                                                                                                                                                                          ",
"                                                                                                                                                                                                                                          @ , + Z ZX=.                                                                                                                                                                                                                                                                          ",
"                                                                                                                                                                                                                                        = t + u uXCXV                                                                                                                                                                                                                                                                           ",
"                                                                                                                                                                                                                                      - x - @ c.CXfXu                                                                                                                                                                                                                                                                           ",
"                                                                                                                                                                                                                                    2 ^ t + m fXgXuX4                                                                                                                                                                                                                                                                           ",
"                                                                                                                                                                                                                                  2 ^ ^ - y ;XCXgX:Xo                                                                                                                                                                                                                                                                           ",
"                                                                                                                                                                                                                                , Q { d d ,.ZXcXcX%X                                                                                                                                                                                                                                                                            ",
"                                                                                                                                                                                                                            . - w { Q x ~ uXSXgXxXA                                                                                                                                                                                                                                                                             ",
"                                                                                                                                                                                                                          . > = x ^ Q ^ ,.JXcXgXCXB                                                                                                                                                                                                                                                                             ",
"                                                                                                                                                                                                                        . - + , ^ Q { Q uXDXcXcXCX5                                                                                                                                                                                                                                                                             ",
"                                                                                                                                                                                                                        % + * g J { J ,.ZXSXcXgXuX&                                                                                                                                                                                                                                                                             ",
"                                                                                                                                                                                                                      . . . 7 d ] Q Q uXcXAXxXxX*Xo                                                                                                                                                                                                                                                                             ",
"                                                                                                                                                                                                                  .       * t Q x d ,.cXxXnXdXcX$X                                                                                                                                                                                                                                                                              ",
"                                                                                                                                                                                                                . #     @ k ^ x 7 l uXgXxXxXpXcXA                                                                                                                                                                                                                                                                               ",
"                                                                                                                                                                                                                .     @ J ] d 6 t c.cXaXgXdXpXcXB                                                                                                                                                                                                                                                                               ",
"                                                                                                                                                                                                          .         * Q ^ w - 8 m fXdXpXdXpX3XfX5                                                                                                                                                                                                                                                                               ",
"                                                                                                                                                                                                        . @ .     - Q x * @ * t %XgXpX3XaX).).yX&                                                                                                                                                                                                                                                                               ",
"                                                                                                                                                                                                        . .     @ J x @ . . * v fX3X3X/.pXT.).&Xo                                                                                                                                                                                                                                                                               ",
"                                                                                                                                                                                                              . t d : .     o &X6XT./.T.3XF./.l.                                                                                      4 4                                                                                                                                                                                       ",
"                                                                                                                                                              . .                                             @ - @ . . .   B fXY.Y.T.T./.t.T.A                                                                                 o ; A C o                                                                                                                                                                                       ",
"                                                                                                                                                              . # O .                                         .     . .   % &X6Xt.Y.Y.T.Y.w.;XB                                                                         . % u V ,.MX$Xo                                                                                                                                                                                         ",
"                                                                                                                                                                  . @ @ .                                                 V CXY.t.Y.Y.T.F.q.=X4                                                                   . ; i %.;.u.7XGXMX&                                                                                                                                                                                           ",
"                                                                                                                                                                  . . . @ @ .                                         O & :XfXF.F.T.Y.Y.e.q.c.o                                                             X 1 m >.e.e.q.u.MXJXFXB                                                                                                                                                                                             ",
"                                                                                                                                                                    + .   O * + .                                   . . B CX4Xi.Y./.T.Y.q.e.Z                                                         o 3 m >.t.t.e.q.e.;XFXSXDX#X.                                                                                                                                                                                             ",
"                                                                                                                                                                    . = *   . # , @ .                             . .   %XaXY.Y.T.4X/.F.q.t.5                                                 . ; i %.>.e.t.e.>.;.;.J.BXLXSXSX:X&                                                                                                                                                                                               ",
"                                                                                                                                                                      . 7 -     O 7 7 * .                             1 ;XJ.e.Y./.3X_.t.q.>.o                                         . % 3 m *.>.r.r.w.q.>.;.;.>.;XGXLXSXSXZXB                                                                                                                                                                                                 ",
"                                                                                                                                                                        = k =     . * - , - .                         3 i w i T.4X6X/.e.t.m                                   . # - w x Q ^ { { #.q.w.q.q.q.q.J.fXKXDXSXSXKXl..                                                                                                                                                                                                 ",
"                                                                                                                                                                          w ~ - .   . . O 7 0 *                     @ =     % J.3XaXT.q.t.3                             & u m ~ ^ Q J J Q [ #.w.w.r.w.w.w.t.3XCXSXSXAXAXDX:X&                                                                                                                                                                                                   ",
"                                                                                                                                                                            l ] 7 O     . * t J 0 #               . ; .       *.pX3Xt.;.;.+                     % 5 Z x.J.F.4. .' ' { #.4.w.w.w.w.w.w.t.T.fXSXAXAXAXAXAXZXB .                                                                                                                                                                                                   ",
"                                                                                                                                                                            + ~ ~ 9 +   * 9 k z H H 0 %           + +         i /.F.| ] x               . ; v *.>.F.F.r.4. . .4.6.w.w.w.w.w.w.w.q.w.J.fXCXSXAXAXAXnXAXDXl.>                                                                                                                                                                                                     ",
"                                                                                                                                                                              = ~ x x : , k J z J H H H u &                   3 e.] d J ,         . - t Q { #.4.4.4.#...4.6.6.6.w.r.D.r.r.r.r.r.F.6XCXAXAXAXAXAXnXnXDX:Xi @                                                                                                                                                                                                     ",
"                                                                                                                                                                                - J ] ] l z H I ;.%.;.;.g.%Xo                 - ] 7 - t +   . - t D '  . . . . ...4.4.4.6.6.6.r.D.D.F.F.F.F.F./.CXDXAXAXAXAXSXnXnXSXZXV 2 .                                                                                                                                                                                                     ",
"                                                                                                                                                                                  - ;.;.;.I I ;.u.u.,X1X,X<X4                 # x @ . O     - ^ ' }  . .4.4.4.6.8.r.7.6.6.6.D.G.U.U.H.H.H.^.fXJXLXSXSXSXSXSXAXnXAXKX%Xy =                                                                                                                                                                                                       ",
"                                                                                                                                                                                    0 :.:.u.;.:.h.eXeX1Xu.>XV                 @ 7 . .       6 ' } ..r.^.(.(.E.I.D.r.7.r.r.D.G.G.H.E.E.(.aXJXUXUXLXKXKXLXJXAXAXAXSXuXm w X                                                                                                                                                                                                       ",
"                                                                                                                                                                                    . l f.f.d.d.wXHXVX8Xu.p.,.                O .   .       6 ^ ^ [ 4.D.H.^.`.`.`.U.D.D.D.D.I.E.Q. XiXZXUXUXUXIXIXIXUXIXJXAXAXAXZX=.y 2                                                                                                                                                                                                         ",
"                                                                                                                                                                                      * &.1XqXqXtXPXHXrX>Xy.u.;                   . O       . * t ' [  .#.4.6.D.U.I.I.I.R.Q.~. XoXcXIXUXUXUXUXUXUXUXUXIXSXAXnXAX&Xf y %                                                                                                                                                                                                         ",
"                                                                                                                                                                                        7 d.tXHXHXUXUXNX<Xu.y.i                   . .       @ t D ' [  .#.4.4.6.6.8.D.I.R.W.[.oXCXIXUXUXUXUXUXUXUXUXIXLXSXAXnXuXm y > .                                                                                                                                                                                                         ",
"                                                                                                                                                                                        . c qXPXUXUXUXVX<Xp.y.%..                         > ^ ' [  .#.3.4.4.4.6.6.6.D.I.R.Q.dXSXDXKXIXIXLXLXKXKXLXLXLXDXAXnXAX=.y w +                                                                                                                                                                                                           ",
"                                                                                                                                                                                          ; :XUXUXUXUXVX7Xu.y.e.3                       + r  . .3.3.3.3.4.4.6.6.6.G.G.I.}.CXDXAXAXDXKXDXSXSXSXDXKXDXAXbXnXSX:Xf y -                                                                                                                                                                                                             ",
"                                                                                                                                                                                          # a.UXUXUXPXVX9Xu.y.e.%.              #     - j @.5.7.7.7.7.7.n.7.6.7.m.D.^.gXSXSXbXnXAXSXAXAXAXAXSXSXSXbXxXcXAXZX%.f w .                                                                                                                                                                                                             ",
"                                                                                                                                                                                          . u BXUXUXPXGXfX4Xe.q.>.1           % o   . q F 7.m.m.m.m.m.m.n.5.5.5.m.3XCXAXbXvXnXAXAXmXbXbXmXmXmXAXbXxXxXnXSXc.f y ,                                                                                                                                                                                                               ",
"                                                                                                                                                                                            $ =.PXPXHXGXBX6Xt.q.q.m         X V X     + E M.V.V.M.M.m.m.5.@.6.H.dXbXxXjXjXbXAXAXAXxXhXvXmXmXmXbXvXxXxXSXuXM f y @                                                                                                                                                                                                               ",
"                                                                                                                                                                                              $ A :XtXGXZXfX/.>.>.>.&       1 V       > 5.m.V.V.V.M.m.7.D.L.dXxXhXhXhXjXvXnXAXnXxXsXsXbXbXmXnXvXvXxXnXCX*.f y w .                                                                                                                                                                                                               ",
"                                                                                                                                                                                                  & C MXZXcX3Xe.q.w.m       3 5     = / 3.6.m.m.m.m.H.).sXhXhX+X+X+X+XjXbXmXbXhXsX.XjXmXnXnXbXvXxXxXnXc.n f y >                                                                                                                                                                                                                 ",
"                                                                                                                                                                                                      u uXCXaXJ.>.w.>.o     = %   + j [ [ [ [ #.S.pXhX+XXX+XhX+XXXXXhXlXvXvXsX.X.XoXbXmXnXnXbXvXxXxX;XM f f t -                                                                                                                                                                                                                 ",
"                                                                                                                                                                                                        5 ;XaX).F.q.w.3     . . . q d t j ) >.*.*.K.+XhXhXhXoXXXoXhXhXlXlXoX X X XsXnXnXnXbXvXxXjXdX) f f d t *                                                                                                                                                                                                                 ",
"                                                                                                                                                                                                          ; =.J./.r.w.m         + - w m N M y 6 r j >.K.oXhX+X+X+XoX+XlXoX[. X X XxXnXnXnXvXbXvXxXx.n f f t t , .                                                                                                                                                                                                               ",
"                                                                                                                                                                                                              5 z.U.r.) X     # u ~ ~ e .   . * r s h D S.+X+XXXXXXX+XoX~.~.~.~..XbXbXbXbXnXbXvXyX! n f d t t w = = @                                                                                                                                                                                                           ",
"                                                                                                                                                    .                                                           ; >.U.F.5 + w i i ; .         * r h h D K.XXXXXXXXXXXX[.~.~.~.~.sXnXbXnXnXbXvXxX>.n j f f t t t t 9 7 = ; 5 4 X                                                                                                                                                                                                 ",
"                                                                                                                                                    + +                                                           % *.>.1 . + .             . > s h j O.XXXX[.XXXXXXXX[.~.~.~. XxXmXmXnXbXnXAXL./ / ! Q M f t t w l =.%X:XuX:X&Xl.A B 5 & o         .                                                                                                                                                                           ",
"                                                                                                                                                      X + .                                       @ @ .             % 1 @ > 6 8 6 > @ .     - r s j F S.OXXXXXXXOXOXXX[.[.~.[.sXAXnXbXcXgXpX(.I.I.I.G.D.6.~ V =.&XfXfXfX6X5X4X5X5X5X5X<X=X%X=.C B 5 < ; * * O O . . .                                                                                                                                                           ",
"                                                                                                                                                          . .                                     . @ .                 > h h s 6 > - +   . 6 s h D [ [.OXOXOXOXOXXX[.[.[.[. XbXAXgX).E.R.W.E.E.I.D.w.S.L.:XCXCXcXgXaX6X6X5X5X5X5X5X5X<X<X<X2X7X7X2X=X%X=.V u 0 < 7 7 , , : # .                                                                                                                                                 ",
"                                                                                                                                                            . .                                                         O - r h h h h > . * s R E F b.OXOXXXXXOXOX{.XX{.[.[..XpXE.I.R.W.R.V.m.A.J.;XfXfXfX6XaXaX6X6X6XaXfXfXfX9X9X7X7X9X9X9X8X8X8X8X8X8X8X2X-X=X%Xa.&.C c l 0 7 : $ O                                                                                                                                           ",
"                                                                                                                                                                                        X 1 4 &                       O 6 s s q 6 > * . > j  . .E [ W.[.[.[.{.{.XXXXXX[.[.~.G.m.V.R.R.K.H.L.3XiXgXgXaX3X4X/././.4X4X4X5X5X5X5X5X5X<X5X7X7X7X7X7X2X2X2X2X1X1X1X1X8XrXNXBXMX:X*X%X=.C u < #                                                                                                                                       ",
"                                                                                                                                                                                          X u *.l.v %                 . @ @ + . . O O - j  . .E _ b.R.R.W.!.[.[.[.[.R.m.m.G.G.H.(.}.oXsXhXhXoX X`._._.T.Y.Y.T.T.4X4X5X5X6X6X5X5X5X7X7X9X9X8X8X8X8X8X8X8X2X1X8X8X8XeXeXeXrXNXNXNXNXBXBX:X*X=.B B B u                                                                                                                             ",
"                                                                                                                                                                                              = M >.>.N v &                   . @ q j M j D F E @.6.v.v.M.C.M.V.V.I.I.Q.(.sXjXjXjXhXlXkXkXhXoXoX.X`._._.T./.4X4X6X6X6X6X6X6X5X5X5X5X7X9X8X0X8X0X8X8X8X8X1X1X8X8XeXrXrXNXNXNXNXNXNXNXBXGXGXHXPXFX#X4                                                                                                                             ",
"                                                                                                                                                                      . w 2                     . - M +.G.S.Z 1         .     @ > > * . * 8 s s s h D F @.5.v.Q.Q. X+XhXlXlXlXvXvXvXlXlXjXjXjXjXsXpX3X4X4X4X4X4X4X5X5X5X5X5X5X<X<X<X<X<X2X2X7X8X8X8X8X8X8X8XeXeXeXeXNXNXVXVXVXGXGXPXPXUXUXUXMXB                                                                                                                                 ",
"                                                                                                                                                                        > ) y .                       - b O.A.S.l.u X             O - - 6 s s s s h D F E E W [ O.$.A.S.L.).;X3X3XfXfXcXSXSXSXAXcXgXdXaX3X4X4X4X4X5X6X6X6X5X5X5X5X5X5X2X7X7X7X8X8X8X8XeXeXeXeXNXVXGXHXPXUXUXUXUXPXPXPXPXJX%X5                                                                                                                                   ",
"                                                                                                                                                                          @ f y X                     . @ > j  .G.).x.v &       . 6 E _ _ [ D s s s h h h D D F F F E ` ` ` } } }  ...>.t.J.;XfXCXcXfXfXfXaX6X6X5X5X<X5X5X<X<X<X2X2X2X7X7X7X8X8XrXNXNXVXGXHXPXUXUXUXUXUXPXPXPXPXPXPXIXFX=.0 .                                                                                                                                   ",
"                                                                                                                                                                              % *                           X > f [ G.Q.S.) 3 X   O s D F  .3.@.W D h D F F F E E ` ` } } } } } } }  . .1.1.1.4.e.e.>.,.,.J.;XuXBXfX9X7X7X7X7X7X7X7X0XBXBXGXGXHXPXUXUXUXPXPXPXPXPXPXHXHXHXHXHXPXPXUXMXC 0 #                                                                                                                                     ",
"                                                                                                                                                                                                                  . = b +.K.(.x.N 3 6 s s s h E @.5.5.@.` ` o.3.3.3.3.3.1. . . . . . . . . .| ..| | ' ] L K K ] ;.,.:X0XrXBXGXGXGXGXGXHXGXGXNXNXVXVXGXHXHXHXHXHXGXHXHXHXHXHXPXIXPX*Xc 0 #                                                                                                                                       ",
"                                                                                                                                                                                                                        . 2 / D.E.K.$.[ W E R R E ` 5.m.V.M.7.3.3.3.3.1.1. . . . . . .} } ' ' ' L K K K K K L P ] -.0.u.-XBXGXNXNX0X8X8X8X0XrXNXNXNXNXNXVXVXVXVXVXVXVXGXHXPXUXFXa.l 0 $                                                                                                                                         ",
"                                                                                                                                                                                                                            . t O.7.7.5.[ @.v.C.W.].].].W.W.R.I.I.I.I.m.m.8.8.8.8.7.4.1...| | } ' L K K K K K K P ;.u.7XBX0X2X2X2X8X0XrXrXrXrXrXrXrXNXNXNXVXVXNXNXNXVXVXHXPXMX&.0 7 #                                                                                                                                           ",
"                                                                                                                                                                                                                          . + @ 6 n $.m.b.O.` 3.V.!.{.{.{.OXOXXX[.!.W.I.I.m.8.8.8.r.r.4.4.1.| | ' L K L ] ;.;.u.>X<X8XNX8X7X8X0X0XrXrX0X0X7X7X8X0XrXrXrXrXrXrXrXrXrXNXGXGX%Xc 0 , .                                                                                                                                             ",
"                                                                                                                                                                                . + .                     @ @ .           O 6 s r > q n $.G.M.5.3.7.V.!.{.{.{.OXOXOXOXXX{.XXoXoX.X'.'.^.P.e.q.1.;.>.u.J.<X5X<X>Xg.g.>X,X7X0XrXrX0X7X7X2X2X2X2X7X0XrXrXrX0X0XrXrXrXrXVXFX=.k 0 $                                                                                                                                                 ",
"                                                                                                                                . .                                               . . .                   . - r > .           O = q j j D W b.R.R.m.5.7.R.[.XXOX+X@X+X+XkX+X+X+XoX.X`.^.Y.Y.P.Y.Y.Y.Y.Y.Y.p.p.p.g.g.g.,X2X0X0X0X7X7X2X2X2X2X7X7X8X0X0X8X8X8X8X0XNXGXFX&.0 , O                                                                                                                                                   ",
"                                                                                                                                                                                  + +               . .       + y n r - = > > + . @ r D E E ` @.G.W.R.V.V.V.W.[.OXkXkXkXkXlXjXhXhXhXsX3X_.T.Y.i.p.p.p.y.y.9.y.y.y.y.g.,X8X0X0X0X0X7X2X2X7X7X8X8X8X8X7X7X8X0XrXNXGX:XV 0 :                                                                                                                                                       ",
"                                                                                                                                          .                   & B B 4 o           . * .               . + .       = f W o.2.5.X.( E E E _ ` @.@.6.G.R.W.W.!.].].[.XX+XhXkXlXvXvXjXhXsX.X_.T.Y.Y.Y.p.y.y.9.9.9.9.9.9.9.0.u.,X2X7X8X8X8X8X8X8X8X8X8X7X8X8X0XBXBXBX%Xl 0 *                                                                                                                                                         ",
"                                                                                                                                          . . X                 & l.iX;Xl.V 1 X                 . + + . . * * .       * R o.5.n.n.n.2.` ` o.@.5.H.fXZXCXcXdXjXhXhXhXhXhXhXhXhXjXxXjXsXpX'.T.Y.p.p.y.y.9.9.9.9.-.-.-.-.-.-.-.9.u.,X8X0X0X0X0X0X0X0XrX0X0XNX0X:X&.0 0 $                                                                                                                                                           ",
"                                                                                                                                          . . @ *                 o l.sXpXpX}.x.m ;                 . + + @ = > @       + h _ 5.B.B.n.5.5.n.M.R.Q.jXIXUXUXUXUXUXIXIXLXKXDXSXAXcXcXxXdXdX6X4XT.Y.Y.i.y.9.9.-.U U P U U U -.-.Y -.0.f.2X8X0XrXNXNXNXBXBXBX0X-XV 0 , .                                                                                                                                                             ",
"                                                                                                                                                @ O                 % l.iX).^.`.(.L.*.5 X               . + - > > > X   + 6 j X.n.V.V.V.Z.Z.].{.OXkXmXIXIXIXUXUXUXUXUXUXUXIXIXIXIXLXJXZXZXfX9X<X<X<XY.p.p.y.9.9.-.U U P U U U ;.0.0.f.2XrXNXNXNXBXBXBXBX*Xl 7 * .                                                                                                                                                               ",
"                                                                                                                                    + %                               o *.).(.E.E.E.E.(.x.Z 5 o             . * 6 r r - @ r h R o.B.C.C.Z.!.[.{.OX@XkXAXLXIXUXUXUXUXUXIXIXLXLXLXLXKXKXJXJXJXPXBXy.9.9.;.9.9.y.u.u.f.f.u.:.;.;.:.0.y.g.2XrXNXNXNXGXGXGX%Xl 0 #                                                                                                                                                                   ",
"                                                                                                                                      > > .                             X v S.(.E.G.U.U.^..XiX&XZ 1             + > r f h s D E E o.7.V.Z.!.!.[.{.OXkXvXSXDXKXIXIXIXIXIXIXIXIXLXKXJXJXJXJXGXJXZXY.y.9.9.P P H H H I %.&.,.%X-X-X-X-X1X1X8XeXNXGXGXBX,.k 0 :                                                                                                                                                                     ",
"                                                                                                                                      . y w .                               1 z.^.H.F.H.H.F.E..XsXyXl.B &         . * r n E E E _ ` o.5.V.Z.!.].[.XXlXAXAXDXDXDXKXLXIXIXIXIXIXLXLXJXJXGXGXGXJXJX<Xp.p.u.9.9.-.P H H S a p k k l V &.a.%X-X:XBXPXMXC 0 0 7 .                                                                                                                                                                     ",
"                                                                                                                                        % / f .                               % N H.H.D.H.G.D.G.Q..XhXjX;XZ 1 . . * > r j _ o._ E _ o.3.n.V.!.].[.{.+XbXSXDXDXDXKXKXLXIXIXIXLXLXLXIXIXJXJXGXPXUXrXf.u.y.9.-.-.-.P H H S z a a p 9 9 9 9 0 u V &.u 7 0 k , .                                                                                                                                                                     ",
"                                                                                                                                          - n t .                           X   o m L.H.A.D.D.D.D.I.E.~.[. XL.z.m y r s h E 5.B.5.` ` 2.n.B.Z.!.].[.{.XXhXAXKXKXLXLXLXLXIXIXIXIXIXIXIXIXIXJXPXUXGXg.u.y.y.9.-.P U H H H H G S z z a p 9 0 0 9 , . . + 0 %.C 5 o                                                                                                                                                                 ",
"                                                                                                                                            + y y                         + - + + @ m L.E.A.6.D.G.I.I.R.W.~.[.~.A.z.z.! D F _ B.Z.n.2.o.5.B.Z.].{.{.{.{.{.oXbXKXKXKXLXLXLXIXUXUXUXUXPXPXPXPXUXUXUX-X0.0.;.;.-.P P P P H H S a a a p 9 9 9 0 9 , + . . O $ =.9X%XV 1                                                                                                                                                             ",
"                                                                                                                                              . y >                       . . + O > 6 M S.E.6.6.D.I.R.R.R.W.[.{.[.M.I.}.L.S.>.$.n.Z.V.5.3.5.V.!.{.OXOXXXXXXXXXjXDXKXKXKXLXIXUXUXUXUXUXPXPXPXUXUXUXBXu.0.-.U U U Y Y 9.;.H z a a p p 9 9 9 7 7 , 7 9 7 : O o =.BXfX:Xl.v o                                                                                                                                                       ",
"                                                                                                                                                . - +                     . .     + = > y z.E.D.D.I.R.I.R.W.W.[.{.{.[.[.OX+XoXsX).E.C.B.5.3.7.V.!.OX@XOXOXXX X XsXSXKXKXLXIXUXUXUXUXUXPXHXPXUXUXUXGXf.0.0.Y U I U y.p.y.y.;.a p p p 9 9 9 9 7 9 t k k k 9 7 , =.BX9X9XfX*XZ 1                                                                                                                                                   ",
"                                                                                                                                                    + .         .           .         = - w +.Q.I.I.W.!.R.R.W.!.[.OXOXOXOXOXOXOX+XvXQ.V.C.V.m.B.V.!.XXOX+X+XXXXX XsXSXLXLXIXUXUXUXUXPXPXHXPXPXUXUXUX8Xs.0.Y Y Y Y Y 9.y.y.p.y.%.k 9 9 7 @ O * k J J J J x k 9 7 c.0X5X5X9XfXuX$XB &                                                                                                                                             ",
"                                                                                                                                                                  .         @         . * @ q ) Q.R.R.~.[.W.R.W.].XX@X@X@XOX@X@XOXkXsXM.R.!.C.V.V.R.~.XXOXOXXXXX.X.XdXSXLXLXIXUXUXPXPXHXPXPXUXUXUXUXNXs.<.T T U G G G H ;.y.p.>Xu.%.z p : * 7 k J J J J H J x 9 w 9X9X<X<X6XfXCXCXuXA o                                                                                                                                         ",
"                                                                                                                                                                          + @ .         . = = q ) Q.~.Q.[.[.W.R.!.{.@X@X@X@XkX@X+XkXvXR.m.R.Z.V.V.I.Q.[. XXX X X.X.X.XaXZXIXIXUXUXPXHXPXPXPXUXUXHXVXVXs.<.Y Y G G S z a a z ;.y.y.9.-.H 9 , , * 7 k x J J J J k , V 9X9X<X5X9XCXCXCXZX$X1                                                                                                                                       ",
"                                                                                                                                                        + X                 . . .       . @ - = r ) }.oXXX{.{.!.!.{.@X@XkXkXkXlXkXkXvXoXM.n.R.C.V.m.m.I.Q.`. X.X.X.X'.4X6XZXUXUXUXPXPXPXPXPXUXUXVXVXVXd.0.T Y G G S a a a p 9 7 l ;.9.-.K J J x k 9 p k z x x x k t *.fXfX9X9XfXCXCXcXCXuXB                                                                                                                                     ",
"                                                                                                                                                        + e X                 . .           = - 6 j z.oXhX+X{.{.{.{.OX@XkXkXlXlXlXkXkXjX!.V.m.W.V.7.7.7.7.m.U.^.'..XpX3X3X6XZXUXUXUXPXPXPXUXHXHXVXVXtX1X0.0.-.U G S a p 9 7 * .   # u ~ ] ] | ] J H z p 9 9 7 t k Q J.fXCXCXfXfXfXCXcXgXgXfXA o                                                                                                                                 ",
"                                                                                                                                                          3 v                               . 6 r h E S.+XlXhX{.{.OXOX@XkXkXlXlXlXlXlXvXoXXX XI.I.7.3.3.3.3.7.r.P.U._.3XaXfXBXGXUXUXPXPXPXHXeXeXVXVXVXeX0.0.:.U P G a p 9 *           . ; k ] 9.| K J k 7 t t t t d Q =XZXSXSXCXfXgXgXcXgXdXfX&X5                                                                                                                               ",
"                                                                                                                                                            m 3                               * r s j W L.lXbXkX{.{.OX@XkXkXlXlXlXvXvXbXxX{.+XoXR.7.3.1. . . .1.4.r.i.T._.5XfX0XNXUXUXHXVXeXh.1XVXVXVXVX0.T T Y H H G a 7 O .               + t ] ..J 7 7 t d k x x x J c.ZXDXSXCXfXaXgXgXgXaXgXuXV o                                                                                                                           ",
"                                                                                                                                                            ; Z .                             . > r h E _ L.vXbX@X{.OXOX@XkXkXlXvXvXvXmXAX X[.+XXX XF.1. .} } } } 1.q.t.Y.T.>X<X2XNXPXtXwXd.h.h.NXVXVXVX-XY Y Y Y P H G a : @ . .               . w J J d , , d k x J J J >.fXSXSXCXgXaXaXgXgXgXpXgX$X4                                                                                                                         ",
"                                                                                                                                                              V 5                             . > r s D E o.^.vXlX@XOX+X@XkXkXkXvXmXmXAXKXdX!.oX+X+XjX3X4.} } ' } } | 9.9.y.p.p.g.g.eXqXh.s.s.h.eXVXtXVXeXY Y I Y U H S a 9 : * * 4 5 4 & .     .   . - t d 9 9 d d g x J J %.;XSXCXgXaXaXpXaXgXgXaXaX;XB                                                                                                                       ",
"                                                                                                                                                              & 5                     + . + + X > r s h E ` o.E.vXkXkXkXkXkXkXlXmXAXAXSXDXCX!.Q.oX+XoXdXgXF.} ' ' ' L | -.9.y.p.f.s.s.h.h.s.s.d.eXVXtXtXVX:.I I I I U G a p : .   . ; u B V V B u u & . . # 8 d 9 d d d x x J ^ ;XCXcXgXaXpX3XpXpXaXaXaXgXl.&                                                                                                                   ",
"                                                                                                                              . .                               & B 1                 y R r q > 6 r s h R _ o.2.Q.xXhXkXkXlXlXmXAXSXSXDXAXSX.XR.I.E.(.~. XpX/.q.| L L P P -.9.0.0.0.0.0.s.0.0.d.1XVXtXqXtX-XI I G G H U G a 9 : * O O * : , u B V l.%X$Xc.Z v ~ x d d d d g x x J c.gXcXgXaXpXpXpXpXpXpXpXdX;Xv                                                                                                                 ",
"                                                                                                                                . .                               4 l.m %             % _ @.E h s s s h D E _ 2.5.E.jXkXlXlXbXDXKXKXLXDXSXDXcXW.G.7.4.r.D.U.)./.t.-.L L P P Y 0.0.0.0.0.0.<.<.0.d.eXtXqXqXqX:.G S G G I ;.G p : * : : : : : : # .   ; V %XfXcXcXiXJ.>.J d d d g x J >.;XcXcXaX3X'.3X'.).).3XaXgXl.&                                                                                                             ",
"                                                                                                                              . .                                   5 *.M 3 .           q X.5.o.E j s s h R _ o.2.n.E.jXkXvXDXLXUXUXIXKXSXDXKX}.I.m.3.#.>...1.q.9.9.9.| P P U -.0.0.0.0.T Y Y Y T :.:XtXqXqXa.S z z I S I I z 9 : * # * : : * O       O @ 1 Z &XaXdXaX).S.{ J g g J J ~ ;XcXgXaX'.'.'.'.^.^._.'.dX;Xv                                                                                                           ",
"                                                                                                                              . .                                     v >.Q M %         . n o.5.2.o.E h s j E ` 2.n.B.(.vXAXIXIXUXUXIXLXDXKXIXdXW.G.4. ...q...| L L | | U P P Y 0.0.0.0.T Y Y Y I I Y d.qXwX-XG a G ;.I a G G p 9 9 : @ . . * : - .           X u *.;XdXxXdX^.F.>.^ J J ^ J.gXdXpXpX'._.'.'.'._.'.pXiXl.&                                                                                                       ",
"                                                                                                                                                                        Z m f / 2         @ R _ 5.o.2._ h h D _ 2.n.B.C.oXKXUXUXUXUXIXLXKXDXLXCXE.I.D.4.} | q.q.1.| P P P P U U T 0.0.0.0.T Y Y I I I I :.d.wX:.a G U u.z p a k 7 @ O # # @ # O @ * : O           . 1 Z L.xXcXdXpX).J.>.] ^ z.aXdXpXpX'._.(.'..X'.'.'.dX;Xv                                                                                                     ",
"                                                                                                                                                                        & >.i t [ t .       * j W $.o.5.o.R D E ` 2.B.Z.[.SXUXUXUXUXIXLXKXDXDXSX(.M.D.6. .' ' q.p.y.e.;.U U U U Y Y Y <.s.s.:.Y Y I I I I I a.-XG z I u.,.a a a 9 : : * $ O O # * - * * # .             % m L.gXgXaXpXpX).F.#.>.3XsXpXpX.X'.(.`.'..X'.'..XiX*.&                                                                                                 ",
"                                                                                                                                                                          e z.3 y ` j @       + s W $.X.2.2._ R E ` 2.V.].xXKXUXUXUXIXIXLXKXDXKXaXm.6.4...' ' ' u.>X>X>Xg.f.f.s.s.=X:.T T <.s.0.T I I I G I G &.&.a G 0.-X%.G G 0 .   O $ : 0 u u w w 3 , @                 # v c.).T.F.J._.^.U.F./.aXpX.X.X'.(.(.(.}..X.X.XdXL.v                                                                                               ",
"                                                                                                                                                                          . M +.= s ` E > .     + r _ o.o.2.2.` E E ` 2.n.W.oXSXIXUXIXIXLXKXDXKXCXH.6.#. .' ^ ' ] e.Y.g.,X,X1XwXwXVXGXeXd.:.Y T 0.:.I I G I I G I z G 0.,X=Xz G I a #       . # ; 5 v Z =.*.*.N v e = X .     . * e %.>.~ Q { A.^.^.pXxXgXpX.X'.`.(.(.(..XsXhXxXzXl.&                                                                                           ",
"                                                                                                                                                                            - +.) @ s _ ` f +     . q o.2.o.2.2.o.` _ ` 3.5.V.[.xXJXUXLXLXKXDXDXKX3XD.#.....K K K K ,.g.g.h.h.wXqXHXPXPXHXeXd.:.Y Y 0.Y I G I I G G G :.g.1X,.a I <.T l $               X ; e m *.>.+./ R t > - = - : w y f f f Q >.J.pXcXcXdXpX'.`.(.Q.(. XsXjXvXnXyXv                                                                                         ",
"                                                                                                                                                                            . M G.! = r _ o.W =       q o.o.o.2.2.2.o.` ` 2.7.V.~.oXCXIXLXKXKXSXKXfXD.4.[ { ..K J J H 0.,Xh.h.wXtXPXUXPXHXtXtXVX:X,.Y Y I G G U I G G :.f.g.-Xc a Y 0.s.:.u X                     . * > t f j D R D j d d f y f j d x ~ z.3XnXnXjX.X X`.(.`..XsXvXbXmXzXl.&                                                                                     ",
"                                                                                                                                                                              = $.M.R 6 r _ @.O.2       2 X.o.o.2.2.2.2.o.` 3.7.V.W.~.cXIXLXKXKXSXZXH.4.{ ^ ^ ..K z J H :.d.h.wXtXPXUXPXVXVXVXtXtXqX-X,.Y I G I ;.I G 0.u.f.,X-Xk a T 0.0.0.&.;                             . + * - > r f ! +.>.>.) ! Q x Q S.gXbXbXcXxXjXdXdXjXxXvXbXbXAX*Xv                                                                                   ",
"                                                                                                                                                                                b M.m.D 6 h R @.5.y   . . 2 o.2.7.5.5.5.5.5.3.3.3.7.V.E.fXUXLXKXSXKX3X4. .' K K { K z S H f.wXwXtXPXUXPXHXtXVXtXqXwXwXwXeXf.Y G ;.-.G ;.u.p.g.8X,.9 z Y <.0.s.&.$                             . . . .     . - w m >.z.z.z.+.+.z.iXbXnXnXAXAXAXbXbXbXbXbXbXAXCXl.&                                                                               ",
"                                                                                                                                                                                = +.N.5.D h E D [ v.b @ > @ r o.n.B.n.n.n.n.n.5.3.3.3.D.U.BXUXLXKXDXBXw...' K J J ] J z S I -XqXqXHXUXHXHXtXtXtXqXj.j.h.1XeXNX=X&.U G I p.p.f.,X8Xc 7 7 k I :.s.&.X                         .       .       . * > q q f ! z.S.K.(.dXAXDXAXAXAXAXnXbXbXbXbXvXmXAXuXB                                                                             ",
"                                                                                                                                                                                  e b.M.$.R _ @.W _ v.N r 6 . q o.B.Z.Z.V.B.B.B.n.5.3.3.7.F.BXIXLXKXJXJ.4.{ K J J J z z z G I eXqXVXPXVXVXtXwXj.j.h.h.h.h.h.1XeXeX-X,.&.f.g.f.f.2X=X0 9 : $ < c s.c .                       . .                 . * > > = @ 1 N z.L.gXKXUXLXDXAXmXmXAXmXbXbXbXbXmXzXl.&                                                                         ",
"                                                                                                                                                                                  . M N.M.@.W o._ E [ b.+.t .   q X.V.].].C.n.n.n.7.7.7.3.3.r.fXIXLXLX:X....^ K K J z z a G G :.qXtXHXVXtXqXj.h.j.h.h.h.h.h.h.1X1X8XNXBX1X,Xg.p.g.rX&.9 9 7 .   $ u ;                                                 . + . + = r f ~ c.fXZXJXLXKXDXAXbXnXAXAXbXbXvXbX&Xv                                                                       ",
"                                                                                                                                                                                    = k.R.M.@._ h j D W b.z.3     - W 7.W.{.W.n.3.3.3.1.3.3.3.w.fXUXJXZX>.| | ' ' K z z a a G G :.tXHXVXtXwXh.h.h.j.h.g.h.g.g.g.,X1X1XrX8X1X,Xg.g.2X9Xl 7 : : O                                                               . > j / @.b.A.H.).iXfXCXCXCXSXDXSXAXbXvXvXzXA %                                                                   ",
"                                                                                                                                                                                      e M.C.m.@.h s j D F +.z.o . . > D [ 5.R.W.m. .} } } ' } 1.w.uXIXJX=X' | ' ' K K K z a z G I a.VXVXqXj.h.h.h.h.1Xh.g.g.g.g.g.,X1X2X8X1X,X,X,X,XrXa.7 7 , 7 *           .                                             = y ! +.b.6.@.O.O.O.O.@.6.G.E.).pXfXcXZXKXSXAXbXbX&X5                                                                 ",
"                                                                                                                                                                                      . ! W.R.n.D s h D D j A.v   - 6 6 f Q E  .6.6. .F F ' } ' ' ..:XPXBX{ ] ] ' ^ K q.] z z z G I -XVXtXj.h.h.h.1X1X1X1Xg.g.f.f.g.1X2X2X2X,Xg.,Xg.2X8Xl 9 k k p *                                             . % 2 e ! b.G.M.b.6.@.[ / / / [ [ [ O.+.$.6.6.>.>.z.c.;XuXCXDXZXA &                                                             ",
"                                                                                                                                                                                        ; G.W.V.` s r h D h Q x.& . > f t M Q g g D F F F D F F K L | :XJX,.K ' ' ..' J ] J a z z G I -XVXwXh.d.h.1X1X1X1X1Xg.f.p.p.g.,X2X2X2Xg.g.g.g.2X=X7 @ 9 H k : .                                       @ b +.b.G.G.G.G.m.b.6.$.O./ ^ ^ ^ / / / / [ [ [ [ / / ^ Q Q %.=.%X:X&XB o                                                         ",
"                                                                                                                                                                                          m K.R.5.s - r j D g >.Z     w / g Q Q d s s s g g g F F F K | =X:XK L ' | q.K d k a a z G G Y NXqXh.g.g.1X1X8X1X1X1Xg.y.y.p.g.,X2X2X1Xg.g.g.,X8X%.O . : J H k *                                     + > Q #.m.G.G.G.M.m.b.v.$.@.[ / ^ Q Q Q Q Q Q Q n x j f f j n ! ~ m u 5 o                                                         ",
"                                                                                                                                                                                          + +.R.b.R * 8 g j g d z.5     w ^ s d f d g p 8 8 s F ' ' ' ' | J.;.K ' ' q.q.J d g a z G G G ,.eX1Xg.g.1X8X8X8X8X2X,Xp.y.y.y.p.,X,X2X,Xg.,Xg.<X-X4     = %.;.%.w + +                       . @ w Q { { #.#.6.b.m.m.m.m.b.b.6.$.@.[ / ^ Q Q Q Q n j j f d t f M m v 1                                                                 ",
"                                                                                                                                                    . .                                     3 A.R.O.d 8 s g g 8 f *.%   . q r 6 8 6 t g d : 6 p F } } } ' L >.J L K ' r.] J z a z z G H G -X1X,X,X2X8X8X8X8X2X,Xp.y.y.y.y.p.>X,X7X,X,X,Xg.<X=.      @ V ,.;.l 7 7 * .           . w ~ { { #.4.#.4.4.4.4.6.b.b.b.b.b.6.$.@.O.[ / ^ Q Q Q R Q j j n ! ! m 3 X                                                                     ",
"                                                                                                                                                    . = .                                     m R.m.W 8 8 d g d 6 ~ V     . * O : d 8 > 8 t 6 8 p F L ' } L ] ;.' ' ' 4.q.J K z z z z H H ,.8X,X,X<X7X8X8X8X2X2X>Xy.y.y.y.y.>X>X<X7X,X<X>Xp.>Xu       . u ,.u.l > 9 7 , +         @ e M { >.4.4.#.#.4.4.6.b.b.b.b.6.6.$.@.O.[ [ / ^ Q n j j n ! ) v &                                                                           ",
"                                                                                                                                                      + - .                                   % +.R.$.d 6 t d d 8 t >.5     @ O . 6 s d > = y t > 6 g F ' ' L ] | | | q.r.| J K H z S H H I -X,X,X<X7X8X7X7X2X,X,Xp.y.y.y.y.p.>X>X2X<X,X<X>Xp.%X&         o u &.u - 7 , 9 7 @ . - @     o 3 M { w.w.6.4.4.6.6.6.6.6.$.@.O.[ ^ R R R R Q / / m 3 o                                                                               ",
"                                                                                                                                                        @ *                                     ; z.G.n - 8 d t 9 8 f %.X   @ + O . * s g 8 > i f * 6 g F K L L ' | | 1.q.q.J z L L H P K H ,.7X>X<X2X8X7X<X<X>X>Xp.y.y.y.y.y.>X<X>X<X>X,X<X>X7XA   . .       X % . : 9 7 7 d t > 8 t - .     % e ! +.r.D.6.#.#.@.O.[ / ^ R j j j R ^ M i ; .                                                                                   ",
"                                                                                                                                                          O .                                     e K.) > > 8 9 9 9 - m u   . @ @ - O 8 g F D 6 b *.x g g F K K L 9.9.1.q.e.9.J ] ..| K P H ~ 9X5X<X<X9X7X<X<X>XY.p.y.y.e.y.y.u.<X5X>X>X>X<X>X9XBXu , i =             * t x d g g 7 9 x d = .     . % e ! >.G.D.b.+.@.[ / ^ ^ [ O.! e o                                                                                         ",
"                                                                                                                                                            .                                     . ! A.f 6 8 9 9 9 7 l ,.%   O O * > > r D } ' s x S.A.' F F J K ;.t.9.9.e.q.| ' 9.q.1.] K H =XfX<X<X5X9X5X>XY.p.p.p.y.e.e.t.t.>X9X<X>X>X<X<X<XBX:Xk k ~ k - .         . > x J J J g g J J d = .         % e *.L. XQ.G.b.A.z.) e o                                                                                             ",
"                                                                                                                                                              . .                                   + >.>.d 8 9 p d d %.-Xu     O + > > > s D  . .D j x.(.r...} ' u.<Xe.e.e.e.1.] 1.4.q.q.q.] ,.BXfX5X5X9X9X<XY.p.p.p.y.e.e.t.t.J.5X9X>X>X<X5X<X6XZX=.p 7 k K Q u o         O w J ^ K x g J J J f -             1 Z L.}.}.x.u X                                                                                                 ",
"                                                                                                                                                              . @ .         . .                       1 >.x 7 9 d z H %X1X&.X   O * * : > - 6 g }  .D d *.E.P.r.F.Y.Y.Y.i.t.t.q.| ..q.q.e.r.q.;.:XCX6X6X6XfX5XT.i.i.t.i.t.e.e.t.e.3X6X3XT.<X5X<X5XCX:Xk t 7 w ~ ;.*.v o         * t J ^ J J J J ^ ^ y X             ; V 5 X                                                                                                     ",
"                                                                                                                                                                $ , # .     . : .                       i ~ , 9 k H 0.eX8X0.u   . : @ * > y - * d F F g 6 m F.P.4.| ..i.Y.Y.i.q.| ..q.r.r.r.P.q.=XSXfX6X6XfX6X4XY.t.t.t.i.e.e.e.e.J.fX6X4XT.5X4X4XfXZX=.p k 7 7 ~ ;.J.c.u           + t ^ ] ^ K K ^ { Q %                                                                                                                       ",
"                                                                                                                                                                  0 l , .     * , .                     . l x d z ;.1X1X1Xs.&.    # # O + t ~ , @ 8 g j s 6 w +.D.4.| | t.Y.Y.t.| | 4.r.F.P.P.P.t.ZXCXfX6XaX6X4XY.i.t.e.e.t.e.e.e.e.fXfX3XT.4X4X4X3XCXMXl k z t t ~ e.e.>.Z o           - i ~ { { ] { { ~ 1                                                                                                                     ",
"                                                                                                                                                                  X c I :       : :               . @ .   = J H :.d.qXh.h.f.f.<     O . O * g ~ ; . * s s 6 > > ~ F.P.q...e.i.i.r.| 4.r.P.P.U.U.F.fXSXcXaX6XaX6X/.Y.t.t.e.e.t.e.t.r.T.fX3XT.T.4X4X4XgXJX%Xd x x d t %.F.q.;.V               X 3 m >.w.F.F.>.u                                                                                                                   ",
"                                                                                                                                                                    $ :.l .     . : #               . @ .   7 ;.f.eXqXwX1Xd.h.V         . # > D ~ %   * 8 > O > - m F.U.r.1.e.i.P.q...r.P.U.E.^.U.3XJXCXaX6XaXaX6XT.F.t.e.e.t.t.t.t.J.fXaXT.Y.4X4X4XaXCXFX%.d x x t , m Y.>.;.i                   % i *.L./.L.v                                                                                                                 ",
"                                                                                                                                                                      < :.: O . . @ , .               O - @ O I 1XVXqXwX1Xh.h.a.o         . * : J V o   @ 6 + . - * e >.U.r...q.F.Y.4.4.U.U.~.`.`._.CXSXgXpXaXgXaX'.Y.F.t.t.e.F.F.F.F.aXfX/.F.T.4X4X6XcXLX:Xf x x x 7 + m J.e.;.5                       5 *.L.3XV                                                                                                               ",
"                                                                                                                                                                        u &.l 9 , - , *               . - 7 * u eXVXtXqXh.h.h.1X5           . * 7 ] V     . * .   . . ; %.U.P.4...F.F.4.D.Q.Q. X X`.aXSXcXaXaXaXdXpX_.Y.F.t.t.F.U.U.P./.fX3XY.F./.4X3XcXSXJX=.d x x d , * %.T.t.>.;                         ; V c.A o                                                                                                           ",
"                                                                                                                                                                          < $ .                         . * 7 k :XVXtXwX1Xh.g.1XC             . , g ;.3     . .         . m H.^.r.4.D.D.r.Q.~. X.X X'.CXSXxXdXdXgXdX3X_.^.P.t.P.U.E.E.U.iXgX/.F.Y.4X3XdXAXKXuXl d k k d t i J.4XJ.*.%                           o u v &                                                                                                         ",
"                                                                                                                                                                                                            O 7 %XPXtXwXh.d.f.h.-Xo             . t J l .           .       3 S.^.D.6.D.D.U. X X X.X XgXSXAXcXgXxXgXgXpX_._.U.P.E.`.`.U.U.gXaXT.F./.'.3XcXSXJX=.d x k d d t M L.4XJ.%.o                             X o                                                                                                         ",
"                                                                                                                                                                                                                4 *XVXwXd.d.f.g.1X5               . i J ,             .     . w z.E.H.F.F.H.E. X X X.XdXKXSXAXnXcXcXxXcXdX3X'.^.^.`..X`.I.^.gX3XH.F._.).aXcXSXMXl x J k d d t ~ ;X3XJ.V                                                                                                                                         ",
"                                                                                                                                          .                                                                       & $XeXh.s.f.f.1XV                 . i x +                   > d >.).U.H.U.U.E. X X XoXSXKXSXAXAXbXbXbXbXbXgXpX'.`.`..X(.U.3XgX/.F.F._.'.dXcXSX%Xd J J x d d d ~ 3X3XJ.B                                                                                                                                       ",
"                                                                                                                                        . , .                                                                       X =.wXd.u.0.f.a.                  . i i                 + 6 r d >..X(.E.E.E.~.XXXX.XcXLXDXSXSXAXnXnXbXbXnXcXaX.X`.^..X`.H.pXiXU.r.H._.'.dXCXZX%.x ^ x f d d d %.6X3XJ.v                                                                                                                                     ",
"                                                                                                                                          * , .                                                                       o C -X0.0.0.a.$                   . i ;               . 6 s d g +.oXsX(.Q.~.[.oXoXjXLXLXSXSXAXbXbXbXvXbXnXbXdXpX(.^..X(.H.iX).F.w.U._.'.gXKX:Xx ^ ^ x f d d d >.aX3Xc.5                                                                                                                                   ",
"                                                                                                                                            * p 7 .                                             .                         B u.9.P ,.4                 . . X w .               O r d h D $.}.xXdXoX X XoXoXSXIXKXDXDXAXbXmXbXxXxXbXbXdX.X^.E.(.E.H.iX).r.r.^.'.pXgXJX=.j ] ^ J f d t f J.fX3Xc.4                                                                                                                                 ",
"                                                                                                                                              0 :.<                                             - +                         B u.P ;.B   . .           . @ . # >                 > d h j E 6.(.cXAXxXsXXXoXvXIXLXDXDXSXmXnXbXxXjXxXxXxXsX'.E.E.^.U.^.dX).r.U.'.'.pXcXBXi x ..{ ^ J g d Q L.fX3Xc.&                                                                                                                               ",
"                                                                                                                                              . l z                                             * > .                         V ,.%.=.  . .             O - . @ @             . > r d j D [ b.E.zXLXLXAXxXjXKXIXKXDXDXSXmXbXxXjXjXjXjXsX'.E.U.E.E.G.L.gX).^.'.'.'.pXSX$X- f { 4...] ^ J ~ ;XgX3Xl.%                                                                                                                             ",
"                                                                                                                                                . k *                                             , > .                       . V ;.,.;                   * - . @ .       . . . 6 s d h j R @.m.R.gXLXUXUXDXLXUXLXDXDXDXmXmXbXjXjXdXdXsX.X^.E.U.U.U.F.3XxX3X'.'..X.XdXZXu   % y { w.4...] { L.gX3X=.o                                                                                                                           ",
"                                                                                                                                                  O , .                               . .         . y >                         o V ,.B                   . - = . @ .     O = . @ s h h j D E $.m.E.dXKXUXUXUXUXUXLXDXDXAXmXmXvXjXjXdXjXsX^.E.E.U.U.U.J.cXcXpXpXsXsXpXcX*Xo     # i { w.q...{ J.aX3XA                                                                                                                           ",
"                                                                                                                                                    + - .                 O           . 6 *         ; M @                         X V &.o .               . * > = + = .     @ 6 = r h D j D R _ 5.M.~.xXDXIXUXUXUXUXDXDXSXmXnXbXxXjXdXdXjX.XE.E.U.U.U.U.3XAXxXpXdXxXsXxXZXV @       # i >.r.q...J.aXiXV                                                                                                                         ",
"                                                                                                                                                      @ -                 .             - g +         3 i .               = . @ .   % =.5     . = %         + = > @ * > @   @ r s r s j D D R W $.v.R.XXvXKXIXUXUXUXKXAXAXmXbXbXvXjXjXdXdXdX`.E.U.U.U.U.H.iXAXxXdXxXvXxXSXuXy -         o i z.J.w.J.3XiXB                                                                                                                       ",
"                                                                                                                                                        * .                             + g t .         u 1               w q > -     ; B   . . = M y +     + - = - . * 6 > - s h h h h D R R E O.n.V.].+XnXLXUXUXUXLXDXnXbXvXvXvXxXjXjXdXjXsX(.U.U.U.U.U.H.gXnXxXbXAXbXAXKX=.q +           o v c./././.;X5                                                                                                                     ",
"                                                                                                                                                        . .                             . d g :         o i X             > M - 6 .     4 &   . O ; ! M 2 . ; w w > *   = s r r h h j j j R R E _ 5.M.W.OXlXSXIXUXUXIXDXSXbXvXjXjXjXjXjXjXjXdXsX(.E.U.U.I.I.^.xXbXnXSXAXAXKXMXm 2 .             % V &X3X).&X1                                                                                                                   ",
"                                                                                                                                                                                          8 g 8 .         ; 3             X ! w 6 @       .   . @   = M ! e ; u v i > +   * s j D D D j D R E E W o.n.W.{.kXvXSXIXUXUXDXAXmXvXlXhXsXsXjXjXdXjXdXdX(.E.E.I.P.I.).bXnXSXDXSXDXIXl.t *                 % B &XaXc.&                                                                                                                 ",
"                                                                                                                                                                                . .       - g :             = +             e M > >             .     + y ! M 3 3 i m w *   @ > h R E E R R E E W _ 5.Z.].OXkXvXAXKXUXLXAXbXbXvXhXsXsXsXsXsXdXdXdXsX'.(.E.I.D.I.dXnXSXKXKXDXLXBXm >                     % V :X$Xo                                                                                                               ",
"                                                                                                                                                                                . , O     O d 8 .           . % .   . .     X f 6 t @                   . w ! ) e = v Z y @   + 6 h j R E R R E W _ 2.M.].{.+XkXlXlXvXLXKXnXbXbXjXoX.XoXsXsXsXsXsXsXsXsX.X`.U.D.^.xXAXDXKXKXLXIXc.r @                       & A A o                                                                                                             ",
"                                                                                                                                                                                  , x *     * 8 *             . + . . +       > t w q                       = f Q f > v Z v @ * 6 r h R E R D E W _ o.5.].{.{.OX@XOXOXjXLXDXmXbXvXsX.X.X.XoXsXoXoXoXoXsXsXsXsX}.^.).xXDXLXKXKXIXBXm 2 .                         5 u X                                                                                                           ",
"                                                                                                                                                                . .               . ~ x -     . .               + + . @ >     . w > f +                         @ f f - i Z v r r r s h R E R R E _ o.5.W.OX{.{.{.{.{.{.jXLXDXbXbXvXoX X`. XoXoXoX.X.X.XoXsXhXjXxXdXiXbXKXKXKXLXIXc.y =                           o X                                                                                                           ",
"                                                                                                                                                                = = +               , K d - .             + .   . @   + j *     = w n 2                           . q t 6 y *.*.f s s h h R E E E _ o.2.R.OX].].].].].].{.jXKXDXnXbXxX.X`.~.`..XoX.X.X.X.XoXoXsXjXxXcXxXAXKXKXLXIXZXm w +                                                                                                                                       ",
"                                                                                                                                                                . @ - O 1 o         . k g t O             @ @     . . + j d +   . y Q f                               = f s f *.*.n h h h h R E E W o.2.N.{.].].Z.Z.Z.].].{.jXKXKXAXbXjX X~.~.~. X.X X X.XoXoXsXsXjXxXnXbXAXKXKXLXIX&Xf 2                                                                                                                                       ",
"                                                                                                                                                                    O . v v           # k t - .           @ -         + j D t .   2 O./ +       X o                   . 6 s h f *.*.R h h h h E W _ _ o.M.].Z.Z.C.V.V.C.!.].{.jXKXKXAXbXjX X~.E.E.`. X X X.XoXoXsXjXjXjXbXnXSXKXLXIXFX) w .                                                                                                                                     ",
"                                                                                                                                                                      @ e z.&           = t > * O .       . 6 .       + f j j @   . Q / *       % v m v 3 ; o           - s s D R ~ >.E R R D D E _ _ o.5.C.C.C.M.B.B.B.V.!.!.XXjXSXKXAXvXhX[.E.E.E. X X X X.XoXoXsXhXhXjXmXAXDXKXIXUX&Xy -                                                                                                                                     ",
"                                                                                                                                                                      . 1 S.N             - t > - - +       6 @       X f j j *     - R >           1 *.S.S.z.) N v v ; X y j s E W ) z._ E W E W _ _ _ o.n.n.B.n.n.n.v.n.V.W.W.[.hXSXDXAXjXsX XQ.Q.Q. X X X X XoXoXsXsXhXxXAXDXKXLXIXFX*.q X                                                                                                                                   ",
"                                                                                                                                                                        % z.S.3             > t 7 > - .     = =       + j j j =     . d t               3 *.H.D.G.E.(.L.x.l.x.) f W O.+.J.@.o.o._ o.o._ o.5.v.v.v.5.5.v.v.n.C.W.R.[.sXAXDXAXjXsX X~.~. X X X`.`. X.XoXoXsXhXvXSXKXKXLXUX:Xf >                                                                                                                                   ",
"                                                                                                                                                                        . z.G.) o           . > t q > - .   . -     . @ j j j >       > r .       % X       e *.S.D.G.E.`. XpXsXL.x.z.k.z.;Xb.5.5.o.o.o.o.5.5.5.v.5.5.5.5.5.v.C.C.C.!.oXnXSXAXxXsX X X~. X X X~.~. X X.XoXsXhXbXSXKXLXIXJX*.q .                                                                                                                                 ",
"                                                                                                                                                                          *.G./ e       +     . 6 d t 6 =     = .     @ j D j q       + q +   . . + 3 .       X v z.H.E.(.`.~.~. XoXsXsX).L.yXA.n.v.@.@.@.5.v.5.5.5.5.5.$.$.5.v.C.V.V.W.oXbXSXAXxXsXoX X~.~.~.~.~.Q. X X.XoXoXjXbXSXKXLXUXuXf =                                                                                                                                 ",
"                                                                                                                                                                          N b.E ) 1     . .     @ w d 8 w @   + *     + j R j r         = @     . + ; ;           ; *.H.(. X X`.Q.Q.`.oXjXxXcXfXA.v.v.v.5.5.n.v.5.5.5.5.$.@.$.5.m.V.V.M.W.XXvXSXAXxXoX X XQ.~.Q.E.E.Q. X X.XoXoXjXnXDXLXIXLX=.>                                                                                                                                 ",
"                                                                                                                                                                          v +.D O.) %     + .     = 6 r q e + . -     + n R j r .       . = .     . ; 3 X           . 5 z.}.oX X X X`.`..XdXxXAXzXz.@.v.M.n.n.m.n.v.5.5.@.@.@.@.5.v.M.M.m.W.XXxXSXSXxXoX X~.E.R.R.R.E.~. X XoX XsXxXAXKXLXIXuXy X                                                                                                                               ",
"                                                                                                                                                                          5 +.h E $.N .   . @     . @ - > f e . @ . . + R R j t .         @ +         ; ; .             o v L.hXsXsXoX X`. X.XsXxXCX;X+.5.M.M.m.M.m.v.5.@.@.@.@.@.$.v.m.m.m.R. XjXSXSXjXoX XQ.R.I.I.R.E.~..XoX X XjXvXDXKXLXLX=.=                                                                                                                               ",
"                                                                                                                                                . . .                     1 z.D W 5.b.b     + .     . + @ t ) = + . + @ E R j s @         . +           . +               . e c.xXxXjXsXoX X X X XsXnXzXL.6.m.V.M.M.m.v.5.@.@.O.@.@.$.5.b.7.b.R.[.hXAXAXhX.X~.R.I.I.I.R.E.(..XoX XoXjXnXDXKXLXuXw .                                                                                                                             ",
"                                                                                                                                                . - =                     & z.E O.m.m.k.e     .       . . . m b . . @ - W R j f >           O                             w f r *.uXnXvXjXoX X X X XsXxXcXfXJ.b.M.M.m.m.v.$.@.O.O.@.@.5.5.5.5.6.D.W.XXbXnXsX XQ.I.D.m.G.I.E.(.oX X`.sXjXAXDXDXKXA                                                                                                                               ",
"                                                                                                                                                  - q                     % z.W @.N.M.5.k.%                 % ) 2 * + * W R j f t . . .             . .                 . w O.W h M &XCXmXvXsX.X X X`.}.sXxXCX9XA.m.m.m.v.5.$.@.O.O.@.@.$.$.$.5.$.7.C.[.vXnXsX`.R.D.m.m.G.I.E.(.oX`. XjXjXAXDXDXuX;                                                                                                                             ",
"                                                                                                                                                  X t O                   X z.[ $.N.R.5.v.M .   . .           v ) - = + W E D j f - + *             . .                 @ > / b.v.W f *.uXAXbXjXoXoXoX`.(.(..XcXgX^.m.m.v.v.5.5.$.@.@.@.@.@.@.@.@.O.@.M. XbXAXsX~.G.m.6.b.D.I.E.(. XQ.sXjXxXSXSXDXA                                                                                                                             ",
"                                                                                                                                                    w >                     z.@.@.R.N.v.$.@.y   . @           o z.e = + / W D j j d w y                                 . @ n m.C.m.( f f c.CXAXvXhXoXoX`.E.I.E.'.sX(.G.v.5.5.5.5.5.v.$.@.O.O.[ [ [ [ [ b. XbXAXhXQ.M.6.6.6.D.I.E.(.~.(.sXjXbXSXDXMX4                                                                                                                           ",
"                                                                                                                                                    % w                     *.A.O.N.N.M.v.$.( -   - +           v *.@ = [ [ R D j f f ! .                                 @ w 6.W.W.M.O.f r ! ;XZXAXjXhXoX(.E.I.D.U.(.(.G.v.5.5.5.$.5.m.m.$.O.[ [ [ [ [ R O.(.bXnXsXQ.m.6.4.6.D.I.E.(.E.`.sXjXnXSXSXl.                                                                                                                          ",
"                                                                                                                                                      > X                   m K.[ M.M.M.v.$.O.j + . > .         X z.e > [ [ R D j j j ) %                                 @ > +.W.].Z.M.@.n f f *.:XAXbXjXsX(.I.D.m.m.G.E.G.7.5.@.@.O.@.5.v.v.@.[ / / / W R ^ S.xXbXoXE.m.6.4.6.D.I.E.E.E.}.sXxXAXAXzX4                                                                                                                         ",
"                                                                                                                                                      % %                   e Q./ b.$.$.v.5.O.R q   > >           v *.q [ [ R D j j j +.1                                 = > / W.W.C.M.M.v.O.n h f *.;XcXbXhX(.G.m.6.6.D.I.D.5.@.[ [ [ [ [ @.$.@.[ E E E R j j >.dXbXoXE.m.6.6.6.D.G.E.E.E.}.sXxXnXnXl.                                                                                                                        ",
"                                                                                                                                                      . =                   3 Q./ $.W W $.@.[ R > . . y -         o z.! W [ E D j j j +.e                                 + 6 ! W.Z.C.M.M.M.M.v.O.j s f N $XzXxX.XG.b.6.6.6.D.6.$.[ [ W E E E E / [ W E R R D j j +.dXvXoXR.m.6.6.6.D.G.E.I.E.}.sXxXbXzX5                                                                                                                       ",
"                                                                                                                                                        % .                 1 K./ O.n n W W R q .     = n @       . v +.W [ E D j j f +.m                                   @ y W.C.N.M.M.M.M.M.M.$.R f > X 5 $XzXgX^.A.4.4.6.6.$.[ / E R R R R R D R R R D j j j j ) iXvX.XG.m.6.6.b.D.G.G.G.E.(.sXxXxXx.X                                                                                                                     ",
"                                                                                                                                                        X @                 & S.E / j j R E j @         y n -     . @ ) [ [ E D j j j / )                                     2 W.C.N.M.m.M.M.M.M.M.$.W 2     . 5 $XCXgXH.#.@.6.6.[ W E R R D j j j j f j j j j j f f ) iXxX XG.m.6.6.b.D.D.G.G.E.(..XjXiXv                                                                                                                     ",
"                                                                                                                                                          @                 % z.^ E j j R R R * . .     + / R >     . i >./ E j j j j Q *.                                    2 |.W.C.N.M.m.M.M.N.M.v.O.b           5 *XCXiXw.[ #.6.[ E R R j j j j f d d d f j j f d d ) iXxX XG.m.6.6.b.D.D.G.G.E.E..XsXx.o                                                                                                                   ",
"                                                                                                                                                          . .   O           X +.E R j h j R R > > * .     w [ R >   . ; >.O.R j j j j Q z.o                                   & |.].W.R.M.M.M.M.N.M.M.$.! o           o B &XfXL.{ [ w.#.^ D j j j f f d d t t s d d d d d ) sXxX XG.m.b.6.b.D.D.D.G.E.U.^.^.v                                                                                                                   ",
"                                                                                                                                                                - @         . ! R D j f j R E f s r -     . f ^ R > . - m >.R D j j j Q S.&                               . . % Q.W.W.W.M.M.M.M.N.N.M.$.+.3               X B $X;XJ.#.6.w.[ j f h h h d d t r 6 > 6 d d d s +.sXjX}.G.D.b.6.b.D.D.D.U.E.F.F.>.%                                                                                                                 ",
"                                                                                                                                                                @ >     .     M R j j f j R W j f f @       + j Q E q + 2 >./ D j j j j S.5                                 . & |.~.W.W.G.M.M.m.M.R.M.v.+.m                     5 l.;XF.6.6.O.R d d d d d d q @   . @ q d d d >.sXjX(.D.D.b.6.D.D.D.G.^.^.F.w.v                                                                                                                 ",
"                                                                                                                                                                . q + . >     n n d j f j R / n j b .         - n ^ R > - m +.D j j j j S.v                                 . 1 }.[.I.W.R.M.M.m.M.I.R.M.$.+.%                       4 =.L.H.w.#./ f r s s s t -       . - q r d ) .XjXQ.D.D.6.b.D.D.G.H.).^.F.>.&                                                                                                               ",
"                                                                                                                                                                  q > . r @ @ b n r j f j R [ R R y             w Q E j t w ) ^ j D j j z.Z                                 . 2 L. XG.I.R.M.M.M.m.M.W.G.b.b.e                           4 Z L.^.A.+.j 6 6 8 t t - .       . * q d ) }.sXE.m.m.6.D.D.D.H.^.3XJ.e.m                                                                                                               ",
"                                                                                                                                                                  = t * f q - b ! t j f j R [ W / 2             + j E R j q m >.R D D j >.x.                                  1 }.hXQ.M.M.M.M.M.m.m.R.R.m.b.N                               1 Z L.^.D.! 2 @ @ 6 r > .         . > t ! }.sXG.6.b.6.D.D.F.U./.3XJ.>.;                                                                                                             ",
"                                                                                                                                                                  . t - t j > b O.j R j j D [ / ! +               > Q R R f w z.>.D Q D ) x.o                                 X l.jXsXI.M.M.M.M.m.m.G.R.G.b.z.o                                 & v >.A.#.y X . - 6 -             @ - M }.oXG.6.6.6.A.D.H.^.3X3XJ.*.                                                                                                            ",
"                                                                                                                                                                    6 > 6 j > b k./ W R R j ^ [ m                 . y ^ R Q f ) L.{ ^ ^ ) L.&                                   X Z dXXXR.M.M.M.m.m.m.I.G.b.K.5                                       > M #./ 2   . = - O           . @ b )..XG.6.6.w.A.F.U.^.aXT.T.u                                                                                                           ",
"                                                                                                                                                                . . - t > d q b S.$.O.R D j R +.e                   @ Q Q R Q x L.J.^ [ { S.1                                       v }.[.W.R.M.M.I.I.I.G.M.G.N                                           = f [ M %   . * * .         . . i ).pXF.6.6.6.A.H.U.3X3X/.c.o                                                                                                         ",
"                                                                                                                                                                + - * t 6 q d M K.6.$./ R f R ) %                     w [ j Q j >.fX>.{ #.S.u                                         u L.[.[.].!.W.R.G.G.M.M.z.o                                             = M O.y X   . @ + .           y L.sXH.w.6.w.F.U.U.aX4X4XV                                                                                                         ",
"                                                                                                                                                                . 6 @ q t r d M (.b.b.O.R f n M .                     . M Q j Q ~ fX3X#.#.S.v                                           5 L.[.].].W.R.M.M.M.M.(.5                                                 - ! ) w .   . * @ .       O w L.dXH.w.6.w.H.U./.6XT.J.&                                                                                                       ",
"                                                                                                                                                                  > - 6 d r d M (.G.m.@.E f n y                         ; / t D Q L.xXH.6.F.Z                                             5 L.].W.W.W.G.M.M.m.Q.*.                                                  . 3 ! ! 2 .   . + O .     . 3 c.pXF.w.w.F.H.Y.6X3X4XZ                                                                                                       ",
"                                                                                                                                                                  * > > d t t M (.G.M.@.^ f Q 2                           b f t j >.cXpXF.H.l.                                              5 S.Q.W.W.R.M.M.m.R.S.o                                                     . 3 ) ) 2 .   . O .     . & x.pXH.r.w.F.Y.T.6X4XJ.4                                                                                                     ",
"                                                                                                                                                                  . - * t d t f L.K.M.$.E j ! %                           # M > w ! yXxX^.U.c.o                                               1 z.R.R.R.G.G.G.G.Q.u                                                         X e *.) e X             % z.pXH.r.F.Y.Y.3X3XT.=.o                                                                                                   ",
"                                                                                                                                                                    - - - 6 d t L.Q.M.$.Q R !                               3 y - f c.cX.XU.;X&                                                 1 z.I.I.R.G.G.G.E.*.                                                            o b >.+.b = .         o *.pXH.r.F.F.T.6XT.J.u                                                                                                   ",
"                                                                                                                                                                    + - @ + t d L.(.M.$.Q / m                               . y w w ~ zXdX^.iX5                                                   & +.I.I.I.G.m.G.z.%                                                               % m w.w./ w +       @ *.iXJ.r.t.J.4X>Xp.,.%                                                                                                 ",
"                                                                                                                                                                    . - .   > d c.}.M.@.Q / e                                 = f > f ;XbX).pXB                                                     & k.R.I.G.m.b.K.v                                                                   = ! r.r.#.x - . . + *.3XJ.e.t.Y.<Xu.p.V                                                                                                 ",
"                                                                                                                                                                      * -   + t *.}.G.O.Q ) &                                   e y q *.cX'.3XZ                                                       1 z.R.G.m.6.D.*.                                                                    . 3 ~ q.r.q.^ w + * ~ 3XJ.q.t.Y.p.e.u.4                                                                                               ",
"                                                                                                                                                                      . q .   > *.}.G.O.Q ) X                                   + M y M ;X).).=.                                                        3 z.I.D.6.$.z.&                                                                       . w { q.e.q.{ t : M J.e.e.Y.Y.e.y.&..                                                                                             ",
"                                                                                                                                                                        > >   * M }.G.O./ m                                       3 ~ d c.3XH.l.                                                          3 A.G.6.@.A.v                                                                           + k ..q.q.q.] t l t.t.p.Y.y.9.u.u                                                                                             ",
"                                                                                                                                                                        @ w . * m iXS.[ +.e                                         m M ~ 9XF.l.                                                            e A.D.#.#.)                                                                               = x ;.q.q.;.K Q t.Y.Y.Y.9.9.,.&                                                                                           ",
"                                                                                                                                                                        . w + > m sXS.[ ) %                                         # ! Q ;XJ.=.o                                                             e A.6.O.>.&                                                                               . , Q ;.;.;.] ] u.>XY.u.-.9.V                                                                                           ",
"                                                                                                                                                                          - > - v iXS.[ ! .                                           3 Q *.L.z.&                                                               b A.#.+.e                                                                                   . w ] -.| | ;.Y.<XY.9.-.;.<                                                                                         ",
"                                                                                                                                                                          . w @ i iXA.{ b                                             . i ~ L.c.&                                                                 m A.+.! .                                                                                     + t ] | | -.J.5Xp.-.-.%.o                                                                                       ",
"                                                                                                                                                                            2 - w yXA./ 3                                               % M c.;X5                                                                   m >.>.&                                                                                         * x | | -.J.5Xy.U -.k                                                                                       ",
"                                                                                                                                                                            @ 6 3 ;XA./ %                                                 3 %.;Xv                                                                   X m S.v                                                                                           . , J | -.u.5Xy.U U -                                                                                     ",
"                                                                                                                                                                            . 6 - L.S.M                                                   . i ;XV                                                                     X ! *.X                                                                                             . w K P u.7Xu.-.z .                                                                                   ",
"                                                                                                                                                                              - > c.A.e                                                     + =.=.                                                                      + *.5                                                                                                 @ t H y.7Xu.U 0                                                                                   ",
"                                                                                                                                                                              + q x.>.-                                                       u =..                                                                       & v .                                                                                                   : z ;.2Xp.I *                                                                                 ",
"                                                                                                                                                                                > *.>.+                                                       o Z o                                                                         & o                                                                                                     . 7 -.>Xu.G O                                                                               ",
"                                                                                                                                                                                @ Z ) .                                                         5 ;                                                                                                                                                                                     * z u.y.k .                                                                             ",
"                                                                                                                                                                                . m m                                                           X o                                                                                                                                                                                       . 7 ;.y.k                                                                             ",
"                                                                                                                                                                                  v u                                                                                                                                                                                                                                                         * I 9.0                                                                           ",
"                                                                                                                                                                                  3 1                                                                                                                                                                                                                                                           . k -.0                                                                         ",
"                                                                                                                                                                                  & %                                                                                                                                                                                                                                                               , I 0                                                                       ",
"                                                                                                                                                                                                                                                                                                                                                                                                                                                      o k ,                                                                     ",
"                                                                                                                                                                                                                                                                                                                                                                                                                                                          $ O                                                                   ",
"                                                                                                                                                                                                                                                                                                                                                                                                                                                                                                                                ",
"                                                                                                                                                                                                                                                                                                                                                                                                                                                                                                                                ",
"                                                                                                                                                                                                                                                                                                                                                                                                                                                                                                                                ",
"                                                                                                                                                                                                                                                                                                                                                                                                                                                                                                                                ",
"                                                                                                                                                                                                                                                                                                                                                                                                                                                                                                                                ",
"                                                                                                                                                                                                                                                                                                                                                                                                                                                                                                                                ",
"                                                                                                                                                                                                                                                                                                                                                                                                                                                                                                                                ",
"                                                                                                                                                                                                                                                                                                                                                                                                                                                                                                                                ",
"                                                                                                                                                                                                                                                                                                                                                                                                                                                                                                                                ",
"                                                                                                                                                                                                                                                                                                                                                                                                                                                                                                                                ",
"                                                                                                                                                                                                                                                                                                                                                                                                                                                                                                                                ",
"                                                                                                                                                                                                                                                                                                                                                                                                                                                                                                                                ",
"                                                                                                                                                                                                                                                                                                                                                                                                                                                                                                                                ",
"                                                                                                                                                                                                                                                                                                                                                                                                                                                                                                                                ",
"                                                                                                                                                                                                                                                                                                                                                                                                                                                                                                                                ",
"                                                                                                                                                                                                                                                                                                                                                                                                                                                                                                                                ",
"                                                                                                                                                                                                                                                                                                                                                                                                                                                                                                                                ",
"                                                                                                                                                                                                                                                                                                                                                                                                                                                                                                                                ",
"                                                                                                                                                                                                                                                                                                                                                                                                                                                                                                                                ",
"                                                                                                                                                                                                                                                                                                                                                                                                                                                                                                                                ",
"                                                                                                                                                                                                                                                                                                                                                                                                                                                                                                                                ",
"                                                                                                                                                                                                                                                                                                                                                                                                                                                                                                                                ",
"                                                                                                                                                                                                                                                                                                                                                                                                                                                                                                                                ",
"                                                                                                                                                                                                                                                                                                                                                                                                                                                                                                                                ",
"                                                                                                                                                                                                                                                                                                                                                                                                                                                                                                                                "
};
