/* XPM */
static const char *ice7[] = {
/* columns rows colors chars-per-pixel */
"256 256 256 2 ",
"   c #000000",
".  c #02060A",
"X  c #04090D",
"o  c #080B0C",
"O  c #060B11",
"+  c #040C13",
"@  c #040D1A",
"#  c #0A1217",
"$  c #06121C",
"%  c #0A151B",
"&  c #14191B",
"*  c #061423",
"=  c #091323",
"-  c #0A1A25",
";  c #061729",
":  c #091C2B",
">  c #071B36",
",  c #0D212D",
"<  c #16242A",
"1  c #0B2234",
"2  c #0B243B",
"3  c #0D293C",
"4  c #142936",
"5  c #1A323C",
"6  c #2A3032",
"7  c #071C47",
"8  c #0A2447",
"9  c #0C2B44",
"0  c #0C2D4B",
"q  c #122D45",
"w  c #0E314D",
"e  c #163549",
"r  c #0B2858",
"t  c #122D56",
"y  c #0E3454",
"u  c #0E355B",
"i  c #0F395C",
"p  c #113553",
"a  c #143958",
"s  c #123A5C",
"d  c #263C4A",
"f  c #0B2A66",
"g  c #112F6A",
"h  c #0E3567",
"j  c #123C63",
"k  c #123A69",
"l  c #0C2C76",
"z  c #0E3578",
"x  c #123B78",
"c  c #1F404F",
"v  c #1A435C",
"b  c #264759",
"n  c #334A53",
"m  c #144265",
"M  c #14436B",
"N  c #1A4769",
"B  c #1A4E6B",
"V  c #154A74",
"C  c #1A4C74",
"Z  c #164878",
"A  c #164C7B",
"S  c #1B5579",
"D  c #1B537C",
"F  c #244A66",
"G  c #29546B",
"H  c #32576F",
"J  c #265778",
"K  c #326479",
"L  c #4E5558",
"P  c #475A62",
"I  c #496775",
"U  c #737474",
"Y  c #0E3687",
"T  c #0D328C",
"R  c #123C86",
"E  c #113C97",
"W  c #113EA1",
"Q  c #0F418C",
"!  c #154787",
"~  c #1A5583",
"^  c #1C5A84",
"/  c #185488",
"(  c #1B5B8B",
")  c #144797",
"_  c #1B5D93",
"`  c #195798",
"'  c #235C87",
"]  c #265792",
"[  c #1D628B",
"{  c #1D6394",
"}  c #1D6799",
"|  c #1F719F",
" . c #276589",
".. c #376988",
"X. c #226493",
"o. c #256996",
"O. c #236C9B",
"+. c #376E91",
"@. c #26739C",
"#. c #377798",
"$. c #1548A7",
"%. c #1857A8",
"&. c #164AB6",
"*. c #1957B8",
"=. c #245AAB",
"-. c #1C65A7",
";. c #1F71AC",
":. c #1D68B5",
">. c #236BA4",
",. c #2474A3",
"<. c #2879A8",
"1. c #347AA6",
"2. c #2C6FB5",
"3. c #2678B6",
"4. c #477589",
"5. c #50748B",
"6. c #477995",
"7. c #6E7E83",
"8. c #4C7BB0",
"9. c #194DC4",
"0. c #1B57C7",
"q. c #1D5BD5",
"w. c #215DD5",
"e. c #1D64C9",
"r. c #1F74CD",
"t. c #1D64D7",
"y. c #2368C9",
"u. c #2C77CB",
"i. c #2267D9",
"p. c #2676D9",
"a. c #1F6DE1",
"s. c #256BE6",
"d. c #2876E9",
"f. c #327AEB",
"g. c #2B7AF3",
"h. c #477ADA",
"j. c #2C82AB",
"k. c #3685AA",
"l. c #2C87B7",
"z. c #358AB6",
"x. c #3292B5",
"c. c #389CB6",
"v. c #3794BB",
"b. c #4B8295",
"n. c #56859A",
"m. c #6C8997",
"M. c #588AA5",
"N. c #508FAE",
"B. c #4895B8",
"V. c #6696A9",
"C. c #6F97AD",
"Z. c #5BA4BD",
"A. c #72A5B7",
"S. c #2A87C8",
"D. c #3394C4",
"F. c #399AC9",
"G. c #328FD2",
"H. c #3CA2CA",
"J. c #3CA5D5",
"K. c #2B86EA",
"L. c #338AEA",
"P. c #3597E7",
"I. c #2E87F5",
"U. c #338AF6",
"Y. c #3797F7",
"T. c #3BA7E9",
"R. c #3EB3ED",
"E. c #3CA6F7",
"W. c #479AC5",
"Q. c #5092CD",
"!. c #6B9CD6",
"~. c #47A5CB",
"^. c #58A7C8",
"/. c #56AFCF",
"(. c #46AAD5",
"). c #4AB3D9",
"_. c #4CB3DB",
"`. c #56B7DB",
"'. c #70B0CC",
"]. c #68B9D7",
"[. c #4A95EE",
"{. c #49B8E5",
"}. c #57BCE3",
"|. c #45A9F6",
" X c #47B6F8",
".X c #52B1F2",
"XX c #6CB3F0",
"oX c #59C3DE",
"OX c #71C3DC",
"+X c #5AC4E7",
"@X c #4BCCF1",
"#X c #4CC8F8",
"$X c #54CAF6",
"%X c #56D6F7",
"&X c #66C6E6",
"*X c #64CBEB",
"=X c #6BCCEB",
"-X c #75CCE7",
";X c #6BD2ED",
":X c #76D5ED",
">X c #6CC9F5",
",X c #6DD4F2",
"<X c #69D7F5",
"1X c #74D6F3",
"2X c #74DBF3",
"3X c #7CDCF3",
"4X c #5AEAF8",
"5X c #67E8F6",
"6X c #79E5F6",
"7X c #70F4F6",
"8X c #818181",
"9X c #83979E",
"0X c #8AA2B4",
"qX c #87AAB5",
"wX c #8EBACA",
"eX c #A2BBC5",
"rX c #8AB8EF",
"tX c #89C8D9",
"yX c #93CDD7",
"uX c #98C9D8",
"iX c #ABCED7",
"pX c #87D7EB",
"aX c #98D9E8",
"sX c #91CDF0",
"dX c #85DBF3",
"fX c #A6DAE6",
"gX c #B0D9EE",
"hX c #94E2EE",
"jX c #83E3F5",
"kX c #8BE3F5",
"lX c #8AE9F7",
"zX c #97EAF6",
"xX c #87F4F7",
"cX c #99F4F8",
"vX c #A9E2EC",
"bX c #B6E3EA",
"nX c #A8EAF6",
"mX c #B7EAF4",
"MX c #A8F6F8",
"NX c #B7F5F8",
"BX c #B4FAF9",
"VX c #BBFAF9",
"CX c #C3DEE3",
"ZX c #C5EDF6",
"AX c #D0EAF2",
"SX c #C7F5F7",
"DX c #C4FBFA",
"FX c #CBFBFA",
"GX c #D6F5F9",
"HX c #D4FBFA",
"JX c #DCFBFA",
"KX c #E7F7FB",
"LX c #E3FCFB",
"PX c #EBFCFC",
"IX c #F3FCFD",
"UX c #FBFCFD",
/* pixels */
"                                                                                                                                                                                                                                                                                                                                                                                                                                                                                                                                ",
"                                                                                                                                                                                                                                                                                                                                                                                                                                                                                                                                ",
"                                                                                                                                                                                                                                                                                                                                                                                                                                                                                                                                ",
"                                                                                                                                                                                                                                                                                                                                                                                                                                                                                                                                ",
"                                                                                                                                                                                                                                                                                                                                                                                                                                                                                                                                ",
"                                                                                                                                                                                                                                                                                                                                                                                                                                                                                                                                ",
"                                                                                                                                                                                                                                                                                                                                                                                                                                                                                                                                ",
"                                                                                                                                                                                                                                                                                                                                                                                                                                                                                                                                ",
"                                                                                                                                                                                                                                                                                                                                                                                                                                                                                                                                ",
"                                                                                                                                                                                                                                                                                                                                                                                                                                                                                                                                ",
"                                                                                                                                                                                                                                                                                                                                                                                                                                                                                                                                ",
"                                                                                                                                                                                                                                                                                                                                                                                                                                                                                                                                ",
"                                                                                                                                                                                                                                                                                                                                                                                                                                                                                                                                ",
"                                                                                                                                                                                                                                                                                                                                                                                                                                                                                                                                ",
"                                                                                                                                                                                                                                                                                                                                                                                                                                                                                                                                ",
"                                                                                                                                                                                                                                                                                                                                                                                                                                                                                                                                ",
"                                                                                                                                                                                                                                                                                                                                                                                                                                                                                                                                ",
"                                                                                                                                                                                                                                                                                                                                                                                                                                                                                                                                ",
"                                                                                                                                                                                                                                                                                                                                                                                                                                                                                                                                ",
"                                                                                                                                                                                                                                                                                                                                                                                                                                                                                                                                ",
"                                                                                                                                                                                                                                                                                                                                                                                                                                                                                                                                ",
"                                                                                                                                                                                                                                                                                                                                                                                                                                                                                                                                ",
"                                                                                                                                                                                                                                                                                                                                                                                                                                                                                                                                ",
"                                                                                                                                                                                                                                                                                                                                                                                                                                                                                                                                ",
"                                                                                                                                                                                                                                                                                                                                                                                                                                                                                                                                ",
"                                                                                                                                                                                                                                                                                                                                                                                                                                                                                                                                ",
"                                                                                                                                                                                                                                                                                                                                                                                                                                                                                                                                ",
"                                                                                                                                                                                                                                                                                                                                                                                                                                                                                                                                ",
"                                                                                                                                                                                                                                                                                                                                                                                                                                                                                                                                ",
"                                                                                                                                                                                                                                                                                                                                                                                                                                                                                                                                ",
"                                                                                                                                                                                                                                                                                                                                                                                                                                                                                                                                ",
"                                                                                                                                                                                                                                                                                                                                                                                                                                                                                                                                ",
"                                                                                                                                                                                                                                                                                                                                                                                                                                                                                                                                ",
"                                                                                                                                                                                                                                                                                                                                                                                                                                                                                                                                ",
"                                                                                                                                                                                                                                                                                                                                                                                                                                                                                                                                ",
"                                                                                                                                                                                                                                                                                                                                                                                                                                                                                                                                ",
"                                                                                                                                                                                                                                                                                                                                                                                                                                                                                                                                ",
"                                                                                                                                                                                                                                                                                                                                                                                                                                                                                                                                ",
"                                                                                                                                                                                                                                                                                                                                                                                                                                                                                                                                ",
"                                                                                                                                                                                                                                          o 6                                                                                                                                                                                                                                                                                   ",
"                                                                                                                                                                                                                                          n P                                                                                                                                                                                                                                                                                   ",
"                                                                                                                                                                                                                                        1 m.n                                                                                                                                                                                                                                                                                   ",
"                                                                                                                                                                                                                                      2 H A.<                                                                                                                                                                                                                                                                                   ",
"                                                                                                                                                                                                                                    1 N n.V.#                                                                                                                                                                                                                                                                                   ",
"                                                                                                                                                                                                                                  : m H Z.5.o                                                                                                                                                                                                                                                                                   ",
"                                                                                                                                                                                                                                , N s M.B.K                                                                                                                                                                                                                                                                                     ",
"                                                                                                                                                                                                                              , N s K ^.z.n                                                                   < #                                                                                                                                                                                                               ",
"                                                                                                                                                                                                                            , S a m C.^.k.5                                                               X P 7.o                                                                                                                                                                                                               ",
"                                                                                                                                                                                            .                             , S M M ..tXv.N.&                                                           # a V.CXn                                                                                                                                                                                                                 ",
"                                                                                                                                                                                          X -                           , S M C C A.OXz.6.o                                                       - N +.'.NX9X.                                                                                                                                                                                                                 ",
"                                                                                                                                                                                          : -                         , C M Z A ..aX^.k.I                                                   X 3 J o.o.A.NXvXd                                                                                                                                                                                                                   ",
"                                                                                                                                                                                        . q +                       - B s V D ( A.aXk.z.H                                               X e  .<.o.' V.nXMXC..                                                                                                                                                                                                                   ",
"                                                                                                                                                                                        : e X                     # B C C C D +.yX'.<.B.5                                           X q  .<.X.D S V.nXzXaX6                                                                                                                                                                                                                     ",
"                                                                                                                                                                                      O e 2                     # B D C C N N Z.aXz.<.N.&       - #                             X 2 C o.X.D C C C.nXkXkXC..                                                                                                                                                                                                                     ",
"                                                                                                                                                                                      q q :                   - S ^ C m M j J OX^.<.j.4..     5 F                           . : a C ~ C j M C C.vXjX3XaXn .                                                                                                                                                                                                                     ",
"                                                                                                                                                                                    % a * $                 : D D V j j M m 1.OX1.<.z.H     ,  .,                       . : p k M N j s M N m.nXdX;XkXC.-                                                                                                                                                                                                                       ",
"                                                                                                                                                                                    e q + +               1 C s j j u m M J /.W.X.O.k.d   -  .C                     . : p j k M s p p M N C.mXdX;X:XaXn +                                                                                                                                                                                                                       ",
"                                                                                                                                                                                  # a $ O .           . q S p 2 9 y u M M #.`.#.^ X.1.< O S o.3                 O 1 w s j M j p w p s a m.mXdX;X:XzX0X-                                                                                                                                                                                                                         ",
"                                                                                                                                                                                  q 3               + m D p > . ; y s M B ^.~.' D o.#.% v X.S O             - p a 9 2 j m u y u u p a m.vX:X;X:X:XvXH +                                                                                                                                                                                                                         ",
"                                                                                                                                                                                + N ;             - S ~ u >     ; u j j J /.1.^ D @...1 S ~ 2         X 1 B S 9 + ; j p 9 w i s i s C.nX;X*X:X;XzXqX3                                                                                                                                                                                                                           ",
"                                                                                                                                                                                1 m -           , D C 2 ;       $ u s p +.~.o.^ ^ k.H p C 9       + q C ' D :   : y : O 8 u s j N 0XzX;X*X:X;X,XvXK $                                                                                                                                                                                                                           ",
"                                                                                                                                                                                q 3 X         q J m $           2 j u p k.z.^ D ^ k.c a 9     X 9 ^ X.^ D 0 X 1 2 X   ; u j j N 0XvX;X=X;X*X+XkXA.e O                                                                                                                                                                                                                           ",
"                                                                                                                                                                              $ :         X v D a $           $ s m 2 F z.o.D D ( N.4 $     O N X.O.( ~ j * $ +     * y j j N 0XvX:X:X=X+X+X*XaXn @                                                                                                                                                                                                                             ",
"                                                                                                                                                                              % X         q ( j :           X 0 V a 3 #.1.^ D ^  .N.#       p ( { { ^ V 2 .       . 9 j j N 0XaX=X:X:X&X&X*X:XA.#                                                                                                                                                                                                                               ",
"                                                                                                                                                                              +         . C V y > .         @ u V 0 G v.X.S D ^ o.b..     $ C ^ { ( ~ j 2 .       * u j m 0XaX&X&X:X&X&X=X=XpXn                                                                                                                                                                                                                                 ",
"                                                                                                                                                                                        $ m u 0 8 > X X     ; M M v #.k.^ D D D o.H       w D ~ [ ( V u 0 @ $ X ; p j s C.pX`.~.OX:X*X=X=X3XA.#                                                                                                                                                                                                                                 ",
"                                                                                                                                              O O                                       . ; 0 0 0 w 0 > ; 1 s V B B k.<.D D S D #.5     $ V D ^ ( ~ j j w 2 8 0 s j a m.pX).v.z.&X;X*X&X=XaXI X                                                                                                                                                                                                                                 ",
"                                                                                                                                                                            +             . 9 i i j u y y s V B m  .z.o.D D S [ +.#   O w A V ~ [ C m j u y i j j s m.pX).x.j.v.&X*X&X=XdXwXe .                                                                                                                                                                                                                                 ",
"                                                                                                                                                                          X :             . 0 m m M j M j M B 3 b k.j.[ D S D X.v   * 2 V V V ^ ^ V M j j M V M m C.aX`.x.j.j.x.&X*X;X:XvX5.:                                       # <                                                                                                                                                                                         ",
"                                                                                                                                                                          * * $           2 j j j M V V a M 3 % b.k.<.^ D S ^  .,   + s A V V ^ ~ D C V V D Z C qXaX`.v.j.k.j.x.+X;X*X:XwXa ;                                   & P I <                                                                                                                                                                                         ",
"                                                                                                                                                                          - : w .     . > j j j M V V M 2 m $ d Z.<.@.^ ^ S ^ B O . : V M M D ~ ~ ~ ~ C ~ V J wXvXoX~.z.j.j.j.z.+X;X_.tXI *                               X < b 4.4.&                                                                                                                                                                                           ",
"                                                                                                                                                                        . ; 2 9 +   . 1 9 s j m V V m 1 e 2 > n./.@.@.X.[ S [ a     + $ 2 V ~ ~ ^ ^ D ~ A J wXnX&X/.v.z.j.j.j.j.~.~.`.qX&                             % e F J +.K -                                                                                                                                                                                             ",
"                                                                                                                                                                        + 2 1 -     X O . X X ; w : .   + 1 e uXB.@.@.@. .S [ -         9 D ~ ( { ~ ~ ~ ..uXnX*X`.~.v.j.j.j.j.<.<.z.tXL                       O : - 2 N J J +...4                                                                                                                                                                                               ",
"                                                                                                                                                                        $ : 2 #               .         X 1 P aXk.j.j.j.@.[ N       O $ V ~ { O.X.( { 1.fXNX;X`.(.F.x.z.z.z.j.<.,.^.A.#               % O * q a a q p M C +...4                                                                                                                                                                                                 ",
"                                                                                                                                                                        $ $ :                               m.tXx.x.x.j.j.@.3       . a ~  .O.X.X.O.N.bXSXjX+X(.~.v.v.v.x.z.j.<.<.'.n             % v ' M M j w - $ : a ....5                                                                                                                                                                                                   ",
"                                                                                                                                                                                                          o A./.v.c.c.x.x.@.#       X 1 e m j D X.N.bXFXkX+X).).~.H.F.v.x.z.j.j.W.n.o         O q S D M j u 2 $ O ; : G ..q                                                                                                                                                                                                     ",
"                                                                                                                                                                                      #                   < A.k.c.H.H.H.v.B           + 3 j C D J bXHXmX;X`.).).(.~.H.F.v.z.k.B.'.b X     X 3 M B m s y > ; > : : 9 m ' e                                                                                                                                                                                                       ",
"                                                                                                                                                                                    & n                   n b. .c.H.H.H.x.4       . > j C N m a 5.ZXNXdX+X_._.).).(.~.H.H.v.v./.V.0 X o 1 m M a u s 1 + . O ; 1 0 p J e .                                                                                                                                                                                                       ",
"                                                                                                                                                                                    P L                   5.e S v.v.c.~.k.+       $ q e 3 3 2 e uXNXpX+X`.`.`._._._._.).(.H.~.OX..0 q N C p > 2 u 0 $ X $ : 9 9 > v a                                         . < 6                                                                                                                                                             ",
"                                                                                                                                                                                  % qX6                 % ..* N @.x.v.~.K         $ +   + $ * n.mX3X+X`.+X+X+X}.}.}.`.`.`.`.-XM.u m C a p 0 2 9 : $ .     + + O b J #                           . # - 5 b F ..0XeX6                                                                                                                                                             ",
"                                                                                                                                                                                  n uX<                 4 v @ m [  .v K 4           . O     5 iXpX+X).+X+X+XoX+X+X+X+X+X+X+X].e 2 2 $ . X O O                 4 G %                 . # - 3 a B  .@.1.k.z.^.bXiX6                                                                                                                                                               ",
"                                                                                                                                                                                o 5.'.&                 a 3 . 9 e O   X     .     O @ X   o C.pX+X`.).+X`.}.+X&X&X*X*X*X+X}.4.. X                             % .       O % , 3 e m B D '  .o.o.o.o.<.Z.uXGXiX6                                                                                                                                                                 ",
"                                                                                                                                                                              . d '.A.#               . v %   O     .         . $ @ * . X I pX`.}.).(.(.).`.`.&X;X,X,X*X*X].4                                 X < e G  . . .' ^ D D D D ~ ' o.o.,.B.wXmXHXCXH X                                                                                                                                                                 ",
"                                                                                                                                                                              % 4.-XZ.o               % q               X . O $ + $ + ; n tX&X(.`.~.~.H.H.(.).oX&X3XjXkXnXm.                        . % 5 b J ..#.@.X.( ^ D D C C D D ^ X.,.<.B.'.gXMXMXbXI 9 .   X < .                                                                                                                                                         ",
"                                                                                                                                                                            . 5 '.-Xn.o               1 -               2 2 $ . . . ; a wX3X_._.(.v.F.F.H.H.~.(.`.hXtXZ.'.<               . $ 4 b K ..#.+.X.' ^ D ~ ^ ^ ~ ~ ~ ^ (  .X.O.<.z.'.gXmXzXcXbX4.y -     + 4                                                                                                                                                           ",
"                                                                                                                                                                              H OXB.4..           X + 1 .             $ e $       . 2 C.zX&X_._.H.D.F.F.H.~.(.~.k.N.N.~.K             O : 1 q a J J N M D ~ ~ ( ^ ^ ^ ^ ( X.X.O.@.,.<.z.^.fXmXhX3XzXbX4.y 1                                                                                                                                                                     ",
"                                                                                                                                                                            O 6.B.@.K           X . $ +               O . .       X 5.vXpX`.`._.).F.v.F.~.~.k.C  .B.^.N.%                     ; 0 i V D ~ ^ ^ (  .X.X.X.X.@.<.<.j.l.^.uXZXnX3X,XjXbX5.p 1 .                                                                                                                                                                     ",
"                                                                                                                                                                            + .. .@.b                                             L fXdX].~.~.~.`.(.~.W.k.J u j ' X.k.b                       + 9 A D D D D ^  .X.O.O.@.,.<.l.l.B.tXmXVXzX3X*X1XvX5.a 9 +                                                                                                                                                                       ",
"                                                                                                                                                                            , S S #.e                                           n yXzX`.~.F.l.v.-X:XZ.J t r h C ' o. .X                     . $ u V A D ~ ^ ' X.o.,.,.<.<.j.1.A.bXHXNXkX3X=X=XvXn.a y ;                                                                                                                                                                         ",
"                                                                                                                                                                            e [ [ ..-                   #                     6 wXnX=X(.F.z.W.].'.+.j r r 8 M ~ o.' ,                       > M D D ~ ^ X.O.O.,.,.<.<.j.<.1.wXGXDXMXdX3X=X-XaXm.a w :                                                                                                                                                                           ",
"                                                                                                                                                                      .   . m [ [ ..o                 < L                   6 wXnXpX=X].Z.C.n. .k u r r r y j C X.e                     O 0 Z ~ ~ _ O.>.>.>.,.<.<.<.,. .V.bXNXMXzXdX:X-X-XaXm.a 9 +                                                                                                                                                                             ",
"                                                                                                                                                                          $ N S B b               . & 9Xd                 < eXnXpXpXqXn < 4 u r r r r r r h h j N X                   * B D ~ ( X.X.{ _ X.O.,.<.<.o...wXmXzXzXkX3X-X-X-XfXm.a p :                                                                                                                                                                               ",
"                                                                                                                                                                        O + $ $ - -           O 2 m 0XA.#               & qXNXpX].M.-   . 8 r r r r r r r r r t r ; > ; +           + $ - - 2 w a M A / { X.o.X.' M.iXNXlXlXjX2X=X=X:XfXC.s p :                                                                                                                                                                                 ",
"                                                                                                                                                . %                   . O     $ 0 + . +   . > j C C.].5.          .   # 9XnXaX].V.j ;   @ r r r 8 > r h r > 8 r f f r F > @ .     . X           + > 9 p C D C ..qXaX:XkXlX3X:X:X,X1XhXC.m p 1                                                                                                                                                                                   ",
"                                                                                                                                                                      X   O : p 9 + * ; 2 y u M m.aX-XP         O . o m.hXzXvXA.C 7 * @ 8 r 8 > ; 8 f r r r f f g g 7.5.r r * .               @ + @ ; 0 j H C.uX-X-XdXjX1X1X1X1X1XkXA.s p > .                                                                                                                                                                                   ",
"                                                                                                                                                                      .   O : ; O $ : 0 j j M 4.bXpXpX6             I vXNXbXm.q > @ ; r r r 7 7 r r 7 7 r r f g ! 0XeXx z g r *           O > $ # q F 6.A.eX'.`.=X:XdX3X3X3X3X1XkXqXv 2 - .                                                                                                                                                                                     ",
"                                                                                                                                                                    X           + $ > y M A J eXnX;XtX&           L bXSXuXI >       > r f f r r 7 7 = > r f R =.!.AX8.E R l r 7 * *     X a H 4.M.V.V.M.4.J #.&X=X:X3X3XjX3X2XkXqXb 9 +                                                                                                                                                                                         ",
"                                                                                                                                                                  O $             $ 9 u Z V m.SXdX;XqXo         L iXwX5.k >     O @ @ + @ > r r 7 7 7 r g ) =.!.GXeX$.) T l f f j F b H 6.M.b...' C k j j J `.&X-X:X3XdXjXdXkXA.b 0 :                                                                                                                                                                                           ",
"                                                                                                                                                                  +     .         + w j j ..bXNX:X3Xm.        L m.H h r r * @ ; * .       > r r r f x ) $.y.!.AXZX8.) ) E R Z +.V.V...F k j h h h j j j m W.}.=X:X:X3XdXzXNXwXF w : .                                                                                                                                                                                           ",
"                                                                                                                                                                O X   + .         ; 0 w N A.nXnX=XaXL       n 5.3 ; 7 r 8 * .         O 7 r f x ..8.u.i.f.XXZXSXeX=.=.=.) x h F H t r f g h h h h j k h 6.&X}.}.&X=X:XaXuXV.F u 9 .                                                                                                                                                                                             ",
"                                                                                                                                                # <             +   * #           @ : p 6.tX].aX:XyX<   + 1 4 + . @ 7 > +         + @ 7 f ! 8.'.rX[.h.[.XXgXSXmXQ.*.$.E l l x k r r g z g f h h u u u ' ].~.D.H.(./.V...s y u y >                                                                                                                                                                                               ",
"                                                                                                                                                # d           + . . #               $ K ^.1.z.OX-XA.# @ O       . . O   . .   @ > 7 g 6.wXsXsXsXXXXXXXXXsXSXmXrX0.&.W E ` =./ z g z z g h h h h u t j B.z.<.j.#.J m 9 > e N a w ;                                                                                                                                                                                               ",
"                                                                                                                                                  <           X   X                 e N.@.{ l.(.=X5.@ +     . + .     O *   @ N ] #.'.vXsX.X[.[.[.[.XXsXZXSXgXh.9.$.W $.=.Y l l l R z g h h h h h k #.k.,.( M h s 9 . *  .1.#. .a +                                                                                                                                                                                             ",
"                                                                                                                                                                                  % 6. .^ } <.F.-Xn   O . O + ; 9 u r 8 a K B.~.Q.Q.Q.Q.p.w.0.w.i.[.XXsXZXZXrXw.9.&.&.&.E E T l ! ) R z h h h k k 6.W.1.~ h h i 9 + O G 1.@.1.1.k.#.c #                                                                                                                                                                                         ",
"                                                                                                                                                                                . G +.A ^ } <.~.wXe 0 i j M A _ ( /  .1.z.1.2.) ) W &.&.&.&.9.q.s.[.[.sXZXgX[.w.w.0.&.&.$.W E &.*.$.Q z z x x x #.^.+.k r t 8 ; . @ m 1.1.1.1.1.1.z.W.N.H < .                                                                                                                                                                                   ",
"                                                                                                                                                                                d 6.C V A O.k.4.n h A Z x ~ D M S o._ k r l l Y E W &.&.&.0.w.i.s.d.f.sXmXrXf.s.w.0.9.&.&.&.9.i.0.$.R ! ) ! R +.B.] f r r 7 @   O 0 X.1.1.1.1.1.1.1.k.B.W.B...e #                                                                                                                                                                               ",
"                                                                                                                                                                              & M.J j V ^ J q + 8 h 0 8 h u 9 8 r > ; r l l l Y E $.&.9.0.w.i.s.s.s.f.gXgXf.s.s.w.q.9.9.9.q.i.i.&.*.*.%.) ) ] 1.) z g r 7 @   @ 2 j C ' @.1.k.B.^.'.'.'.'.tXsXyXqXP o                                                                                                                                                                           ",
"                                                                                                                                                                            . 5.6.M J N , X     @ .   . * > > * @ * r l z Y E $.*.*.0.w.i.i.s.s.d.d.XXbXXXs.s.s.s.s.q.q.s.s.i.0.y.y.*.$.) >.>.) Y z g r r > @ q ' @.@.1.k.W./.].].'.'.A.'.wXqX7.d & .                                                                                                                                                                           ",
"                                                                                                                                                                            n '.#.G ,           . + + . + ; 7 ; 7 f g R ` *.:.y.0.e.i.w.s.s.d.d.g.U.sXsXU.g.g.g.g.d.s.s.s.s.w.w.w.0.*.*.*.%.) ! R z g f r s ' z.z.z.W.`.-XhXtX'.M.5.I b 4 & o                                                                                                                                                                                   ",
"                                                                                                                                                        .                 < N.M.e .           O @ @ * * * > f g z ! >.3.G.u.y.y.y.i.i.i.s.s.f.U.Y.|.sX|.I.I.I.U.I.I.I.g.d.s.t.q.0.0.0.y.2.N.A.M.R l g C 6.^./.^.N.N.N.b.I H b q 0 0 0 2 O   X X O + * $ X                                                                                                                                                                       ",
"                                                                                                                                                                        # 4.G o             . .   O . @ 8 h x X.3.F.~.Q.2.y.u.p.p.p.s.d.s.g.U.U.[.>XXXU.I.I.I.I.U.[.[.[.XX[.!.XX!.XXtXaXZXAX!.) Y ! ..6.6...F a 4 # .   . @ ; 0 j M M M m M C C C ~ ' ' D N e < % o                                                                                                                                                             ",
"                                                                                                                                                          .           o d <                 .   . @ : 0 w D @.1.1.>.] ] 2.u.y.y.p.d.s.d.g.g.g.Y.|.>X.X.XXXXX>XsXgXmXZXGXSXnXnXnXkX6XlXNXgXh.$.) R x g r r r 7 > ; O * 1 p V ^ X.X.X.[ ( ^ ~ D V V Z A / ' X.+.#.M.V.I 6 o                                                                                                                                                       ",
"                                                                                                                                                                        o                     . + . O @ > 1 2 g l l ) ` ) E $.9.0.0.q.s.d.g.U.Y.[.gXGXSXVXVXVXBXBXMXMXzXkXlXlXdX2XjXSXgXu.0.&.$.E z l f r r 8 > 7 k ~ X.,.<.<.<.>.X.( ( ^ A Z Z Z C C ~ ' ' ..C.wXpX-XOXV.n #                                                                                                                                                   ",
"                                                                                                                                                                                                . . * 9 8 8 r l Y T T T E $.&.9.0.i.s.g.U.U.U.Y.XXHXHXDXVXBXBXMXcXcXzXlXkXzXMXNXMXGXrXi.q.9.&.$.E T l f f r r r 8 r j A D D ~ ~ / ~ A M p 9 2 9 2 ; : u J V.uX-X~.z.z.v.F.B.M.H &                                                                                                                                               ",
"                                                                                                                                                                                            $ : 3 s N g f l l Y T E W $.&.0.y.y.i.s.g.U.U.U.Y.|.ZXHXFXVXBXBXBXMXMXcXcXzXMXDXDXFXKXrXs.q.0.9.&.$.$.E T z g f r h x Z A Z V V V M j j u 0 2 : ; : ; > d n.wX'.^.z.,.O.O.@.O.O.@.k.b.b %                                                                                                                                           ",
"                                                                                                                                                                                      . 4 G K 4.V.8.x l Y l l l T T E &.y.i.0.0.t.d.g.I.U.Y.[.sXLXHXFXDXVXVXBXBXMXMXMXNXDXVXLXIXrXg.s.w.q.0.9.*.*.$.) R x x x Z ! / / / ! Z M j j u y w w w 9 0 a 4.wX].B.<.O.O.O.,.,.>.,.O.{ { @.j.@.v -                                                                                                                                       ",
"                                                                                                                                                                                  . - e N 3 - q t g l Y ) Y l T T $.r.K.K.t.0.t.d.d.g.g.U.Y.rXKXLXFXFXFXDXDXDXVXVXDXDXVXVXHXPXrXU.g.s.s.d.i.p.p.e.%.) R x z h h h k k k k k j u y w w y u j M  .B.]./.<.O._ ( _ } O.,.>.,.,.,.,.,.,.<.<.@. .e %                                                                                                                                 ",
"                                                                                                                                                                              O * , 3 , X       > f l ) ) E T T $.e.p.e.&.9.q.s.d.d.g.U.Y..XGXPXJXHXHXLXJXFXFXDXFXJXJXFXFXJXXXU.U.g.g.L.f.p.y.*.$.) Q x z z h h k k k h h h u r 0 u j V ~ _ >.v.`.v.X.{ ~ V A / _ } O.>.>.,.,.,.,.,.<.<.<.j.z.k.J 4 .                                                                                                                           ",
"                                                                                                                                              O o             . .         O 1 q : .           . 7 f R ) ) E E $.*.&.$.$.&.*.0.t.s.g.U.U.[.mXPXLXLXJXJXJXJXHXFXHXLXIXJXJXJXXXY.Y.U.g.f.d.i.0.*.$.) Q R x x x x x Z x k k k M V V D ( _ _ _ X.v.(.j._ / A V Z Z A ~ ( { } O.,.,.<.,.{ { O.O.O.O.@.<.k...e O                                                                                                                       ",
"                                                                                                                                                X             . < e % - e , O . .             . 7 f z Y T E $.*.$.$.$.&.0.q.t.s.g.I.Y.Y.sXPXPXPXPXHXDXFXHXJXJXLXIXIXPXPXsXY.Y.U.I.g.f.d.i.e.*.$.) ) Q ! ! ! ! ! Z Z x Z ( O.,.>.} { / Z ( v.F.,.( ~ A Z Z A A A Z A ~ ( { } ,.,.<.<.O.( ( ^ ^ ^ ( o.<.z.k.G -                                                                                                                   ",
"                                                                                                                                              X %           X q F G b 4 -                 . O ; r f l T $.*.&.&.&.&.9.0.t.i.d.I.I.U.Y.XXJXPXLXLXLXHXFXFXJXIXIXLXPXIXIXhX XE.Y.Y.Y.I.I.K.d.i.e.*.%.%.) ) ` ` ` _ O.<.l.D.F.l.,.{ ~ M M ( l.<._ / ~ ~ ! ! ! A A Z Z Z Z A ~ ~ ( ( ( { X.O.O.{ ( ^ ^ ^ [ X.<.v.v...5 X                                                                                                             ",
"                                                                                                                                              . #             X O # .                 O @ * > r f l T ) $.$.&.&.0.0.t.p.d.L.Y.[..XXX>XmXLXLXJXJXJXHXFXHXLXIXIXLXPXIXnX$X X X XE.Y.Y.Y.L.K.p.p.e.:.*.%.-.:.3.D.(.).(.J.D.3.-./ V k A >.3.O.( / / ~ ~ ~ / ~ ~ ~ A ! ~ ~ ~ ~ ~ ~ ~ ~ ~ ~ ~ ^ [ { X.O.O.O.O.X.O.,.z.v.#.b %                                                                                                         ",
"                                                                                                                                                                                      O ; : : 8 f z ! ` =.:.u.G.L.P..XsX>X>X,X2X6X6X7X7XcXFXHXHXHXHXHXHXLXIXIXPXPXzX%X%X$X$X X|.E.Y.Y.Y.Y.K.p.p.r.r.u.S.G.).{.+X@X{.G.3.-./ Z Z X.l.l.} _ / / ~ ~ / / ( ( ( ~ ~ ~ / ( ( ( ( ( ( ( ( ( ~ ~ ~ ^ ^ [ { O.@.@.,.@.O.@.j.W.B.K < + O X                                                                                               ",
"                                                                                                                                                                          O .   + : e B +.#.@.1.1.S.S.S.G.K.P.[.|.>XNX6X@X@X@X%X4X5X7X5X5X6XMXFXHXHXFXHXLXIXIXIXMX4X4X%X#X X XE.Y.Y.Y.Y.L.L.L.P.P.P.T.T.R.@X@X%X@XR.G.3.` / ( 3.F.D.,.} _ / / / ( ( _ _ { { _ _ _ { } } } } O.O.X.{ { { { { { X.X.@.@.,.<.<.<.<.<.<.j.v.~./.M.H e * +                                                                                           ",
"                                                                                                                                                                    # 4 3 w a N ' X.o.O.o.` %.%.%.:.e.y.p.K.L.Y..XNXHXcX5X%X@X%X%X%X5X5X5X5X5XcXFXHXHXHXHXPXIXNX7X5X4X%X#X X XE.Y.Y.Y.Y.E.R.R.T.T.T.@X@X%X4X%X@XR.G.S.3.>.l.F.(.F.<.>.} } { { { { } } >.>.,.,.>.>.>.,.,.>.,.<.<.<.<.<.<.<.3.3.j.z.z.z.z.z.z.z.z.z.v.v.v.v.~.`.].Z...a #                                                                                         ",
"                                                                                                                                        O $                   % e G ..G 2 1 9 0 0 u k ! ! ` ` %.*.:.e.r.p.K.Y..XMXDXDXFXjX%X%X%X%X%X%X$X#X#X$X%XjXDXFXBXDXLXDXcXcXxXxX7X7X5X<X$X X|.Y.U.U.U.P.T. X@X%X%X@X{.T.P.G.G.G.D.(.}.}.(.S.l.3.3.<.<.<.<.3.3.l.S.D.D.D.D.D.D.D.D.D.D.D.D.D.D.D.D.F.F.F.F.F.F.F.F.F.D.D.D.F.F.W.W.~.`.`.`.}.}./.6.c %                                                                                     ",
"                                                                                                                                        O :               X : m J J s -     .     . @ t h x Q ) ) %.*.e.d.Y.>XMXDXDXDXHXMX5X%X%X$X$X$X$X$X#X$X$X%X3XNXVXFXNXMXBXVXBXMXMXMXcXcXzXlX3X>X XY.L.L.L.P.P.P.P.G.G.G.G.P.J.).=XdX*X(.J.F.F.D.l.l.l.l.S.D.F.J.(.{.+X&X&X-X-X=X*X*X*X&X&X}.}.}.}.}._.(.(.(.~.~.F.F.F.F.F.W.W.~.~./.}.=X1X3X:X-X-X&XZ.K 4 X                                                                               ",
"                                                                                                                                                              . X X .               + r f x ) ` %.*.e.p.P.,XcXDXDXDXFXJXFX6X%X$X$X$X$X%X%X%X<X<X2X<X2XMXMXDXLXIXIXIXPXPXIXIXPXPXKXFXBXlX6XdX:X&X&X>X&X&X&X*X+X+X*X:XnXFXnX:X=X+X`.`._._._._._.`.&X-X3XdXzXnXNXNXNXDXFXFXDXNXNXMXMXnXnXnXzXhXdXpXpX-X&X].`.`.`.`.`.`.`.&X-X-XpXkXzXnXnXMXnXnXMXaXA.I 6 o                                                                         ",
"                                                                                                                                                                                  . > h ! ` -.%.:.y.K..XkXMXDXDXDXDXFXJXJX6X%X%X%X%X%X$X$X$X$X%X$X#X#X$XlXBXFXPXIXIXIXUXUXUXUXUXUXUXUXLXVXcXcXxXxXxXxXlX6XjXjXjXkXVXJXLXFXDXNXnXhXkXkXzXzXzXnXnXMXNXDXSXFXHXHXJXJXLXLXPXPXLXLXLXLXLXLXLXLXLXLXLXJXJXHXFXSXSXSXSXSXAXAXGXGXGXJXJXJXLXLXPXKXLXJXJXGXiX7.6                                                                         ",
"                                                                                                                                                                                  . 9 ~ X.>.%.%.*.y.L.pXNXDXFXDXDXDXFXLXDX6X5X5X%X%X%X$X$X$X%X%X<X,X3XkXzXNXJXIXIXUXUXUXUXUXUXUXIXPXJXHXVXMXcXlX2X$X{.{.{.{.{.J.J.}.pXnXnXNXzX2X2X2X1X;X=X&X&X*X*X;X,X2X3XkXzXnXVXHXJXLXLXLXLXLXLXJXJXJXLXLXJXJXJXJXJXJXJXJXJXJXJXJXJXJXJXJXHXHXFXDXFXFXDXNXaXC.n &                                                                             ",
"                                                                                                                                                                              . * 2 C ( _ ! ! ) :.u.L..XzXVXDXDXDXFXHXLXMXxX7X7X5X5X5X5X7XxXcXMXNXMX6X5X7XxXNXJXUXIXKXPXPXKXJXHXFXDXVXDXNXkX1X$XR.T.P.G.G.G.S.S.S.S.S.D.~.OXpX:X}._.(.~.W.W.W.F.F.(.(._.}.*XkXNXHXJXJXLXLXLXLXLXLXJXJXJXJXJXJXJXJXHXHXHXHXFXFXDXVXNXNXMXMXMXMXMXMXMXBXnXtXn.G 1                                                                                 ",
"                                                                                                                                                                            @ > p D ^ / Z x ) %.r.u.L.T..XzXVXVXDXFXHXFXxX7X7X7X7XxXcXcXMXBXMXxX7X4X4X4X5X5X5X6XMXDXDXNXVXVXNXBXBXNXzXdX,X%X$X#XR.T.P.G.S.u.3.3.:.:.>.-.;.>.D.`.=X_.F.D.F.F.F.H.(._.+X*X3XzXNXDXFXFXHXHXHXHXJXJXJXHXFXFXSXVXNXNXNXNXMXMXMXMXMXMXcXcXcXcXcXcXMXMXMXaX'.4.N a 9 X                                                                                 ",
"                                                                                                                                            X # # O O .         O             * M ( ~ x x ! %.:.y.u.P.|.|.>XNXDXDXFXHXBXcXcXMXDXJXPXIXPXLXHXMXxX7X5X5X4X%X<X%X#X#XkXNXBXMXBXBXMXkX,X<X<X<X$X#X$X#XR.T.P.G.G.S.3.:.-.-.-.} } -.>.v._.(.D.D.F.(._.+X*X3XnXBXVXVXVXDXDXFXFXDXDXVXVXBXMXMXzXlXlXkXjXdX3X3X:X:X3XjXjXlXcXcXcXMXMXhX'.n.J s a w 1 O                                                                                   ",
"                                                                                                                                $ : - : , 4 e H G b b 4 O O                 * V / ! ! ! ` -.%.:.u.G.P.T.|.$XdXDXHXJXFXBXDXJXPXUXUXUXUXUXUXPXGXMX6X5X%X$X#X X X X X XXXdXzXkX3X>X#X X X X|.E.E.|.{. X{.T.T.G.G.u.:.-.-.` ` ` ` _ ` ,.~.(.(.(.}.+X;XkXMXVXVXVXVXVXVXVXBXBXBXMXMXcXcXcXzXlX3X1X,X*X*X&X&X=X:X6XjXlXcXMXMXhXOXN.J s p p q 1 +                                                                                       ",
"                                                                                                                                                      X X X X             - S +.+.N.^.^.^./.`._.`.}.}.}.>X<X%XzXHXFXNXHXLXLXKXLXLXJXHXVXMXMXcXxX7X4X%X#X X X|.|.|.|.|.|.|.|. X X X X X X X|.Y.P.K.K.P.T.T.J.G.S.3.:.-.%.` ` _ ` _ ` O.W.pXpX:X,XzXBXVXVXVXVXBXBXBXBXBXMXMXMXcXcXcXlXjXjX6X2X,X;X=X&X&X&X&X=X3XlXhXtXV...N a p w q : X                                                                                           ",
"                                                                                                                                                      O - 3 a G K d e b G  .^.].OX&X].}.{._._._.{.{.}.+X1XkXdXdXnXnXJXLXLXLXLXJXMX7X7X7X7X7X7X4X4X%X#X#X X|.E.E.E.|.|.|.|.Y.U.U.Y.Y.Y.|. X X|.T.T.P.P.G.G.G.S.S.S.S.3.:.-.-.} } } ` ` O.B.fXNXNXBXBXBXBXBXBXBXBXBXMXMXcXcXcXzXlXjX3X1X;X&X}.}._._.`.}.&X:X3XOXZ.+.F s a a w 1 + .                                                                                               ",
"                                                                                                                                                            . % 4 4 5 b K #.].dX*X{.}.}.}.{.J.G.G.G.P.{.*X[.[.[.Y.|.mXPXPXPXPXPXJXxX4X4X4X4X4X4X4X%X#X X|.|.|.E.E.Y.U.U.Y.|.Y.g.f.f.d.s.p.L.P.P.P.P.P.G.G.S.u.3.3.;.;.-.-.-.` ` _ _ _ _ _ 1.uXGXJXVXBXBXBXBXMXcXzXkX3X2X;X;X=X&X+X}.`.`.}.}.}._.}.-X:X-X^.+.N s a a p 9 : O                                                                                                     ",
"                                                                                                                                                                          X < n H G  .....+.1.1.N.Q.^.'.].p.i.d.g.I..XZXPXPXPXPXPXLXMX7X4X4X4X4X%X%X#X X X X X|.E.Y.Y.U.I.U..X[.d.s.i.t.q.0.0.e.r.r.u.u.r.3.:.:.-.-.-.-.-.} ` _ ( ( ( ( ( _ o.'.AXJXVXMXMXMXzXjX3X1X;X&X&X+X+X+X}.+X&X&X&X&X=X:XpX].N.J s p w 9 1 : $ .                                                                                                         ",
"                                                                                                                                                        .                           ; 8 r r f g l Y E $.&.0.i.s.d.I.Y.XXLXPXIXIXIXIXPXFX6X4X%X%X#X X X X X X X XE.Y.Y.|.|.|.|.$X.Xp.q.0.*.*.&.e.r.r.r.:.:.:.-.:.:.-.%.` -.-.} } } } } } } } } -.N.fXFXVXMXzXlX3X3X:X=X&X}.`.`.`.`.`.`.`.&X3XpXA...N p 0 3 1 * .                                                                                                                 ",
"                                                                                                                                                                                      + * r f l z Y E $.$.&.0.q.d.g.U.[.sXPXIXIXUXUXPXLXJXzX$X#X X X XE.E.Y.Y.Y.Y.Y.Y.Y.E..X>X,X3X&Xu.*.&.&.$.$.$.:.u.S.S.3.3.3.3.3.;.` / / / / / ( _ } } >.>.-.} ,.'.bXVXcXjX3X:X=X&X`.`.`._.(.(.~.`.-XtXV.K s y w 2 $                                                                                                                         ",
"                                                                                                                                                                    O                 . + 7 f l Y Y E $.&.&.9.q.s.g.U.Y.|.nXPXIXUXUXPXJXHXJXnX$XE. X X XE.Y.Y.U.U.I.I.g.g.f.L.[.}.:XhX!.*.&.&.$.) ) ) -.3.3.3.;.;.3.3.3.;._ / ! Z A A ~ / _ } } } } } N.uXNXzX2X=X&X}.}.}.`.(.(.`.-X].n.G s u w 1 *                                                                                                                             ",
"                                                                                                                                                                    + $         .         . 7 f l T E W $.&.0.q.s.d.I.U.Y.XXNXHXIXUXPXLXJXFXHXNX>X X X X X|.E.Y.Y.I.g.d.s.s.d.p.r.S.`.pX/.:.%.$.$.) Q Q ) ` ` ;.3.3.l.l.D.D.l.l.<.>.{ _ ( _ { { >.<.<.,.,.A.bXzX:X*X&X}.`.`.].-X].6.v p y w 1 +                                                                                                                                 ",
"                                                                                                                                                                                . .         > f l z T E W &.0.t.s.g.I.Y.Y. XnXJXJXIXPXJXJXHXFXFXHXsX X X|.E.Y.Y.U.I.g.s.q.q.0.*.*.*.*.u.`.W.` ) R Y Y ! ) ) ) ) ` 3.l.l.D.D.F.F.F.F.F.D.l.j.,.O.@.,.<.<.j.z.^.fXzX1X*X&X-XpX'.6.N 0 1 - $ X                                                                                                                                     ",
"                                                                                                                                                              . .     .     X $ $ .       O 7 f l z T E W &.0.q.s.d.Y.Y.Y.E.>XPXIXIXIXJXHXHXFXFXFXJXnX.XY.Y.Y.I.I.g.g.s.q.0.*.&.$.$.$.) %.3.3.>.>.>.] ] ] ` ) ! ! ) } 3.l.D.H.H.F.F.F.D.v.l.,.o.X. .' '  .o.1.1.'.vXnXaXA.I v w 2 $                                                                                                                                             ",
"                                                                                                                                                    .       . : b e   + : O     O $ .     . 7 f l z Y E E &.0.q.s.d.L.|.Y.Y.|.mXUXUXIXPXLXJXHXFXFXFXJXZXXXY.Y.U.g.g.g.s.a.t.q.*.&.) ) E R R ! ` ` <.(.}.-X].'.'.C.M.6.] ( } l.F.H.H.(.(.H.z.<.,.,.<.<.z.v.v.B.N.b.n.5.H w 2 : $ .                                                                                                                                               ",
"                                                                                                                                                                % 5 . X - .               O 7 r f l Y T E $.&.q.t.d.L..X.X.X X>XPXIXIXIXPXLXJXHXFXDXVXFXFXsXY.U.g.g.s.q.q.0.0.*.&.$.) R z z z ! ` ! ` v.+X,X1XkXnXnXvXgXwXM.+.X.X.O.,.1.@.@.O.X.^ ' ' S S B v e , - ; $ +                                                                                                                                                       ",
"                                                                                                                                                                                          @ 8 f f l l T E &.*.0.q.s.d.Y..X.X X$XmXIXIXPXPXLXHXFXDXDXBXBXVXFXgX|.g.g.s.q.0.9.&.&.$.) E Y l z z x ! ` ! ! o.W.}.&X-XpXkXzXnXMXvXuXA.6.J j u u u y ; X .   . O + +                                                                                                                                                                 ",
"                                                                                                                                                                              o %         @ 7 z ! ) ) $.$.$.&.0.t.d.K.L.>X.XE. X>XKXIXPXLXLXHXFXDXVXVXBXBXVXHXZXXXg.s.i.0.9.&.&.$.$.) R z z z z Z / } / Z ! >.1.D.~.+X3XzXnXNXVXFXZXfXqXn.4.G a #                                                                                                                                                                               ",
"                                                                                                                                                                            . # b d %     > f g z ) %.*.y.e.y.p.d.K.P.Y.|.}. X X XnXUXLXHXHXFXVXBXBXBXVXVXDXDXDXNXsXL.K.[.u.*.$.E ) ) Q R ! ! x x Z ! _ / ! _ >.>.>.z.&XkXnXMXnXzXkXjXlXhXwX5.n -                                                                                                                                                                               ",
"                                                                                                                                                                                  < b H 4 . ; r z R ) $.*.e.i.K.Y.Y.Y.Y.E..X XE. X,XLXPXHXFXDXBXBXMXMXMXBXBXBXBXBXBXnXXX[.[.!.!.8.=.) ) Q Q ) ) ! Z Z ! _ _ ! _ ` } 3.=XkXkX3X1X2XdXpXZ.K 4                                                                                                                                                                                     ",
"                                                                                                                                                  X                                   5 4.+.b 1 8 z R $.*.0.i.K.P.Y.Y.Y.Y..X.XE.|. XnXLXJXFXDXBXBXBXNXNXNXmXnXnXaXsXsXrX!.u.y.u.!.OX].'.C.8.>.` ` ` ! ! ! _ _ _ _ z._.:X2X1X3XdXtXV.J a w ;                                                                                                                                                                                     ",
"                                                                                                                                                  b #                                   . e #.B.x.k.+.` $.*.p.K.P.Y.Y.Y.E.$X>X.X.XE.dXzXdXkXdX1XdX>XXX.X[.[.Y.U.K.d.t.e.*.*.%.%.%.>.z.].gXmXbXuXA.8.o.` ) ! ( _ _ O.~.:X3XtX'.n.F u u y 2 .                                                                                                                                                                                     ",
"                                                                                                                                                  H -                                         < K F.{.{.D.u.P.T.P.|..X+X,XzXdXdXnXdXhXnX%X%X%X#X XE.Y.Y.Y.Y.Y.I.K.p.t.0.*.%.$.) ) ` %.%.>.W.&XzXMXnXfXuX'.M.+.] ( _ _ k.6.' V M j i u 0 +                                                                                                                                                                                       ",
"                                                                                                                                                  % .                 - X                       @ f ] F._.{.{.{.|.T.R. X$XjXNXMXcXcXNXGX2X%X%X%X#X XE.Y.Y.Y.Y.I.d.i.e.*.*.%.$.) ) ) ` ` ` ` >.z.&XzXMXMXNXNXvXuX'.N.1.^ Z V V M j i u 9 X                                                                                                                                                                                       ",
"                                                                                                                                                  .                   - e 4                   . ; 7 f z ` 3.J.{.{.{.$X.X.X$XkXMXxX7XxXVXnX#X#X#X#X XY.I.I.Y.I.K.p.e.*.*.*.-.%.%.) ) ! ` ` ` ` ` >.^.pXcXMXMXMXBXVXNXmXwX+.V V M m i u 0 X                                                                                                                                                                                       ",
"                                                                                                                                                  +                     q #.b .           . * > r r f g l z R >.(.#X#X*X6XjX6XzXcXxXxXMXHX1X XE.E.E.I.d.s.d.K.d.p.r.*.%.%.%.-.-.-.-.` ` ` ` -.} O.} z._.+X;X2XjXkXzXnXnXaXM.D M m s i w ;                                                                                                                                                                                       ",
"                                                                                                                                                  %                     O .. .v %             . > r f f l l Y Y ) W.=X>X>X2XlXxXcXcXxXcXFXZX|.E.Y.Y.d.t.q.t.t.e.*.*.*.:.:.:.-.%.` ` -.-.} } ;.>.>.,.l.}.;X,X2X3X3X3X1X;X;XpXA.J M m i u 2                                                                                                                                                                                       ",
"                                                                                                                                                  e O                     5  .s N 1             O > r f f l Y E $.&.u.!.sXdX2XjXxXMXMXMXBXJXsXY.Y.U.L.L.p.u.u.0.*.$.) $.%.:.;.;.-.-.-.-.-.l.D.D.D.F.J.{.,X,X1X1X1X1X,X=X*X=XpXwX..M m i w $                                                                                                                                                                                     ",
"                                                                                                                                                  G # O     $               F v q C p +         O > r f l z R ) $.*.0.t.L.rXnXlXlXcXBXBXMXFXZX|.U.U.f.d.f.[.XX].Q.2.%.) ) ) %.-.;.;.>.>.3.l.D.F.F.D.D.F._.;X<X,X1X1X,X,X=X*X*XpXuX4.M j i 9 X                                                                                                                                                                                   ",
"                                                                                                                                                  K # - X   % %             % a p M j y :     @ > f g z z R ) $.%.*.e.e.a.d.[.aXMXMXBXBXBXBXJXsXU.K.d.s.q.*.2.tXMXnXsX!.8.>.` ` ` } ;.3.l.l.l.S.G.J.D.D.F._.*X,X,X,X,X,X,X,X,X=XpXfX4.m s u 2 .                                                                                                                                                                                 ",
"                                                                                                                                                  H # # X   . e O             - w C A s m B + . ; 8 g ! ` ) ) %.*.:.e.e.t.d.K.L.XXmXVXVXDXDXFXGX[.d.d.t.0.&.&.2.-XMXMXnXnXaX'.Z.8.>.-.-.3.F.`.].`.}.{.(.(.J.{.$X<X,X,X,X,X,X1X1X:X3XyX4.j s u 2 X                                                                                                                                                                               ",
"                                                                                                                                                  -           - e               2 C [ O.<.D.#.4 O > r x ` -.%.*.*.*.:.*.e.t.d.K.K.[.XXvXSXHXFXHXsXi.0.*.&.$.$.$.2.aXkXkXkXlXkXzXvXaXyX]././.].pXzXzXkXdX3X=X+X#X<X2X2X2X1X,X,X1X1X1X,XpXn.m a u 9 @                                                                                                                                                                             ",
"                                                                                                                                                                < O             $ S O.O.,.l.F.v.v @ > r x Y R R R Y R ) $.*.0.i.d.d.K.[.XXsXmXSXSXQ.*.&.$.) ) ) ) Q.kX3X2X3X2X2X2X2XdXdXhXnXNXSXSXNXMXMXMXzXlXjX3X1X2XjXjXjX3X1X,X,X,X,XpXV.N a a 9 $                                                                                                                                                                           ",
"                                                                                                                                                                              .   q ,.<.<.l.D.F.D...3 r x / l l l l l Y ) $.&.0.e.i.d.f.f.f.L.[.sXaX=.) $.%.$.) ) ` ].lX2X2X,X<X,X;X*X+X{.`.].-XfXZXGXSXNXMXcXcXcXMXzXkXzXzXzXlX6X6X2X2X2XdX'.J s a 0 +                                                                                                                                                                         ",
"                                                                                                                                                                              $ ; X  .l.<.l.F.D.l.].6.r f / ] f f z z l E ) $.0.e.p.d.L.L.p.t.e.e.Q.Q.! R ) %.%.%.) 1.dX2X,X<X,X;X*X+X}.{.).).(._.`.&XpXvXmXSXDXVXBXBXBXNXMXMXcXzXlXjX6X2X6XzXyX6.m a w $                                                                                                                                                                       ",
"                                                                                                                                                                                > X 4 v.z.z.F.F.v.`.V.r h h w M r r f z E E E $.*.0.y.p.p.e.*.*.*.$.:.=.x R Q ) ) ! / /.+X*X*X*X+X}.{._.(.J.J.(.(.(.J.J.(.`.].sXvXSXHXHXHXDXVXBXBXMXcXlXjX6XjXcXnXC.N a e $                                                                                                                                                                     ",
"                                                                                                                                                                                $ 1   +._.z.D.D.l.`.A.r r 8 . X > > > @ > f R $.*.*.*.*.*.*.$.) ) ) ) =./ z x ! ! ! Z 1.}.}.+X+X+X{.{.(.J.J.F.F.F.F.F.F.F.J.J.~.~./.].aXbXZXFXHXHXFXDXBXMXMXzXzXcXNXwXJ a q $                                                                                                                                                                   ",
"                                                                                                                                                                            .     2 + % ^.(.H.H.l./.wXu 7 ; ;     @ @       > l ) $.$.) $.$.) ) R R R R ` ! x x x Z x Z B.}.+X+X+X}.{.(.J.J.F.F.D.D.D.D.F.F.J.(.(.(.(.(._.}.-XaXmXGXJXJXJXHXDXNXMXcXBXuX..a w $                                                                                                                                                                 ",
"                                                                                                                                                                        . O @ @   + 1 O b oX}.&Xl.F.tXs 7 ; ; *   . @ O     + @ 7 g Q R ) ) R R R R x x ! ` ! ! x Z Z k ' `.+X+X+X+X}.{._.J.F.F.D.D.D.D.D.D.F.F.J.(.(.(.(._.{.}.}.=XhXmXHXLXLXJXFXVXMXBXvXn.s 9 .                                                                                                                                                               ",
"                                                                                                                                                                          $ 9 0 ; $ 2 ; 2 N.3XkX/.D.OXd 7 0 $ ; O   . * .       O . t ! ! ` ! z x x x z z ! ! } _ ! _ M k N.1X,X;X*X*X+X+X{.).J.J.F.F.D.F.F.F.F.J.(.(.(.(.(._.{.}.+X6XzXzXMXNXFXHXJXJXDXVXNXA.a @                                                                                                                                                               ",
"                                                                                                                                                                            @ 9 w 2 2 9 8 J yXBXpXF.OXH r 8 : + .     . * .         X j Z x +.~ z x x z g z x _ l._ { ^ k C OX,X,X3X3X1X*X+X{.{.J.J.J.H.F.J.F.F.J._.{.{.}.}.+X+X+X*X1XjXlXxXxXxXzXMXVXHXJXHXFXqX<                                                                                                                                                               ",
"                                                                                                                                                                                - 2 > y u u 6.mXMX`.`.K 0 8 * 2         . * .         O j k ' V.! x x z h h h k <.j.,.<.C h 6.pXlXzXzXzXdX&X}._.(.~.F.z.z.D.F.D.D.F.J.)._.)._.}.*X1X3XjXzXzXzXzXMXMXzXzXMXDXHXLXiXn                                                                                                                                                             ",
"                                                                                                                                                                                  $ 9 s M u N wXBXpX&X4.0 :   3 <         . @           O 0 x '.1./ ( z h h k h C F.j.l.@.j m +.M.M.M.M.n.6.+.+.......J H K J G G J K ..4.4.4.6.M.M.M.M.V.V.V.M.M.M.M.M.V.V.n.m.m.7.<                                                                                                                                                           ",
"                                                                                                                                                                                    + 0 M M 8 4.ZXnXnXV.r 8 + O 2 .         . @ O         * f 6.'.O.,.( k k k k k 1.H.z.x.' j j k M k h h u u y y 0 1 $ $ $ O                 X ; 2 9 0 w y u u p p u w 2 * X                                                                                                                                                                   ",
"                                                                                                                                                                                      . 1 M y p 0XmXnXA.u 0 > . . .           O 1 2 O . > 8 r C wXW.l.v.! x k h j D (.(.D.B.C M M M M j i u u u 9 $ .                               . X + $ * : : : $ +                                                                                                                                                                         ",
"                                                                                                                                                                                          $ a a F iXMXwXi 8 .                     - p 2 8 k M h M.`.D.(.k.x k k k M B.`.F./.6.M M M j M V M M M 0 .                                                                                                                                                                                                                             ",
"                                                                                                                                                                                            . 1 s I bXiXF 0 O                       O p M h ' +.' ^.D.H.`.X.x k M Z o.+X`.(.'.M j m s u i M V V m 1 .                                                                                                                                                                                                                           ",
"                                                                                                                                    .                                                           $ 2 m.bXH > : O                 . ; * $ 3 J +.N.'.^.~.D.)./.^ Z A ~ ( `.&X~.`...u p p s m w : a B N a 4 X                                                                                                                                                                                                                       ",
"                                                                                                                                  X O                                                               % I P     * .       . $ X . 9 0 y 9 > 9 ' N.fXbX-XJ.J.&XZ.( ! ! _ ~.;X_.`.N.a y 9 * - e e 9 w p p e e : X                                                                                                                                                                                                                   ",
"                                                                                                                                  + #                                                                 . #         . $ .   3 a 0 u y 0 j V A A ^ b.iXvX:X).{.-XB._ ( { z.*X}.(./.J y w ;     O : 0 3 : 1 3 3 1 $                                                                                                                                                                                                                 ",
"                                                                                                                                  + +                                                                         - v S ^ 1 X + S A w u u M ,.<.<.,.[ #.uXmX-X{.*X-Xj.>.<.z.`.+XJ.(.b.p y >           O +   X $ : , * $ X                                                                                                                                                                                                           ",
"                                                                                                                                                                                              X         X $   v x.x.x.^ 1   e  .M 3 j M | l.j.<.,.} <.yXZX-X+XjXOXl.3.l.~.,X{.H.^.F y > .                     X $ $ O                                                                                                                                                                                                           ",
"                                                                                                                                                                                            + 2 X         v : S l.x.x.,.v   X B S M i j ^ j.j.<.<.O.,.v.yXmX:X2XnX/.v.l.D.;X;X(.(.6.y w *                       O < 4                                                                                                                                                                                                           ",
"                                                                                                                                                                        X *                 . @           c #.@.<.<.x.<.( $   - ^ ( M j D ,.<.<.,.| | l.D.tXmX:XkXhX~.D.D.+X2X}.H.'.N u 1                       # < <                                                                                                                                                                                                           ",
"                                                                                                                                                                        . 4                   + X         % '.v.@.O.j.} { 9     w } D s M | <.<.,.} [ ,.x.H.tXnX1XlX:XF.D._.2X+XF.].n.i w *                                                                                                                                                                                                                                     ",
"                                                                                                                                                                          5 X         : : * - O : %         4./.o.} @.( [ B X   + V { [ D } ,.<.,.| [ { <.F.~.pXzX<XzX&XF._.2X;X(.(.wXN u ;                                                                                                                                                                                                                                     ",
"                                                                                                                                                                          e -         2 j M V m 3 e X       5 /.@.} { ^ ^ [ 3     1 [ } ,.,.| | | } [ ( | j.J.~.pXzXjXzX`.).*X,X+XH.-X5.i 9                                                                                                                                                                                                                                     ",
"                                                                                                                                                                          < 5         O p u V M ~ D , X O   o Z.v.{ { D D [ V X   X V { O.,.,.| | } ~ D [ | l.H.~.pXzXcXhX+X+X;X&X_.`.wXm 0 O                                                                                                                                                                                                                                   ",
"                                                                                                                                                                          + q           : a s i 2 V s . , O O I B.{ } D ^ ^ ( 2     M { } ,.<.,.,.,.^ V A ( @.l.v.v.aXlXcXzX=X;X;X}._.pX4.y 1                                                                                                                                                                                                                                   ",
"                                                                                                                                                                            4             9 i s $ X 9 $ 2 w O 5 '.o.{ D [ ( ^ V + ; A } } | l.l.<.,.( V V V ^ @.l.l.~.hXzXNXhX=X,X&X_.&XA.a 9 X                                                                                                                                                                                                                                 ",
"                                                                                                                                                                            1           . q w j 0 @ X * ; s 1 $ N.k.} ^ { O.{ ,.e m @.} | ,.l.D.l.j.( V V V A ^ | <.l./.mXVXNXkX;X;X}._.tXG y ;                                                                                                                                                                                                                                 ",
"                                                                                                                                                $                         X w +           : q y u 0 2 : * : y * G ^.,.{ } j.,.l.G - J j.<.<.j.D.D.D.@.V V V A ( { | <.x.'.ZXVXNXdX,X*X{.:XV.u 9 +                                                                                                                                                                                                                               ",
"                                                                                                                                                                          $ N ,             3 9 u u 9 > 2 @ 1 3 4 Z.v.j.<.D.x.v.+.    4  .l.l.l.x.D.l.[ V V V ^ } @.,.<.v.'.mXNXMX2X,X+X+XtXF u 3                                                                                                                                                                                                                               ",
"                                                                                                                                                                          e  .4             $ N u u y 2 2 > + p 2 4.`./.x.`.~.H.N.#       4 J j.l.,.j.<.^ V V V ( @.,.,.j.x.'.mXNXzX2X,X+XdXn.a y @                                                                                                                                                                                                                             ",
"                                                                                                                                                                    .     G +.4               p D u y 9 : > ; u m a '.-X~.+X`.H.'.<           - B o.[ O.@.( ~ ~ ~ ( | <.<.<.l.'.mXVXzX,X+X2XwXN a 1                                                                                                                                                                                                                             ",
"                                                                                                                                                                    O     b +.4               X ^ D 0 ; : 9 0 s C m V.dX&X;X*XoXOX6               - v S O.@.^ D ( { { O.<.<.<.l.'.NXDXjX,X2XzX4.a 9 .                                                                                                                                                                                                                           ",
"                                                                                                                                                                    X     5 K <                 : o.m 1 ; 9 u M V C ..hX3X*X6X;X-XP .                 $ p o.,.^ V D { | @.,.<.j.l.'.NXVXjX3XzXA.s p $                                                                                                                                                                                                                           ",
"                                                                                                                                                                      X   < K <                   - D N 9 0 s M V D S tXlX;X6X6XjX5.O                     - J <.[ V V ^ | ,.,.<.l.x.].FXNXlXlXaXH p :                                                                                                                                                                                                                           ",
"                                                                                                                                                                      +   - K <                     $ S C s m M V C V M.zX2X6XlXzXV.X                         5  .@.^ V D } ,.<.j.l.F.aXLXNXjXzXV.p 1                                                                                                                                                                                                                           ",
"                                                                                                                                                                      X . # H -                       O S D M M V V V ' yX6X2XjXzXqXo                           X e  .X.( D [ @.<.j.x.~.fXJXnXlXtXF 9 X                                                                                                                                                                                                                         ",
"                                                                                                                                                                        X . H -                         + J D M V V M V A.zX:X;XzXwX#                               X q  .o.X.X.@.<.j.x.~.fXHXcXzXn.w $                                                                                                                                                                                                                         ",
"                                                                                                                                                                        O . b %                           %  .M C V V V #.vX3X`.:XuX#                                   X 1 S <.j.j.j.l.v.~.vXFXcXtXv $                                                                                                                                                                                                                         ",
"                                                                                                                                                                        . O < o                             4  .C ^ N S ' tXhX/.`.yX<                                         1 J z.v.l.l.l.~.vXDXnX5.+                                                                                                                                                                                                                         ",
"                                                                                                                                                                          $ e .                               c J D D B D M.vX/.F.tX6                                             - N @.F.F.D.~.vXDXqX%                                                                                                                                                                                                                         ",
"                                                                                                                                                                          O 5                                 o b N ' C V J uXOXv.].6                                                 O e  .v.F.~.vXZXn                                                                                                                                                                                                                         ",
"                                                                                                                                                                          . 4                                   % b J  .m m n.OXx.^.n                                                       , K D.~.vX9X.                                                                                                                                                                                                                       ",
"                                                                                                                                                                            -                                     . % K S s F '.k.W.P                                                           , K B.uX6                                                                                                                                                                                                                       ",
"                                                                                                                                                                                                                    X 4 J m s n.N.N.I                                                               - K 5.o                                                                                                                                                                                                                     ",
"                                                                                                                                                                                                                      O < J m J A.#.5.                                                                  < #                                                                                                                                                                                                                     ",
"                                                                                                                                                                                                                          e J m 6.N.4..                                                                                                                                                                                                                                                                                         ",
"                                                                                                                                                                                                                            c J G C.6.#                                                                                                                                                                                                                                                                                         ",
"                                                                                                                                                                                                                            o F S n.V.&                                                                                                                                                                                                                                                                                         ",
"                                                                                                                                                                                                                              # G K A.5                                                                                                                                                                                                                                                                                         ",
"                                                                                                                                                                                                                                # F n.n                                                                                                                                                                                                                                                                                         ",
"                                                                                                                                                                                                                                  % H I                                                                                                                                                                                                                                                                                         ",
"                                                                                                                                                                                                                                    - I #                                                                                                                                                                                                                                                                                       ",
"                                                                                                                                                                                                                                      4 <                                                                                                                                                                                                                                                                                       ",
"                                                                                                                                                                                                                                        o                                                                                                                                                                                                                                                                                       ",
"                                                                                                                                                                                                                                                                                                                                                                                                                                                                                                                                ",
"                                                                                                                                                                                                                                                                                                                                                                                                                                                                                                                                ",
"                                                                                                                                                                                                                                                                                                                                                                                                                                                                                                                                ",
"                                                                                                                                                                                                                                                                                                                                                                                                                                                                                                                                ",
"                                                                                                                                                                                                                                                                                                                                                                                                                                                                                                                                ",
"                                                                                                                                                                                                                                                                                                                                                                                                                                                                                                                                ",
"                                                                                                                                                                                                                                                                                                                                                                                                                                                                                                                                ",
"                                                                                                                                                                                                                                                                                                                                                                                                                                                                                                                                ",
"                                                                                                                                                                                                                                                                                                                                                                                                                                                                                                                                ",
"                                                                                                                                                                                                                                                                                                                                                                                                                                                                                                                                ",
"                                                                                                                                                                                                                                                                                                                                                                                                                                                                                                                                ",
"                                                                                                                                                                                                                                                                                                                                                                                                                                                                                                                                ",
"                                                                                                                                                                                                                                                                                                                                                                                                                                                                                                                                ",
"                                                                                                                                                                                                                                                                                                                                                                                                                                                                                                                                ",
"                                                                                                                                                                                                                                                                                                                                                                                                                                                                                                                                ",
"                                                                                                                                                                                                                                                                                                                                                                                                                                                                                                                                ",
"                                                                                                                                                                                                                                                                                                                                                                                                                                                                                                                                ",
"                          . .                                                                                                                                                                                                                                                                                                                                                                                                                                                                                                   ",
"                          6 6                                                                                                                                                                                                                                                                                                                                                                                                                                                                                                   ",
"                        . L L .                                                                                                                                                                                                                                                                                                                                                                                                                                                                                                 ",
"                        6 U U 6                                                                                                                                                                                                                                                                                                                                                                                                                                                                                                 ",
"                      & U 8X8XU &                                                                                                                                                                                                                                                                                                                                                                                                                                                                                               ",
"                  . 6 U 8X8X8X8XU 6                                                                                                                                                                                                                                                                                                                                                                                                                                                                                             ",
"                6 L U 8X8X8X8X8X8XU L 6                                                                                                                                                                                                                                                                                                                                                                                                                                                                                         ",
"                6 L U 8X8X8X8X8X8XU L 6                                                                                                                                                                                                                                                                                                                                                                                                                                                                                         ",
"                  . 6 U 8X8X8X8XU 6                                                                                                                                                                                                                                                                                                                                                                                                                                                                                             ",
"                      & U 8X8XU &                                                                                                                                                                                                                                                                                                                                                                                                                                                                                               ",
"                        6 U U 6                                                                                                                                                                                                                                                                                                                                                                                                                                                                                                 ",
"                          L L .                                                                                                                                                                                                                                                                                                                                                                                                                                                                                                 ",
"                          6 6                                                                                                                                                                                                                                                                                                                                                                                                                                                                                                   ",
"                          . .                                                                                                                                                                                                                                                                                                                                                                                                                                                                                                   ",
"                                                                                                                                                                                                                                                                                                                                                                                                                                                                                                                                ",
"                                                                                                                                                                                                                                                                                                                                                                                                                                                                                                                                ",
"                                                                                                                                                                                                                                                                                                                                                                                                                                                                                                                                ",
"                                                                                                                                                                                                                                                                                                                                                                                                                                                                                                                                ",
"                                                                                                                                                                                                                                                                                                                                                                                                                                                                                                                                ",
"                                                                                                                                                                                                                                                                                                                                                                                                                                                                                                                                ",
"                                                                                                                                                                                                                                                                                                                                                                                                                                                                                                                                "
};
