/* XPM */
static const char *ice8[] = {
/* columns rows colors chars-per-pixel */
"256 256 256 2 ",
"   c #000000",
".  c #03050B",
"X  c #080A0D",
"o  c #040612",
"O  c #040A14",
"+  c #050B1B",
"@  c #0A0B18",
"#  c #110D1B",
"$  c #0B1219",
"%  c #15171A",
"&  c #080D24",
"*  c #091427",
"=  c #0A142C",
"-  c #151A26",
";  c #110E32",
":  c #0B1837",
">  c #141739",
",  c #241B39",
"<  c #19232A",
"1  c #0F2438",
"2  c #172638",
"3  c #27282A",
"4  c #293038",
"5  c #0B1B45",
"6  c #161949",
"7  c #0D1B55",
"8  c #181A58",
"9  c #251B52",
"0  c #0D2348",
"q  c #162748",
"w  c #1B3449",
"e  c #0C2658",
"r  c #152658",
"t  c #1A3659",
"y  c #2C314E",
"u  c #263857",
"i  c #1A1B64",
"p  c #261C6F",
"a  c #0C2966",
"s  c #162967",
"d  c #18366A",
"f  c #172C76",
"g  c #0D3273",
"h  c #173778",
"j  c #252669",
"k  c #2D316D",
"l  c #262777",
"z  c #253578",
"x  c #48366E",
"c  c #314655",
"v  c #1B4466",
"b  c #1C427A",
"n  c #304D6E",
"m  c #274778",
"M  c #386679",
"N  c #4A4E55",
"B  c #4E536F",
"V  c #69577A",
"C  c #506776",
"Z  c #6D7075",
"A  c #331D85",
"S  c #173B85",
"D  c #17378E",
"F  c #382689",
"G  c #322E8F",
"H  c #273886",
"J  c #2A3A98",
"K  c #2E3BA6",
"L  c #3738A6",
"P  c #453298",
"I  c #4638A8",
"U  c #5134AD",
"Y  c #633AB8",
"T  c #194489",
"R  c #194996",
"E  c #1C5298",
"W  c #254788",
"Q  c #2A5688",
"!  c #36508E",
"~  c #274A96",
"^  c #265599",
"/  c #1C649D",
"(  c #366792",
")  c #1A56A8",
"_  c #1A53AD",
"`  c #2A46A8",
"'  c #3548A7",
"]  c #2658A6",
"[  c #3658A9",
"{  c #274BB3",
"}  c #374AB4",
"|  c #2957B8",
" . c #3657B8",
".. c #1D62AB",
"X. c #1C64B8",
"o. c #2863AA",
"O. c #3771AE",
"+. c #2869B6",
"@. c #3667B9",
"#. c #2B73BB",
"$. c #4C518F",
"%. c #675594",
"&. c #4C6F92",
"*. c #6D7290",
"=. c #4945B6",
"-. c #4F4FB1",
";. c #6B4FB3",
":. c #4B71B0",
">. c #706EB0",
",. c #663BC2",
"<. c #305AC2",
"1. c #1E6CC5",
"2. c #2868C6",
"3. c #3768C5",
"4. c #2977C7",
"5. c #3878C8",
"6. c #3178D3",
"7. c #3E7CE1",
"8. c #5056C8",
"9. c #6E4FCA",
"0. c #4767C8",
"q. c #4676CA",
"w. c #546ED0",
"e. c #4879D4",
"r. c #5776D7",
"t. c #6868D7",
"y. c #6F70D4",
"u. c #5B7CE3",
"i. c #7275E3",
"p. c #8673AD",
"a. c #8455D2",
"s. c #9B6DD9",
"d. c #8C70D6",
"f. c #9075E6",
"g. c #AB74EB",
"h. c #C97BF2",
"j. c #3A82B6",
"k. c #738794",
"l. c #508AB3",
"z. c #6395AA",
"x. c #6F8FB0",
"c. c #2E86CE",
"v. c #3885CC",
"b. c #2C86D7",
"n. c #3889D5",
"m. c #3A95D9",
"M. c #3EA3DC",
"N. c #2F8FE2",
"B. c #3999E5",
"V. c #3BA6E7",
"C. c #3CAFEE",
"Z. c #4789CA",
"A. c #5393C8",
"S. c #4689D7",
"D. c #5688D8",
"F. c #4796DA",
"G. c #5797DB",
"H. c #6B90D4",
"J. c #4FA6DA",
"K. c #70ACD4",
"L. c #5289E3",
"P. c #489AE3",
"I. c #569AE5",
"U. c #6E8EE7",
"Y. c #7599E8",
"T. c #47A7E6",
"R. c #57A7E8",
"E. c #49B5EB",
"W. c #58B7EB",
"Q. c #49B8F3",
"!. c #59B9F2",
"~. c #66A7E9",
"^. c #79A8EA",
"/. c #66B7EC",
"(. c #78B6EA",
"). c #73A8F1",
"_. c #67B9F2",
"`. c #76B9F2",
"'. c #4BC7F2",
"]. c #59C8F5",
"[. c #5AD8F8",
"{. c #73C7EC",
"}. c #63D4EA",
"|. c #69C7F5",
" X c #76C9F5",
".X c #66D7F8",
"XX c #78D5F7",
"oX c #68E6FB",
"OX c #77E6FA",
"+X c #77F4FC",
"@X c #818181",
"#X c #8A919B",
"$X c #8D91AF",
"%X c #91A8B7",
"&X c #A6A8BB",
"*X c #9290D0",
"=X c #A891D4",
"-X c #8FB1D1",
";X c #AFB4D0",
":X c #8788E9",
">X c #9686EB",
",X c #8F97EC",
"<X c #999AF2",
"1X c #B091EF",
"2X c #A79AF3",
"3X c #8CB4EC",
"4X c #86A6F3",
"5X c #96A7F4",
"6X c #99B6F6",
"7X c #A9A5F5",
"8X c #B6A9F6",
"9X c #AAB3F0",
"0X c #BBB4F7",
"qX c #DD9EED",
"wX c #CE8DF1",
"eX c #D0AFF1",
"rX c #C7B8F7",
"tX c #EDB1F7",
"yX c #92C7D6",
"uX c #B3C8D7",
"iX c #90CBEB",
"pX c #88C7F4",
"aX c #96C8F5",
"sX c #87D9F8",
"dX c #97D8F7",
"fX c #B0CFF0",
"gX c #A6D8F6",
"hX c #88E6FA",
"jX c #98E6F9",
"kX c #88F5FB",
"lX c #97F6FB",
"zX c #AEE3EB",
"xX c #A7E9F9",
"cX c #B7E8F9",
"vX c #AAF4FB",
"bX c #B4F4FB",
"nX c #BBF5FB",
"mX c #BAF9FC",
"MX c #C5CBD5",
"NX c #D7C8F6",
"BX c #CFD0F1",
"VX c #EED3F9",
"CX c #C7E8F8",
"ZX c #D3E7F2",
"AX c #C7F7FB",
"SX c #D4F8FB",
"DX c #DCFBFC",
"FX c #E3E6EC",
"GX c #E8E7F9",
"HX c #F5E9FB",
"JX c #E8F4FA",
"KX c #E4FBFC",
"LX c #EBFBFC",
"PX c #F8F4FB",
"IX c #F4FCFD",
"UX c #FBFCFC",
/* pixels */
"                                                                                                                                                                                                                                                                                                                                                                                                                                                                                                                                ",
"                                                                                                                                                                                                                                                                                                                                                                                                                                                                                                                                ",
"                                                                                                                                                                                                                                                                                                                                                                                                                                                                                                                                ",
"                                                                                                                                                                                                                                                                                                                                                                                                                                                                                                                                ",
"                                                                                                                                                                                                                                                                                                                                                                                                                                                                                                                                ",
"                                                                                                                                                                                                                                                                                                                                                                                                                                                                                                                                ",
"                                                                                                                                                                                                                                                                                                                                                                                                                                                                                                                                ",
"                                                                                                                                                                                                                                                                                                                                                                                                                                                                                                                                ",
"                                                                                                                                                                                                                                                                                                                                                                                                                                                                                                                                ",
"                                                                                                                                                                                                                                                                                                                                                                                                                                                                                                                                ",
"                                                                                                                                                                                                                                                                                                                                                                                                                                                                                                                                ",
"                                                                                                                                                                                                                                                                                                                                                                                                                                                                                                                                ",
"                                                                                                                                                                                                                                                                                                                                                                                                                                                                                                                                ",
"                                                                                                                                                                                                                                                                                                                                                                                                                                                                                                                                ",
"                                                                                                                                                                                                                                                                                                                                                                                                                                                                                                                                ",
"                                                                                                                                                                                                                                                                                                                                                                                                                                                                                                                                ",
"                                                                                                                                                                                                                                                                                                                                                                                                                                                                                                                                ",
"                                                                                                                                                                                                                                                                                                                                                                                                                                                                                                                                ",
"                                                                                                                                                                                                                                                                                                                                                                                                                                                                                                                                ",
"                                                                                                                                                                                                                                                                                                                                                                                                                                                                                                                                ",
"                                                                                                                                                                                                                                                                                                                                                                                                                                                                                                                                ",
"                                                                                                                                                                                                                                                                                                                                                                                                                                                                                                                                ",
"                                                                                                                                                                                                                                                                                                                                                                                                                                                                                                                                ",
"                                                                                                                                                                                                                                                                                                                                                                                                                                                                                                                                ",
"                                                                                                                                                                                                                                                                                                                                                                                                                                                                                                                                ",
"                                                                                                                                                                                                                                                                                                                                                                                                                                                                                                                                ",
"                                                                                                                                                                                                                                                                                                                                                                                                                                                                                                                                ",
"                                                                                                                                                                                                                                                                                                                                                                                                                                                                                                                                ",
"                                                                                                                                                                                                                                                                            X X                                                                                                                                                                                                                                                 ",
"                                                                                                                                                                                                                                                                            N 4                                                                                                                                                                                                                                                 ",
"                                                                                                                                                                                                                                                                          % %Xy                                                                                                                                                                                                                                                 ",
"                                                                                                                                                                                                                                                                          Z ;Xn .                                                                                                                                                                                                                                               ",
"                                                                                                                                                                                                                                                                        4 ZX$X! <                                                                                                                                                                                                                                               ",
"                                                                                                                                                                                                                                                                      % &XDX*.Q c                                                                                                                                                                                           o                                                   ",
"                                                                                                                                                                                                                                                                      Z cXCX$.b M X                                                                                                                                                                                       > #                                                   ",
"                                                                                                                                                                                                                                                                    c zXbXuXW h m 2                                                                                                                                                                                     9 9                                                     ",
"                                                                                                                                                                                                                                                                  % %XvXAX;XW d d n                                                                                                                                                                                   9 P @                                                     ",
"                                                                                                                                                                                                                                                                  k.vXvXSX$X~ d r ( -                                                                                                                                                                               9 =.>                                                       ",
"                                                                                                                                                                                                                                                                N zXvXbXJXl.^ h s Q c                                                                                                                                                                             j 8.j                                                         ",
"                                                                                                                                                                                                                                                              % uXbXvXAXZX:.] h d b Q X                                                                                                                                                                       o j t.P .                                                         ",
"                                                                                                                                                                                                                                                              k.AXvXbXSXcX:.] m h h Q 2                                                                                                                                                                     # F t.-.&                                                           ",
"                                                                                                                                                                                                                                                            c CXmXvXAXSXfX5.] W h h b n                                                                                                                                                                 . 9 P y.y.6                                                             ",
"                                                                                                                                                                                                                                                          % &XAXvXbXAXSXiX5.] W b W h ^ -                                                                                                                                                             - z I y.:Xl .                                                             ",
"                                                                                                                                                                                                                                                          k.AXbXvXmXnXCX(.#.] W W W h ^ u                                                                                                                                                         X 9 I =.y.<X=.&                                                               ",
"                                                                                                                                                                                                                                                        c zXbXbXbXmXbXCXR.@.^ W W W T W m O                                                                                                                                                     > $.=.I y.7X-.6                                                                 ",
"                                                                                                                                                                                                                                                      % yXmXbXbXbXAXAXCXS.o.^ W W W W W Q w                                                                                                                                                 % B -.=.I t.7Xt.l o                                                                 ",
"                                                                                                                                                                                                                                                      k.mXbXvXvXbXmXDXfX5.] ^ W W W ~ T W Q X                                                                                                                                           . y >.8.=.=.t.<Xy.G ;                                                                   ",
"                                                                                                                                                                                                                                                    c zXvXxXxXvXAXmXKXiX+.] ~ W ~ ~ ^ T h o.w                                                                                                                                         , %.y.8.-.8.i.5Xy.L r                                                                     ",
"                                                                                                                                                                                                                                                  % %XxXjXsXjXbXAXAXLX(.o.] ~ ~ ^ ^ ] T h ] ( .                                                                                                                                   % B y.t.8.8.y.U.5XH.=.J $                                                                     ",
"                                                                                                                                                                                                                                                . &.dXhXsX XsXAXAXDXJXG.o.^ ~ ~ ] ] ] ^ h ~ l.y                                                                                                                               X y >.i.w.w.t.U.U.<XH.=.} q                                                                       ",
"                                                                                                                                                                                                                                                c iXXXsX|._.dXAXAXLXZXZ.o.^ ~ ] +.o.o.] T ~ Z.z..                                                                                                                           3 *.H.i.y.i.U.U.U.Y.U.=.} H .                                                                       ",
"                                                                                                                                                                                                                                              - -X X X X/._.jXAXSXUXfXv.o.^ ^ +.#.#.+.o.~ ^ v.{.4                                                                                                                       % C H.Y.Y.,X,XY.U.i.U.y.-.} } >                                                                         ",
"                                                                                                                                                                                                                                            . k.dX`. X_./._.xXnXDXKXx.#.+.] o.#.4.#.#.+.^ ] F. XB             % X                                                                                                   X N *X4X4X5X6X4XU.r.w.w.r.' } } z                                                                           ",
"                                                                                                                                                                                                                                            c iX`.`.{././._.xXnXAXgX( ^ 5.+.#.c.c.5.5.#.] +.W.K.-           $ c .                                 . X                                                           . y x.4XY.3X6X3XY.H.r.0.w.r.W ' } ' &                                                                           ",
"                                                                                                                                                                                                                                          % -XpX`. X/./._.XXbXbXdXK.d b 5.#.5.v.v.v.5.5.o.@.|.C           . Z y                                 X y X                                                         - &.Y.^.4X6X6XY.U.D.r.w.H.H.k J -.=.r                                                                             ",
"                                                                                                                                                                                                                                        . k.dX`.`.`././.`.jXnXiX/.l.r : O.v.v.n.n.v.v.5.+.v.K.<           B x.X                               X Z 4                                                       % n :.H.Y.3XaX^.D.D.D.D.e.H.-Xm r -.-.' O                                                                             ",
"                                                                                                                                                                                                                                        N gX3X).`._./.`.pXnXgXl.J.M * . ( m.m.m.n.v.v.5.@.F.&..         c 3XB                               % #XZ                                                     $ c &.w.H.3XaX3XU.G.G.D.r.e.H.3X! ; ' 0.8.q                                                                               ",
"                                                                                                                                                                                                                                      % -XaX).`.`./.`. XgXnXA.O.A.< O   t F.F.F.n.v.v.5.@.S.w         y K.K.-                             % x.;X%                                                 X c :.q.D.Y.3XiX~.I.I.G.D.q.e.G.iX&.& r 0.0.W .                                                                               ",
"                                                                                                                                                                                                                                    . k.dX`.~.`._.`. XpXnX3XW O.l.+ .   * v.F.F.n.v.v.5.5.:.$       < :.^.&.                            4 %XaXB                                               . c z.~.D.D.~.3X^.~.I.G.D.q.q.Z.G.pX&.O O ' 0.-.>                                                                                 ",
"                                                                                                                                                                                                                                    N aXpX(.~.`._. X XgXcXl.h l.Q & O     Q F.S.v.5.5.3.S.Q       $ ( D.K.4                           N -X^.%X%                                           . 4 z.sXsX~.D.~.(.~.I.G.D.Z.5.5.q.G.pX&.+   q 0.0.H                                                                                   ",
"                                                                                                                                                                                                                                  3 -XaXpX(.`._.`. XpXxXpX! W l.d : .     w F.n.5.5.5.3.q.w     X W [ D.&..                       . B iX^.3XN                                           3 k.zXxXjX{.I.~.~.G.G.D.S.Z.q.5.q.G.pXl.@   . ~ w. .*                                                                                   ",
"                                                                                                                                                                  .                                                             X #XaXaXpX`.`.`.pXpXaXpXH.z Q l.q :       1 v.@.@.5.3.5.O.$     t [ [ q.u                       X Z iX3X^.-X%                                       3 k.zXnXbXxX XR.R.I.F.D.S.S.Z.q.5.q.D.pXz.$     = 0.0.d                                                                                     ",
"                                                                                                                                                                  y 3                                                           C aXaXaXpX`.`.pXpXsX^.~.:.d ( :.0 &       $ O.W @.3.@.q.!     = ~ ~ ' :.$                     % *.3XaXH.^.B                                     - Z MXSXAXmXxXsX/.R.F.S.S.S.S.S.5.5.5.D.dXx.-       z e.[ @                                                                                     ",
"                                                                                                                                                                  N @X                                                        4 uXpXgXpXpX`.`.pXdXiXA.~.W h :.n > .       . d : [ 3.@.q.w     j J J [ n                     % k.3XaXH.q.x.%                             . * q Z uXDXSXSXnXxXsX/.R.F.S.S.S.S.n.5.5.5.G.iXK.2 .     O @.0.q                                                                                       ",
"                                                                                                                                                                  N FXN                                                     X %XgXgXgXpXpX3XaXdXiX:.I.Z.d d :.q &           + O ] @.3.[ $   = H H J [ 2                   3 x.3XgXH. .D.c                         . * : t *.uXKXDXSXSXnXxXsX{.R.F.F.S.S.S.n.5.5.5.S.pXK.w .       q e.! .                                                                                       ",
"                                                                                                                                                                  B PXMX4 .                                                 Z fXaXgXaX3XpXdXgXgXl.@.~.[ d t O.=                 W 3.3.m     s H H ~ ! X                 4 x.3XfXK.[ 0.l.@                     . : 0 d *.uXLXLXDXDXSXbXjXsX{.R.F.F.S.S.S.5.5.S.5.F. X(.t o         ^ e.2                                                                                         ",
"                                                                                                                                                                  *.HXUX$X, @                                             N fXdXgXgXaXaXaXcXcXH.~ D.).W d s ~ .                 q @.:.2   = H z H ' k                 c x.3XfX-X[  .e.u                   . * 0 d &.uXJXIXLXKXDXSXxXjXsX|.R.P.F.S.S.Z.v.n.S.n.F.XX(.u       .   = q.Q                                                                                           ",
"                                                                                                                                                                # &XGXPXJX*.9 @                                         < uXgXgXgXaXaXaXgXcX-X~ ' (.H.! u s d                   + [ [ @   s H f H ~ =             . N H.3XfXK.! ' 0.:.@               O 1 0 d &.;XJXIXIXLXKXDXAXjXjXsX_.R.R.R.F.S.v.5.v.S.S.R.sX{.v .       o   v q.-                                                                                           ",
"                                                                                                                                                                , ;XGXPXPXFXV 9 @                                     X #XCXgXcXgXaXaXgXcX-X! H :.pXD.:.q s r                     [ m   = z f z ~ r             X B H.3XaXH.W H  .q.u               * 0 d ( %XFXUXIXLXLXKXSXbXjXjXsX_.W.R.R.F.S.v.5.5.n.S.W.sX{.m +       o . O O.m                                                                                             ",
"                                                                                                                                                              o y BXNXPXPXIXMXx 9 @                                   Z CXcXcXgXaXgXgXcXfX:.H H D.pXY.&.: h :                     ! w   r 8 f J H O           $ $.H.3X6X:.d s ~ 0.[ @           + 1 t M %XFXUXIXLXLXKXDXAXvXjXsX X!././.R.F.S.v.5.5.n.F./.hX{.Q : .     . O   w :.$                                                                                             ",
"                                                                                                                                                              # B BXNXPXPXPXUX&Xk 6 .                               % uXCXCXcXgXfXCXCXCXx.H H ~ ^.aX(.w : S : .                   q + + 7 6 H ~ r           - &.H.3X-X$.s r d [ q.u         * : e n $XZXIXIXIXLXLXKXDXnXxXjX X_._.|./.R.P.S.5.5.5.v.F.{.jX X( r +       + .   ( v                                                                                               ",
"                                                                                                                                                              ; *.NXNXGXPXPXPXPXp.9 >                               N CXCXCXfXfXCXSXSX-XH z f :.pXgXx.& = T & .                   .   = > f H H &         4 :.H.4X-X! s r s H  .[ +     O 1 t n x.ZXIXIXLXLXKXKXKXSXbXjXsX|.|.|. X/.R.P.S.5.5.5.n.F.{.jXsX( s :       . &   2 &.O                                                                                               ",
"                                                                                                                                                            . 6 #XNXNXGXPXPXHXUXFX%.9 #                             #XCXCXfXfXCXSXSX;X! z f f D.dXgXc . = S O     .                   . r f H q       . u :.r.4XK.! s r s d ~ 3.d     * 0 n k.BXIXIXLXLXKXKXDXSXSXbXjXXX|.|.XXXX/.R.P.S.5.5.5.n.F.{.xXsXO.s 0 .       O .   ( w                                                                                                 ",
"                                                                                                                                                            @ 9 &XNXNXGXUXPXHXPXUXMXx 9 @                         3 uXfX9X9XfXSXDXfX$.H z s H ~.cXx.@   : h     .                     + s f z O     X B -.w.Y.H.m r s s d H [ [ $   + t *.MXIXLXKXKXKXKXKXSXAXAXvXhXXXXX XXX X/.R.P.S.5.4.5.n.F.{.xXsXO.s r &       . +   1 ( .                                                                                                 ",
"                                                                                                                                                            ; k ;XNXNXVXUXPXHXHXPXPX$X9 >                         C fX6X5X9XCXSXZX:.H z f s [ aXgXn     r s                           6 6 z :     . C -.:.H.$.u r s s z z ~ @.d   @ B uXKXKXDXSXKXKXKXKXSXnXnXxXhXsXXX X|. X/.R.P.S.5.5.5.n.J. XxXiX( a s 0         & .   Q 2                                                                                                   ",
"                                                                                                                                                            > x rXrXNXVXUXPXHXHXHXHXGX*.9 ;                     X &X6X<X<XfXCXZXx.H H l s f A.xXK.$     W r                         O 8 5 s .     y :.0.U.n & r s s z z ~ ' H = y &XZXSXAXAXSXKXKXLXKXAXbXbXjXhXsXXX X|.|._.R.P.S.v.5.5.n.R.XXxXiX( s s s =       O &   q Q                                                                                                     ",
"                                                                                                                                                            > V NXrXNXNXPXUXHXHXHXVXGXFX%.9 #                   c fX5X,X9XfXfX*XH H z s s H (.dXC     X ^ :                         > > 8 &     X x.w.r.n @ > s s z H ~ W f u #XZXnXxXxXbXAXDXKXDXSXcXxXnXjXhXsXXX X|.|.!.R.P.F.n.5.6.n.R.XXbXiX( s s s 0 .       = . X ( 2                                                                                                     ",
"                                                                                                                                                          . , %.NXrXrXNXHXUXHXHXVXVXNXVXFXB 9 #                 k.9X5X9X9X&.H.W z H f s s :.aX-X<     * O.*                       . 6 6 ;       c H.w.$.> 6 s f f H H z z *.BXSXdXpXdXvXAXDXSXSXAXxXiXcXxXjXhXsXXX|.|.!.R.T.P.S.n.n.m.W.XXbXdX( d d s a +     . * &   t Q                                                                                                       ",
"                                                                                                                                                          . 6 p.rXeXrXeXGXUXPXHXVXNXrXrXGX;Xk 9 .             < ;X9X0X9XB q ! s z z s s s H.dX&.      w :..                       & 8 ;       X &.-.! r r j z z z z s $.;XJXcXpX XsXxXxXbXnXnXmXcX(.dXxXjXhXsXXX X|.!.R.T.P.F.S.S.F.W.sXbXdXO.h d d f 5 .     : 5 . $ o.-                                                                                                       ",
"                                                                                                                                                          . , $X8X8XrXeXVXUXPXGXVXNXrXrXNXGX$X9 >             B fXBXx.q > j j r l l s 8 z iXaXy       c &.                        6 > y #     y -.! r s l z z f s k $XZXKXgXpX`. XaXdXdXxXbXbXdX~.~.xXjXsXsXXX X|.!.W.R.T.P.P.P.T.!.hXnXcX:.h h h h s :     : e =   m m                                                                                                         ",
"                                                                                                                                                          o 9 *X1X8X8XeXNXUXPXHXVXVXrXrX0XNXBX%.9 #         X $XBX*.6 8 j z r 8 j s 8 s ! cX%XX       M n                       o 6 k %.X   . m ! 6 r l z z f k *.MXSXCXgXpX`.`.`.pXpXxXnXcX(.F.S.{.jXsXsXXXXX|._.!.!.W.T.T.T.E._.sXAXbXA.h h h h h a 5 + = r 5 . 1 [ *                                                                                                         ",
"                                                                                                                                                          @ y =X1X8X8XeXeXPXPXHXVXVXrXrX8XrXNX;XB 6 #       4 9X*.> 8 l H z 6 r s > 8 7 c cXC         &.w                       o k y.y     > ! q 6 l l f z *.uXJXAXcXdX`.`.`.`.`.pXxXAXgX~.P.S.P.sXhXXXXXXX X|._._.!.W.E.E.!.|.sXAXbX/.~ h S h h d r e 0 r r + O ^ d                                                                                                           ",
"                                                                                                                                                          & B 2X1X1X1X8XeXHXPXHXVXVXrXrX8X8XNX0X=Xk 6 ; .   V *.@ 6 j H H z 8 r 8 > s + C fX3     . $ :.-                       q -.>.@     j j > l s s $.;XJXKXAXnXdX`._.~.I.~.3XcXAXiXG.P.F.P./.sXsXXXXX X|.|.|.|.!.!.!.|.|.sXnXbX|.o.T T T S h s r r a a 7 + u @.*                                                                                                           ",
"                                                                                                                                                          & *.8X1X1X1X8XeXGXPXHXVXNXrXrX8X8X0XBX0X&Xk 9 6 > $.# @ r z G H l 8 6 6 s r . x.$X&     + > *.X                     & ' y.y     - ! 6 s i k $XFXLXSXAXcXaX`.).I.e.e.(.xXcX-XG.I.P.P.R. XsXXX X X|.|.|.|.|.!.|.|. XsXnXvX|.v.T E R T T h a a s a a 5 1 O.m                                                                                                             ",
"                                                                                                                                                          - $X8X2X8X8X8XeXVXUXHXNXNXrXrX8X7X8XrXBXBX$Xj 9 9 9 o > j H G H j i l 6 H =   $XB o   o & 2 C                     . j -.$..     u j i j *.MXJXCXcXcXdX3X`.).I.q.e.^.gX3XH.I.I.I.I.R./.sXsX X X|.|.|.|.|.!.|.|.XXjXAXbX].m.] ^ ^ R R T d s s s s a 5 Q Z.>                                                                                                             ",
"                                                                                                                                                          - *X8X2X8X8X8X8XNXUXGXNXNXrXrX8X7X8X0XNXBXGX>.9 9 @   6 j H H l i l H H H . % %X-     = & y c           . #       ; G $.+     . > j *.;XZXCXgXaX6X3X3X`.).D.e.D.(.aXK.D.I.I.I.I.I.R.`.sXXX X X|.|.|.!.!.|. XXXxXSXAXXXV.+.] ] ^ R E T h d g s a e h S.:..                                                                                                             ",
"                                                                                                                                                          4 2X8X2X8X8X8X8XNXPXVXNXrXrXrX0X8X7XrXrXBXGXBXV 6 . . 8 j G H j 8 G J  .q   y k..   . & & y 4         X x y     & j G =         y ;XZXCXfX3X4X4X4X4X4X^.D.D.I.(.iX~.G.I.I.I.I.I.R._.sXsXXX X X X_.R.R.!.|.sXxXSXSXhXE.6.o.o.] ^ ] ] S h h d s a d O.~.c                                                                                                               ",
"                                                                                                                                                          N 7X8X2X8X8X8X8XrXPXNXNXrX0X8X8X8X7X0XNXBXGXGXMXy . @ 6 r H H > r z } ' .   y B     & + & y -       # %.a.#   & i G ;       % Z BXBX6X5X4X,X4X4X4X^.U.D.G.^.aXiXG.I.R.I.R.I.I.I./.sXdXsXXXXXXX|.R.R.W.|.sXxXSXSXjX].S.2.+.] ] ] +.^ T S h h s s ^ Z.K.%                                                                                                               ",
"                                                                                                                                                          V 7X8X7X8X8X8X8X8XHXNXNXrX8X7X7X8X8X0XNXNXBXGXJX%.> > > 8 s j & z ' 8.r     N N o . ; + + y @     - %.a.x   @ 6 j 8     . y $X7X9X,X,X,X5X4X4X4XY.D.D.Y.3XgXiXG.R./.R.I.R.R.R./.sXdXdXsXXXXX XW.R.R.|.sXxXSXDXxX|.T.5.4.+.] ] +.#.R T h h h g T O.~.C                                                                                                                 ",
"                                                                                                                                                          *.2X8X7X8X8X7X7X8XGXNXrXrX7X2X7X8X0X0XNXNXNXNXBXB 8 8 6 6 & 6 > H } ' @     B y ; & & + o 6     X %.a.,.,   > > j + o - *.:Xi.:X:X,X5X5X5X4XY.U.D.U.^.aXgX3XG././.R.I.R.R.R._.sXjXjXdXsXsXXX_.!.!._.sXjXAXSXvXXXT.v.4.#.+.o.o.c.+.R T S h h h o.q.K.3                                                                                                                 ",
"                                                                                                                                                        X $X<X9X7X8X8X2X7X7XGXGX0XrX7X<X2X7X8X0XrXNXNXrX;Xk 8 8 6 8 o & > H ' j     . B > ; ; . + @ ;     y 9.9.P & 6 ; 6 6 6 $.=X,Xi.:X,X,X,X,X,XY.Y.Y.Y.(.3XgXgX~.I.`.{.R.R.R.~.~. XdXjXjXjXsXsXXX|.!.!.|.hXjXnXSXvX.XE.n.6.4.#.+.+.#.c.] R T T S S [ 5.D.C                                                                                                                   ",
"                                                                                          3 X                                                           - *X<X9X7X0X8X2X7X7XBXGX8XrX8X2X<X7X8X0X0XrXrX8X=X9 8 8 8 8 + > 8 J ' -     % N > ; ; . + # #   # ;.a.,.j ; 8 6 6 k *X8X>Xf.>X,X,X:X:X:XY.4X3X3XaXfXfXiXI.P._. X~.~._.`. XsXjXjXjXjXjXsXsX X_._.|.jXvXAXDXnXXXE.n.n.v.4.#.+.o.n.4.] R T T T ~ q.5.K.3                                                                                                                   ",
"                                                                                          3 V X                                                         4 <X<X9X7X0X7X<X2X7XBXHX8XrX0X2X<X2X8X0X8X2X1X1X$X9 8 8 8 8 6 i G =.!       3 y & > & & @ # X   k a.9.U 6 6 8 k p.8X2X>Xf.>X>X>X:X:X:X:X3X6XfXfXfXaX^.I.I._. X~./. XsXsXsXjXdXdXjXjXjXsXXX|.|. XjXbXAXDXAXXXE.m.m.n.4.4.+.+.#.n.+.] E R R R @.5.D.*.                                                                                                                    ",
"                                                                                            Z #X%                                                       N 5X5X9X5X9X7X,X<X2X0XGX8X0XrX7X2X2X8X8X2Xd.f.1Xp.8 j 8 8 i 8 l =.8.y       4 - o > @ > o ;   @ Y 9.Y l 6 9 %.;XrX2Xf.f.>X>X>X<X,X:X,X6X6XfXfXY.H.D.L.R./. X_._.pXjXxXjXdXdXdXjXjXjXhXsX X XsXxXvXAXKXSXsXQ.m.m.m.c.4.+.+.+.c.4.o.] ] ^ E ] q.@.-X3                                                                                                                     ",
"                                                                                            - MXMXN .                                                   Z 5X5X7X5X7X5X,X<X2X7XGX0X8XrX7X7X7X8X8Xd.9.y.=X%.8 j i i i 8 $.w.-.@       ,   o ; & 8 + ; . p ,.U p 8 x *XrX2X>X>Xf.f.f.>X7X<X:X5X9X5X3XH.w.e.r.D.I.R._._._. XdXbXxXjXdXjXjXjXxXjXsXXXXXsXvXbXAXKXSXhX].V.B.B.c.4.+.+.o.#.4.#.+.] ] ] ] 5.] H.k.                                                                                                                      ",
"                                                                                            @ >.GXFX@X%                                                 k.5X5X9X5X5X5X,X<X<X7XGXNX2X0X0X7X8X8X>X9.9.9.=XB 8 l j j i j y.t.k         &   & & ; 8 6 8 9 P P p p >.8X7X:Xf.>X>Xf.f.>X7X,X:X<X,X:XH.w.w.w.r.r.D.I.I.~.~.`.aXcXbXxXjXjXjXxXvXvXjXhXhXjXvXbXmXKXKXjX].T.V.V.n.4.+.o.o.o.#.4.4.+.+.+.+.5.@.[ -X4                                                                                                                       ",
"                                                                                              B 7XKXDX;XN                                             X %X5X5X9X5X5X5X,X5X<X7XGXNX2X0XrX0X8X7Xy.=.=.;.=Xk i l p p i $.:Xt.6 .     . &   ; ; 8 i j p F F p x *X8X>Xf.i.f.>Xf.f.2X2X>X:X:XU.y.r.r.r.w.w.w.r.D.D.L.L.~.pXcXnXvXjXjXjXvXbXmXvXlXlXvXvXvXbXDXKXjX.XE.E.V.c.4.+.+.o.o.+.4.4.4.4.4.v.5.5.] K.#X.                                                   . X                                                                 ",
"                                                                                              y y.BXDXSXZXk.%                                         3 ;X4X5X9X5X5X5X5X5X<X7XGXGX2X8XrX0X0X2X8.I I -.*Xk p A l p l t.i.-.8 &   . + ; ; 8 i l F p l F l >.=X>Xf.i.i.f.>X>X>X2X2X>X:X:Xi.t.t.r.r.w.w.w.r.w.e.r.r.I.`.gXnXbXxXxXxXvXmXmXmXvXvXvXmXbXmXDXKXjX[.'.E.V.c.4.+.+.+.o.+.#.4.4.4.5.S.S.5.@.q.fXN                                                 . 4 c %                                                                 ",
"                                                                                              $ -.y.ZXSXSXKX;XN : +                                   4 uX5X5XfX5X6X6X5X5X<X7XBXBX0X7X0X8X0X>X=.=.I -.$Xj l F A A =.i.t.l i 6 & o ; 8 i p F P F i p $.*X2Xf.d.i.i.f.>X1X1X2X1X2X>Xf.t.t.t.t.t.w.w.w.r.w.w.e.r.L.).3XcXbXbXbXbXbXmXmXmXmXbXmXmXmXmXKXLXjX[.'.E.B.b.4.4.+.+.+.+.#.c.c.4.c.F.F.5.5.@.iX%X.                                             $ c &.&.%                                                                   ",
"                                                                                                $.0.-XLXSXSXSXZXk.u 1 * X                             - ;X6X6XfX5X6X6X5X6X<X7XrX=XBX8X2X2X8Xy.=.=.P ;.>.p l G G G t.t.-.p i 8 8 6 p p p F =.P p l >.=X>Xf.d.y.i.i.d.2X8X8X1X2X>Xi.t.t.t.t.t.w.w.r.r.w.w.w.r.D.~.).dXbXbXbXnXnXmXmXAXAXAXmXSXAXAXKXLXjX[.'.E.B.b.c.4.#.+.+.+.4.c.c.c.c.F.R.S.5.5.G.CXN                                         % w Q :.A.Q O                                                                     ",
"                                                                                                u w.w.BXLXSXAXAXDX;XB t q 1 $                         = $XfX6XaX5X6X6X5X6X5X7X0Xy.7XNX>X>X>X9.=.I I y.%.p A G G -.t.t.G p p i i p F A F I P l P y.y.9.9.;.;.9.-.P %.NXrX2X2X>Xf.t.t.t.t.t.t.w.t.t.r.w.r.r.r.U.).pXxXbXnXnXbXmXSXSXDXSXAXDXDXDXLXLXjX[.'.'.V.N.b.4.4.4.4.#.4.c.n.n.n.F./.F.5.5.S.gX%XX                                   % c ( :.O.@.:.n X                                                                       ",
"                                                                                                - w.0.H.GXDXAXAXAXDXZX$Xn t t : O                   + 6 *.cXaX6X4X5X6X5X6X5X9X;X9.y.8X:Xf.f.8.U I I d.$.A G G L 8.i.8.F l p p p G G L I F F P -.I P F F F F F F F >.NX1X1X>Xf.i.t.t.t.t.t.t.i.i.t.r.r.r.D.U.).3XgXxXbXnXnXAXSXDXKXDXKXLXLXIXUXUXbXoX[.'.C.B.N.b.4.4.4.4.4.c.m.b.b.n././.v.6.5.~.CXy                               $ y &.l.Z.@.o.O.Z.n .                                                                         ",
"                                                                                                . :.w.:.-XJXSXAXnXnXSXKXuX*.d t q = .               = 8 k fXgX6X4X4X6X5X5X5XfX>.=.-.<Xf.f.t.8.=.I I d.P G G G L U t.U A A A A F G L I P F F l l F l p l F F P U I =X8X1X>Xf.i.t.t.t.t.i.i.i.i.i.u.u.D.U.Y.`.pXdXxXxXbXAXAXSXDXDXDXLXUXUXUXUXUXKXlXoX[.'.C.B.N.b.4.4.4.4.c.n.m.m.n.~.sXI.n.n.F.gX#X.                         $ y &.l.J.S.#.+.@.5.Z.n .                                                                           ",
"                                                                                                  n r.-.:.fXSXAXAXnXnXAXSXSX%Xn t t q : + .         = r q %XcX6X4X4X6X4X5X5XBX-.' L :Xf.f.t.8.=.I =.y.G G L L L U I U F F F F G L U U P F A l p p F %.$.F P -.-.%.eX1X>Xf.d.i.t.y.i.:X>X:X:Xi.i.i.U.U.^.6XaXdXgXxXxXAXSXSXDXDXKXLXUXUXUXUXUXIXAXlX+X[.'.C.V.m.b.c.c.4.4.c.b.m.m.Z.gX`.S.S.F.{.zX4                     X 4 &.A.R.R.F.n.5.5.5.S.Z.v                                                                               ",
"                                                                                                  < r.:.-.H.CXAXAXAXnXnXAXAXAXuX*.d d t t q > = & : q r r *.CXaX^.Y.4X4X4X5XuX' ' J y.:Xi.t.8.=.I 8.y.G L =.L L I P U I F F U I U U P P P A A P ;.=X>.F P I P F *XeX1Xf.f.d.d.f.>X<X<X>X,X:XU.U.Y.4X4X6XaXgXaXdXgXnXAXSXSXKXLXIXUXUXUXUXUXIXDXvXkXoX[.'.'.C.V.N.b.4.4.c.b.n.B.v.yXcXR.P.P./.xX#X                $ 4 M l./.W.T.F.F.n.n.n.S.F.Z.w                                                                                 ",
"                                                                                                  X :.w.-.0.3XSXAXAXSXAXAXAXnXnXSX;X$.d d d t r r r r r r B CXaX^.Y.4X4X4X6X-XJ K J -.,Xi.8.8.8.I 8.t.G =.=.=.=.I I I Y I U =.;.Y U U P P ;.p.=XwXp.F P P F F U NX1Xg.f.f.f.f.>X2X2X2X2X<X,X:X,X5X6X6XaXaXaXpXdXcXAXSXDXLXIXIXKXLXUXUXIXLXSXvXkX+XoX[.'.'.C.V.b.4.4.b.b.b.m.n.H.ZX XP.R./.hXzX4           $ w M l.J.F.m.m.m.n.m.m.F.F.F.P.Z.w                                                                                   ",
"                                                                                                    n r.:.0.r.fXAXAXAXSXAXAXAXSXnXSXZXx.m d d d t t r r d ! ;X6X^.Y.^.4X4XaXH.J J J -.<Xi.8.8.8.=.t.8.L =.=.8.-.I U U Y U Y 9.9.Y U Y >.=XeXqXwX=XP P P F F P d.eXg.g.f.f.f.1X1X8X8X7X7X<X,X<X9X9XfXaX6X6XpXaXgXAXSXKXLXLXAXvXjXDXUXIXKXnXlXkXoX[.[.oXoX[.'.V.b.4.4.4.4.b.m.5.fXxX_.R._.sXbX#X.     @ 2 n O.v.v.v.v.m.m.m.m.m.F.F.F.T.T.l.2                                                                                     ",
"                                                                                                    2 q.0.0.w.Y.CXAXAXSXLXKXSXDXAXnXAXSXuX&.b d d d d s m 5.K.fX4XY.Y.4X3XfX>.K J J ' ,XU.t.8.8.8.i.8.L 8.-.t.-.=.9.9.9.Y 9.9.9.9.=XeXVXtXqXqXqX;.P P F P P I eX1Xg.g.f.f.1X1X8X8X8X8X7X7X7X9X9X6X6X6XaXaXgXcXSXSXKXSXbXjXXXXXxXUXIXDXvXOXoX[.[.'.'.E.T.M.m.4.X...X.+.4.m.4.K.nXsX/._.XXjXcXM 5 1 v Q o.+.#.v.n.F.F.F.F.m.m.F.T.T.T.T.l.2                                                                                       ",
"                                                                                                    @ :.q.0.w.r.fXAXAXAXJXIXIXLXDXbXbXnXSXCXx.m d d d d W S.A.fX3XY.Y.3X6XfX>.' K J K H.U.t.t.8.8.i.8.8.y.t.t.9.9.9.a.a.a.s.1XeXVXVXVXtXqXqXtXd.P P P P U U >.wXg.g.g.f.g.1X1X8X8X8X8X8X9X9X5X5X6X6XfXcXCXSXSXCXgXdXsXXXXXXX.XAXUXKXxX.X'.E.E.C.N.4.1.1.1.X.X.) ) X.X.c.c.O.zXxX X_.XXhXbX-Xd d E o.#.#.v.m.F.T.T.T.P.F.m.F.T.T.T.T.j.<                                                                                         ",
"                                                                                                      $.e.q.q.q.H.CXAXSXLXPXPXIXLXAXxXxXxXnXnX-X( b b h Q P.q.fXaX).).3XaXfX:.' K J J y.Y.i.t.t.t.U.8.8.i.y.y.9.9.d.8XNXVXVXtXVXVXVXtXtXtXtX;XU P P P P 9.U =XwXh.g.g.g.1X1X1X1X8X8X7X7X2X,X,X5X6XfXCXSXJXCXaX`.|..X|..XXX|.sXLXLXdX!.E.B.m.b.4.1.X.X.X...) ) ) ..X.#.c.#.-XnXsX_. XXXjXSX&.a T #.v.m.m.F.T.E.T.F.m.P.T.T.T.T.T.P.O.%                                                                                           ",
"                                                                                                      u e.0.q.q.q.3XDXDXKXIXPXPXLXDXbXxXxXxXxXxXdXx.Q m ^ P.n.-XgX)._.pXxXcXw.} K K K 0.Y.i.i.t.u.,X8.t.i.i.f.1XNXGXPXUXVXVXVXVXVXVXVXVXVXeX;.P P P P ;.U >.qXwXh.g.g.h.g.1X1X1X1X2X<X<X<X,X<X9XCXSXZXfX3X)._.|..X|.|..X].|.xXLXgXR.m.c.c.4.X.) ) ) ) ) E ) ) ) ..X.4.c.l.CXsX|.|.XXhXAX;Xd g #.m.m.m.M.T.P.m.n.n.n.P.E.E.E.T.T.l.%                                                                                             ",
"                                                                                                      - :.@.q.q.0.D.CXLXLXIXPXPXLXKXSXbXvXvXxXxXjXxXyX&.^ T.P.H.gX_. XsXcXCXq.} ` ` ` =.U.i.U.i.U.,Xt.U.,X0XGXPXUXUXPXPXPXHXVXVXVXtXeXeX1Xs.Y P P U Y 9.U ;XtXqXqXh.h.g.g.g.g.g.f.>X>X>X:X5XfXBX;X*XD.L.~._.|. X|.|.|.!.!.XXAXzXT.m.4.+.o.) E E E R R R R E R R ) 4.b.Z.zXxX|.|.|.XXvXSX&.d / m.m.M.M.M.m.m.n.n.n.n.m.Q.'.E.W.l.<                                                                                               ",
"                                                                                                      . &.[ q.q.q.e.^.JXUXIXPXUXKXDXSXAXbXvXvXvXxXvXbXzXK.F.R.Z.iX|.XXdXAXfX3. .` ` ' -.U.u.U.i.Y.5XBXZXJXUXUXUXUXUXUXUXUXUXHXeX1Xg.g.s.s.9.U I U U 9.Y ;.VXtXtXtXh.g.g.g.g.s.f.f.g.>X>X2X9X*X>.-.0.L.I.~._.|.|.|.|.R.R.!.jXcXR.n.#.] E R R R R R T T R R R S R X.4.Z.fXAXXX|.|. XjXAX-Xd b c.m.m.m.m.m.m.n.m.m.m.m.m.'.].].A.<                                                                                                 ",
"                                                                                                        n [ @.q.q.q.D.fXUXUXUXUXKXSXSXnXmXmXbXbXvXbXbXvXAX/.E.n.3XXXXXjXSX3X . .` } } 0.D.U.U.U.Y.9XPXJXJXPXPXUXUXUXPXUXUXUXPXeXg.g.s.a.9.,.U U U ,.9.U s.tXVXVXtXwXh.h.g.g.g.g.1X1X1X=X>.! G ' 0.L.L.I.R._.!.!._.R.I.R./.xX/.v.+.R T T T T R R T S T R T h S E X.v.yXcXxX|.|.|.sXbXCXQ a o.m.m.m.m.m.m.m.m.m.m.m.m.T.].].K.4                                                                                                   ",
"                                                                                                        2 ^ ' q.q.q.D.~.JXUXUXUXLXSXAXnXmXmXnXbXbXvXnXbXnXpXE.B.K.hXhXjXSXH.<.| `  . .e.U.U.Y.Y.4XfXJXJXGXGXPXPXHXPXPXPXPXUXUXHXqXs.a.a.9.,.U U Y a.,.;.eXtXVXtXtXtXqXwXh.h.wXqXeX=X>.P A G J 0.e.e.L.L.I.I.W./.P.G.I.R.sX{.5.] T S S S T T T T T T R S g g T R +.-X-XxXdX|.|.XXvXAXx.e b c.m.m.m.m.m.m.m.m.m.m.m.m.E.].K.4                                                                                                     ",
"                                                                                                        $ W W 3.q.q.D.G.aXUXUXUXLXSXAXnXmXmXnXnXnXnXbXmXnXgXT.T.G.hXkXlXAXr.<.| {  .3.L.U.).).`.6XZXJXJXGXJXPXPXHXPXPXPXPXPXPXPXVXwXg.g.a.9.,.Y ,.a.Y s.PXHXVXHXHXVXtXtXqXtXVXNX>.F G G G L ' 0.0.e.D.L.L.I.S.e.S.D.G./.XX#.R S h h h S S S S T R R T g g g T ) H.l.(.jX X_. XjXmXuXd d o.m.m.m.m.m.m.M.F.T.T.m.m.T.].K.4                                                                                                       ",
"                                                                                                          z S @.q.e.S.G.~.ZXUXPXIXSXAXbXvXbXnXnXnXbXbXnXnXbXR.E.J.sXkXlXcX:.| | { <.3.~.~.3XpXpXaXZXJXJXGXJXPXPXPXPXPXPXPXPXPXPXHXtXqXg.9.9.9.9.a.,.Y eXPXPXPXPXHXVXVXVXVXHX;XU F G G G K J 8.0.0.e.e.e.e.3.3.S.S.D.R. XO.S h f g f S h f g h R T T g g g g R l.( j.sXXX_.|.sXvXCX&.a o.m.m.m.m.m.M.T.T.E.E.F.m.P..X{.c                                                                                                         ",
"                                                                                                          q H [ q.Z.F.G.R.iXIXPXIXKXAXbXhXsXjXbXnXnXbXbXnXbX(.T.T.XXlXlXfX .| | | 3.e._._.sXsXsXdXJXKXJXJXIXPXPXUXUXPXPXPXPXPXPXPXPXeXa.9.9.9.9.9.U ;.GXUXUXUXUXPXPXHXHXHX=XP F F F l H G } 0.0.0.3.3.<. .3.D.S.5.G./.:.f g g s s g s a g g T R h g a a g T :.( o.l.sX_./.XXjXAX%Xd / m.C.V.V.V.V.T.E.E.E.T.F.W.sXdXc                                                                                                           ",
"                                                                                                          = W ` e.Z.S.I.R.{.cXIXKXDXSXmXxXsX XXXsXxXbXnXnXmXgXF.T.{.hXlXfX| { | | 6.e.`. XhXhXjXxXLXKXKXLXIXIXUXUXUXUXPXPXPXUXUXUXNXf.a.9.9.9.9.9.U s.HXHXPXUXPXHXVXtXtXp.P F F A l l A K  .<. . . .} } 0.U.D.3.S.R.:.s s s a e a a e e s g S T g e e a b &.! E E z.XXW.|.sXxXuXm E n.E.'.E.C.V.V.E.'.E.W.].|.hXjXC                                                                                                             ",
"                                                                                                          @ ~ ` 5.e.S.P.I./.XXCXDXAXSXAXAXxXsX X|.|. XsXxXAXAXR.m./.jXvX3X{ { | | 7.7. XXXhXlXxXxXIXLXLXLXIXIXUXUXUXUXUXUXUXUXUXNX1Xf.d.9.9.9.9.Y U a.wXqXtXtXtXqXqXqX;.P F l l l l l G K ' ` ` } } } e.L.D. .e.~.l.s e a e : : 5 + * s s g S g 5 5 e d &.&.T R d (.|.W.|.sXzX&.g c.V.E.E.E.E.E.E.}.}.W.}.{.K.{.k..                                                                                                             ",
"                                                                                                            ! | 3.q.e.F.P.R.|.XXSXAXnXAXAXnXsX X|.|.!.!.|.sXbXpXn.G.jXvX3X{ { | | 7.7.XXOXhXvXhXnXIXLXLXLXLXIXUXUXUXUXUXUXUXUXGX0X,Xi.y.9.9.=.=.I I a.wXwXwXwXwXqXeX;.F F l l p p p l J l H } <.0.0.r.u.u.0.<.I.A.q : 5 5 o   .   . 5 e e e h : O & e &.&.d S a ( sXW._.|.hXx.r E v.v.5.@.^ Q t 1 2 % $ % - 1 < .                                                                                                               ",
"                                                                                                            n 3. .5.q.e.F.P.!.].dXSXbXnXAXAXbXsX|.].!.!.!.].|. XF.F.jXlX-X{ { | | 7.7.XXOXlXvXhXAXIXLXIXIXLXIXUXUXUXUXIXIXUXBXBXfX:Xi.t.8.U I L I I d.1Xg.g.g.1X=XI F F l l p j l l J H H 0.0.w.r.u.U.u.w. .L.G.w .   + .         * + + : e a +   + c &.d g a h z.pXW.|.XXK.w d o.^ b w : : 5 +       . . . .                                                                                                                   ",
"                                                                                                            w D.| 3.5.5.S.F.W.E.W.CXSXvXbXmXmXvXXX].!.!.!.!.].].!.F.pXlX-X_ { | | 7.n..XOXlXlXhXSXIXLXIXIXIXIXIXIXIXIXLXIXZX6XfX5XY.t.8.=.L L L L I d.>Xg.g.s.d.P F A l l l H p s H H } 0.w.w.w.r.U.U.w.<.e.I.n                 . o     : a &   + c C t a a a t k.|._.|.{.c . q q : + + + & O                                                                                                                                   ",
"                                                                                                            % H.3.3.5.5.e.S.T.T.T.{.SXbXxXvXvXvXlXXX].!.!.].].].].n./.lXK._ { <.<.n.P.[.kXkXkXhXDXUXIXIXIXIXIXLXLXLXLXLXZX6X3XaX).U.8.=.L L L I L I f.f.f.>X;.G A l l l l ' ' s H ' 0.e.0.0.8.w.u.U.r. .e.I.$..                       & 5 &   * t C t 5 a 5 = X z._._./.l.X     . + .                                                                                                                                           ",
"                                                                                                            . z.e.| 5.5.e.S.P.P.P.P.gXAXjXjXlXlXlXjXXX].].].].].].m.W.hXA._ _ 2.<.n.P..X+XkXhXhXKXUXIXIXIXIXLXLXKXKXLXSXaX4X3X3XY.r.8.} K K } } L =.:Xf.f.9.G A l l l l J 0.H J 0.e.3.0.<.<.8.w.U.u.} 0.I.:.-                       . : &   O q C c = e &     - K.W.R.G.4                                                                                                                                                       ",
"                                                                                                              C S.@.3.7.7.S.P.n.S.P.~.CXvXhXOXhXhXOXOX.X.X.X]..X.XT.P.hXZ.R _ 2.<.P.T.oXOXkXOXhXLXUXUXIXIXLXLXLXKXKXSXdX X`.pX).u.0.} K K K 8.} L w.:XU.>.J H l A l l l J J ' 0.0.} ` } } 8.r.<XY. .} L.D.w                         & & . & : n c = d 0       c /.F.G.&.                                                                                                                                                        ",
"                                                                                                              4 D.3.3.e.S.I.P.6.5.F.S.3XbXhXXX.XhXXX.X.X.XoX.X[.[.!.F.|.5.D _ 2.2.P.Q.oX+XkX.XhXIXUXUXIXLXKXLXKXKXSXsX X X X XI.e.<.} ` K =.8.K } t.:Xw.J H l J ' H H J J ~  .} ` J ` } } 8.-.y.U.} 3.G.n & .                   . + O + = : u u * d d .       c R.S.l.-                                                                                                                                                         ",
"                                                                                                              $ :.3. .e.L./.P.5.5.5.n.v.dXhXOX.XXXOX.X.X.XoXoXoX.X].B.W.o.D R 2.2.P.].oX+XoX].hXIXUXUXIXKXKXLXKXSXsX|. X X X_.L.3.{ ` ` ` w.0.K =.i.y.' J H J [ H H J ` ' ` ' ` ` K ` } ` K J ` D.3.S.! = =                   + + . * : * w c 2 t W +         M F.A.c                                                                                                                                                           ",
"                                                                                                                &.3.| 5.P._.S.5.5.5.5.4.G.xXOXOX.XOX.X.X.X.XoXoX[.].B.W.] D D 2.2.P..XoXoX].'.hXUXUXUXIXDXDXKXKXjX|.|.XX|. X~.e.<.{ ` ` :.^.0.} 0.0.` ` J J [ H H H ~ ` ` } ` K J H -.' K J H { e.L.O.: : . . .           . > +   * : * = q y 2 ( d           ( S.&..                                                                                                                                                           ",
"                                                                                                                c @.| 3.R._.5.3.3.5.5.2.5.dXhXhXXXOXOX.X]..XoX.X[.].m.c.R S D X.6.T.oX[..XE.'.jXUXUXUXKXDXDXKXbX.X|..X.X|.|.I.6.| { ` { ^.`.<.<.0.` ` ~ J  .~ J J J ~ [ [ } J J -.:.' K K J D  .L.D.w : o O & .         - q @   = : & O O - - n Q *         X l.G.w                                                                                                                                                             ",
"                                                                                                                = [ | 3./.~.3.3.2.5.6.4.+.K.hXOXhXhXhXoX.X.XoX.X].'.V.4.R S D _ m.E.oX[.].B.Q.dXUXIXIXDXSXSXAXXX.X.XOXOX.X].n.2.| { { D.aXI. .w.{ ` ` `  .[ ~ ` ` |  .[ ` [ y.;XH.K ` ` J D D 5.W.n 5 5 : 5 .       O u u X   = & .         w Q q           - A.&..       . O                                                                                                                                                   ",
"                                                                                                                . W | 3./.G.@.@.3.3.n.b.4.Z.sX.XhXXXA.J..XoXoXoX].Q.m.+.T g S _ B.E.[.[.T.B.E.cXUXIXLXSXAXSXhX[..XoXOXOX|.W.6.2.| | 3.gX|.S.0. .{ |  .|  .{ | |  .3. .:.*XBXGX*X} ` } ` D f ` _.&.5 a s 7 +     . > z u .   + o           1 Q t             2 A.2       X - .                                                                                                                                                   ",
"                                              $ 4 3 % .                                                           r | | ~.S.| | 2.3.6.n.n.6.(.OXhXJ.S S ] A.].oX].T.c.D S g S +.n.'.[.Q.6.B.E.CXUXIXAXvXAXbX.X[..XoXoX.X].P.6.2.<.<.3XdX!.e.@.| 3.5.3.@.@.3.3.3.q.H.;XZXJXPX;X} ` { ` J f f Z.z.a f h a &     2 k H u .   .             O m m O             c &.      - 2 -                                                                                                                                                     ",
"                                                % Z &X$X*.B 4 3 $                                                 = { | e.3.] ] @.2.6.n.n.n.G.hXOXO.h h h D ] v.E.T.c.S S g g 4.4.'.[.B.4.T.T.ZXIXmXkXkXlXOX[.[.oX+X[.!.W.n.6.2.2.D.jXXX/.5.2.2.S.S.5.5.S.S.G.3XBXJXLXJXIX;X} J ` { K S 5 z A.h S D f &   X B -.H u .                   t Q *               n <   X 2 - -       .                                                                                                                                               ",
"                                                  . y %XZXCXfXuX;X#XZ N 4 % X                                     . S {  .| ~ ` | 2.6.n.m.B.n.{.J.h a g g h D D ] v.6.g g a S 4._ '.Q.6.n.E.F.fXjXkX+XoX.X[.].[.oXoXQ.T.P.n.6.6.6.|.OXOXR.6.n.F.P.m.n.G.3XfXSXKXDXJXLXUXuX-.K D { { D 5 & &.z S | D 7 . X B ' f r .                   $ m =               @ c     $ O O .                                                                                     X - $                                                             ",
"                                                    + $ C uXCXgXgXcXcXCXCXuX&X#XZ N 4 % X                           r ` { ~ r S ] 2.6.n.B.B.n.A.&.e e e a a h R R ) +.a a a R +.R E.B.2.T.F.5.G.W.oXoX[.].].'.[.[.Q.B.B.B.B.B.P.T..XOXXXF.F.P.T.R./.aXCXKXKXDXDXDXLXIXfXq.` J D ` D i : d u a | { s + - ! H 5 > .                     * * O + .           X $                                                                               . X % % 4 c B *.*.C 4 X                                                             ",
"                                                    . = O y x.fXCXcXxXgXcXgXxXcXcXcXfXyX%Xk.Z N 3 X                 = ~ ` ~ & r ` +.6.n.B.B.n.O.&.5 & & : e a T | R R a a a +.T T V.2.4.T.+.+.4.T.[.[.].'.'.Q.'.Q.B.N.B.B.V.E.P.XXhXXXW.T.E.{.dXCXDXKXKXSXSXKXKXLXIXfXq.<.` D D D a 7 r u 5 ` | f & > ! D : &                             . .                                                                                 X % 4 N C *.k.k.*.x.x.-X-X-X*.y @                                                                 ",
"                                                      O : O + n -XSXSXnXnXnXgXdXpX3X3X(.(.^.Y.-X*Xx.C 4 X             = 5 5   + ~ | 6.n.B.B.n.] :.t .     = 5 a | | D a a S 2.g T c.) m.v.) +.+.m.'.].Q.Q.Q.C.C.N.6.b.C.C.E.n.|.OX].Q.Q. XcXKXIXLXDXSXSXSXKXKXLXUXfXq.2.{ { D f i 5 5 t : S { S 5 = ! f : &                                                             . O O o                                 X % < y c C k.x.-XiXpX3X(.U.D.H.K.-Xx.$.u O                                                                     ",
"                                                        + r = O t >.uXJXSXSXAXnXxXdXpX(.Y.D.r.w.0.0.w.r.>.n 2 O                 : r +.6.m.n.5.] ( m         . & h | S 7 a ] | a T +.o.m.E R ) X.b.C.Q.Q.Q.B.N.N.6.2.B.Q.E.b.B..X[.|.sXCXDXDXDXDXDXDXKXKXKXKXLXUXBXD.2.2.` ` D f 7 ; r * 7 D S a = t r & + .                   .     .   . %                       . O + & + .                       X % 4 c C k.z.K.z.A.A.D.G.I.I.~.(.`.(.3XyX-X&.! m 1                                                                         ",
"                                                          * H r = s ! >.uXZXcXxXxXdXaXaXaX3X^.U.D.w.0.0.0.r.r.-.z > O             O h S T 4.2.] h M o         . : h h & 5 ) D a E ] c.#.S R ) _ 6.C.C.C.B.b.b.4.2.4.V.E.n.m.Q.XXxXAXKXDXAXSXSXDXKXKXLXLXLXLXIXfXI.5.2.2._ D D f 7 a 7 : f f a : : > o o                     .       X 4 N -               O * : e r 0 & .               $ < w n ( &.l.A.H.A.l.:.( ( [ [ @.q.S.~. XdXbXcX-Xx.! W W d $                                                                           ",
"                                                            = ~ ~ s z ~ W >.uXcXgXdXpX3X^.Y.Y.Y.Y.U.U.D.r.w.0.-.' H r o             = 0 O : ^ ] r n w       O : o = b . = ) S a ] 4.n.b h S R _ 6.V.C.B.4.4.1.X.4.N.B.m.T.XXjXvXvXmXAXSXDXKXKXLXLXLXIXIXLXIXcXI.S.3.6.<.{ D D a i f : s s 7 : > : & o                         . - N %.*.-           O : d ^ ^ T s : O           . * t Q O.O.O.O.^ W W W h h h h S ~ ] [ @.G.pXxXbXzX-X&.m s m ! 2                                                                               ",
"                                                              1 ^ [ W W [ H W >.uXcXdXpX3X^.Y.U.U.U.Y.^.^.^.Y.r.} f = .   . o .             & h s w ! .   + = a & O h & : R a 5 #.6.#.0 h e R 1.b.B.V.6.X.X._ 2.B.V./.sXvXvXkXlXvXvXmXAXSXLXIXIXIXIXUXIXIXCX!.B.3.2.6.2.{ ] D a f r 7 a & o > : & + @ o                 # 3 N *.>.>.B $         + 0 d b W o.Q = .                 O q s h h h h h h h h h h h S W ~ ^ :.3XxXcXiXx.! d 0 r ! n @                                                                                 ",
"                                                                > W ] ~ W [ W s k x.fXgX3XY.U.U.U.Y.^.4X3X6XaX3XD.' 6 +     . .               O 0 = ! -   : : h : o q : o 5 . 2 J.6.b : 0 + R b.N.B.N.X.) ) _ b.C.R.vXkXkXhXkXlXvXvXbXmXSXKXUXUXUXUXUXUXJXXXE.6.2.6.6.2.+.5.f a s 5 a 5 . = & o & ; @           X 4 B *.p.>.-.$.-.B X       + : r q > q t 1 .                   . : a f h h h h h h h h h h h S S [ H.gXfXK.:.Q d q : t m 2                                                                                     ",
"                                                                  : q h ~ z ' m 6 r n $XfX6XU.r.w.D.U.Y.^.4X3XpX^.w.' z 6 .         @ @ X       . o y u   5 5 h 5 . + :       M R.o.5 e *   / b.N.b.X.R ) R 4.C.b.(.OXoXOXkXlXlXlXvXvXbXAXLXUXUXUXUXUXIXxXQ.B.2.2.b.b.2.n.#.f s d 7 : . o + o o o         X 4 V =X1X1Xd.9.L L >.B X     : 5 5 : 5 r q * .               . . + : r d h h h h h h h h h h h h h S :.K.K.:.! W S q = q k w X                                                                                       ",
"                                                                    = * 5 f s W z 5 7 r n %XfX6XU.D.u.U.U.Y.H.&.u > = @ + o           $ B B 4 $     @ u   7 a g e .   +     X z.F.r + a o O ..b.4.X.S R R ) N.N.#.pXoXoX+XlXlXlXlXlXlXlXmXDXLXIXUXUXUXAX].B.6.2.6.N.b.b.E.| f W s 5 O o o + o       . , B p.1X1Xg.s.d.9.9.8.y.B .     + : = q m d - .       + * * : 0 e r r s d h h h S S T S S S h S S S S ~ :.l.( z h W S e > t t *                                                                                           ",
"                                                                      > O & 6 r ~ s = & & X N -XCXfX4XU.w.u $                           X < 2 * .     w O 5 g e a O         2 /.^ . O 5   : 4.4.) S g S R X.4.) :.XXoX+XkXkXlXlXlXkXkXkXlXbXDXIXUXUXLXsXB.6.2.2.b.N.b.E.T.R W W s e & + +       X y %.d.g.g.g.s.d.d.d.y.9.y.N         . 0 m Q w X       O r h h h h g g h h h h S S T T T T R R R R T T ^ O.( n q s S W h r d m 1                                                                                               ",
"                                                                      . = O . & j ' q +       @ B uXCXaXH.q                                           O . : g = a +         ( J.1     o   : 2.X.g 5 e a R ) R D A.OXoXoX+XkXkXkXkXkXkXkXlXlXvXAXKXSXxXE.4.1.X.4.b.N.V.].4.W m f ~ 0 .       @ y $.9.y.d.s.g.g.g.s.s.a.s.=XN           * q : X         + s S h h h h S T T T T T T R E ] ] ] ] ] ] ] o.:.:.n q 0 d W T h W ^ v @                                                                                                 ",
"                                                                          $ .   + H ! &           % N $X-Xu                                         . 4 < + : o 5 +       % A.O..         & X.T o O + g h h g S K.oXoX+X+XkXkXkXkX+X+XkXkXlXkXvXXX].'.b.2.X.X.4.b.B.].E.] k r ^ q       X y >.=X1X8X1Xg.1X1X1X1Xg.s.g.wXV .                         : h h h h h h h h h b T T E E E E ] ] ] ^ E ] :.:.n 1 = r h T T W ] m =                                                                                                     ",
"                                                                                  + W z +   . .   o   . < 2 *                                 X 2 n ( D.:.<     o .       c W.v           = E *     = d e 0 a Q {.].oX+X+X+XkX+X+XoXOX+XkXkXjX/.V.C.B.1._ _ 1.4.b.C.'.6.S 5 d q       4 $.! k $.$XeX1Xg.wXwXwXwXwXwXeX*.X                       . + + O O O . . O + + O O O + = + . O & : 0 Q :.( u = = + : h T T ~ W q .                                                                                                       ",
"                                                                                    & W z :         .       + - O                         % n :.q.q.e.I.&.$             . z.F.*           e d     O e e & : e l.T.].oX+X+X+XoXoXoXoXoX+XkXjXR.N.N.N.1._ _ X.4.4.b.C.B.R : 5 :     $ B :.d : 6 s G 9.1XqXqXqXtXtXtXVX#XX                         . o     .         .         O + O & * + w &.l.u + . .   0 T R ~ W t +                                                                                                           ",
"                                                                                @     = H s +                 . O                   . < n :.q.q.0.e.I.:.$               y (.] .         . b *     : e :   & t l.m..XoX[.[.[.[.oX[.[.+XkXxXR.b.b.b.1._ R _ 1.1.4.N.N.X.= . :     4 &.! r 7 r 8 s l G -.s.qXVXVXVXPX&X%                             . O + .                   o . & = w &.l.c X . .     : R ~ W h :                                                                                                               ",
"                                                                                . .     + r =                                   . 2 $.:.0.:.0.:.D.^.l.-                 k.F.d           1 t     + : 5 O     n Z.].[.].'.Q.Q.[.[.[.hXlXvXW.4.1.1.1._ R R X.1.1.b.b.X.0   .   % C l.d > 7 r 8 8 i s s l ;.d.1XeX;X$X3                               O O               . & = + O . 1 ( l.c X           : T W b q O                                                                                                                 ",
"                                                                                          . +                             . - u $.w.w.0.0.:.w.H.(.H.4                 < A.| :           e +     : : &       l.!.[.].Q.E.T.Q.[.[.lXbXvXR.1.X.X._ ) R T _ 1.1.X.1.X.0     X c z.:.s e s s e 8 8 8 8 8 j G -.P y j 6                             O $ .         . + * : * O . . * v ( u X             : T ~ h =                                                                                                                     ",
"                                                                                                                    X 3 B >.y.t.t.t.t.w.r.^.3XaXaX*.                  C Z.h O         + =     * * :       < K.].].E.E.T.E.[.[.hXbXvX~.X.X.) ) R S S ) 1.1.X.X.X.e .   2 l.Z.W s f h f s r 7 7 7 6 > k H 6 o & 6 o                         X 2 *         + = 5 5 & .     + w ( n $               = T ] d O                                                                                                                       ",
"                                                                                      +                           - $X*X:Xi.t.y.i.t.y.,X6XfXcXCX-X-                 % A.o.:           + .   . & + O       C |.!.E.E.T.E.].[.OXlXlXK.X._ ) R T h g T 1.1.X.X...1 + 5 r l.O.h f S h f a e 7 : 5 s z ! k *   + 6 &                         - u -         O + + .         O w v r O               + b ^ q                                                                                                                           ",
"                                                                                      .                           k f.>Xt.y.:X,X,X7X9XfXBXZXZXuX4                   c F.v +                 O . O       % -X].E.T.T.T.].]..XhXOXK.) ) R T S g g g X.1.X.1.X.1   : e j.v.D S S h s a 7 5 = : d O.:.y .   . = &                       + u y @                         * q q : +               = m t O                                                                                                                             ",
"                                                                                                                @ G -.1X1X8XrXNXVXVXNXGXGXGXeXc             .       M O.= .               . . . +       N jX!.T.T.P.Q.!.W.OXXXA.E T S h h g a g ) 4...#.X.0   . + M v.E S S g e 7 7 7 a b ( Z.:.<     . + o .                     : m 2                         . : 5 7 r = O           . : t *                                                                                                                                 ",
"                                                                                                                9 G -.>XeXVXHXUXUXUXUXPXHXtXV             + +     $ :.m                   .   O .       k.hXR.P.P.T.E.T.!.{.l.R h g a a a a a R 1.X.#.) 0       v v.] S h g e = & a E #.F.J.Q @       + .                       : t -                         O = : r s 5 +           O > :         O * +                                                                                                                       ",
"                                                                                                              @ G H $.d.eXHXUXUXUXUXUXUXPX;X%             + .     c :.=                       O       < yX XP.P.P.P.P.T.W.( h g a e e e e a h X.X.#.E e       t c.) R h a a a a T o.S.R.l.w                                 O : : .                         . & : 0 s q &           + = X   .       * r d v t 1 O                                                                                                               ",
"                                                                                                              9 G H -.9.g.wXtXHXUXUXUXUXPXZ                       k.m                                 C sXW.S.F.S.S.P.W.( r 5 e e : : : 5 a R 1.4.E a O     1 4.] R ) g g S ) 4.v.T.T.O.-                                   = &             .   . & .       o & 6 r 0 +           . .   O 0 :     . : a d h T ^ Q n w $                                                                                                         ",
"                                                                                                            & H l H P -.;.s.qXHXUXUXUXBX*.#                     % &.*                               X %X XF.S.S.5.S.W.( 0 * : 5 & .   . : g X.4.) h O     * o.+.S +.X.) +.b.B.T.T.Z.n $                                                   : 7 : 7 7 .     . & > r : .       . .       * h T T 0 + * : d h h T E ^ ] o.( m t 2 $ .                                                                                               ",
"                                                                                                            9 r j G G P -.s.qXtXqX;Xp.y #                       3 y                                 4 iXR.S.S.5.5.R.O.0 * = &         O 0 R 4.X.T *     O R +.T R ) E +.b.T.E.J.O.2                                                   O r f f f s &     o = : r :         + O     . t / o.o.] T h T T E E ^ ] ] ^ E T T b b W Q Q n w % .                                                                                       ",
"                                                                                                          - 6 & s j l P y.d.1Xs.x - @ .                         < X                                 C  XS.S.Z.Z.R.l.q + * +           O e +...b +       d X.) g g T +.m.V.T.F.n O                                                   & f f s 6 & o     & r r r =       . O .     * Q +.#.#.#.+.E R R T T T T T T S h h d d d h h T ~ ( ( ( n w $                                                                                 ",
"                                                                                                          > o . & 6 l -.;.d.%.9                                 X                                 . z.~.G.F.Z.R.A.t = & .             . T ) 0 .       : _ ) e 5 S #.m.T.m.Q -                                                     . 5 = O           & s l j *       O .       w j.v.4.c.c.c.#.E T T h h h h h h h S S T T R R R ~ T W W W ^ O.O.Q v 2 $ .                                                                       ",
"                                                                                                        & =       ; ' -.;.k #                                                                     4 /.I.G.S.G.K.m : &                 O t +         + R ) e 5 T 4.m.M.j.w                                 . &                       .             & z J j @               . v j.4.4.c.m.m.#.E b h h h d d d d h h T T ^ o.o.+.#.+.#.+.o.o.o.] ] ] [ ^ ^ m w = O                                                                 ",
"                                                                                                        6 &     @ z ' -.9 .                                                           . . O +     &.R.I.D.R.K.n 0 &                                 g _ a * T n.V.v.Q *                                 @ > >                                   o z ! >                 $ M v.n.m.T.M.M.m.#.E b h h h h h h h h T ^ o.#.v.n.m.m.m.m.m.F.F.F.A.A.Z.Z.Z.Z.A.Z.:.:.( n y < $                                                       ",
"                                                                                                      & 6 .   o 6 z G ;                                                               O   O .   % K.R.G.R.G.n & : O                               r ) a + Q m.m.O.w .                                 ; > + ;                                 . > > .                 < ( #.4.n.M.M.T.M.m.c.#.o.^ R T S h s r r b ^ #.5.v.F.F.J.W./.{.{.{.{.iXsXiXiXyX-XK.x.z.&.C n c 2 %                                                       ",
"                                                                                                      > o     8 W ! >                                                     . *         .         n _.I.R.~.( X O O         .                     1 ] t * ( F.#.v *                                 . > :   . >                                 . .                 X w ( o.R E o.+.+.+.o.] ^ ^ ^ R ~ R T T b b Q o.j.A.J././.K.K.K.K.x.&.&.m n n c u q 2 = : 0 : +                                                               ",
"                                                                                                    O @     > ' ! *                                                       t +                 . z./.R./.l.$   O O       . .                   $ ^ r 2 O.O.m *                                     ; &     . 8 .                                                 2 ( ^ R S h S R E ] +.Z.J.W.W.J.A.l.O.Q m b v v v v v m m m m d r s s r : & & : = + : 5 > * o                                                                   ",
"                                                                                                  . &     * ! k X                                                       t d                   < {././.A.<   . = .   . + + .                   m d u l.m -                                       . .       o k #                                             $ M A.F.F.v.O.O.l.l.l.l.l.&.n w 2 < % $ .       + = : 5 0 a s a r r s r : O       O : q 1 +                                                                         ",
"                                                                                                  + o   & j q .                                                       1 ( +                   B pX(.(.c       X . .     O                   q W n :.2                                                     ; %.,                     o                   X c l.J.l.l.&.M c 4 < $ $ .                         + 0 h h s 0 0 r a s 5 O     . : q q = .                                                                             ",
"                                                                                                . +   & 6 *                                                           q 1                     k.pXiX&..                                   $ m :.C %                                                   ; k ;.y .                                         < c w < $                                       . : e d r 5 : 5 r s s r = + . = q : O                                                                                   ",
"                                                                                                + . . = .                                                                                   $ -XsXk.$                                     n :.c .                                                   > P ;.,                                             o . + .                                           . . & : : r r 0 5 : & = = = & .                                                                                       ",
"                                                                                              . + . O                                                                                       3 iXk.$                                     < k.4                                                     @ k x #                                             + = o                                               O : e r 5 = & + = > : = O                                                                                             ",
"                                                                                              o .                                                                                           N k.X                     .               . N 3                                                       > 9 X                                               & +                                             + : 0 0 & .   . = > : * .                                                                                                 ",
"                                                                                            . @                                                                                             N %                                   . 4 4 %                                                       + &                                                 . * .                                           o = + .         . O .                                                                                                       ",
"                                                                                                                                                                                          . %                                   2 C B %                                                       . .                                                                                                                                                                                                                               ",
"                                                                                                                                                            . .                                                             . c n -                                                       . .                                                                                                                                                                                                                                   ",
"                                                                                                                                                            .                                                             . w 2                                                         & o                                             .                                                     . + + .                                                                                                                           ",
"                                                                                                                                                          +                                                               O O                                                       . - +                                             = &                                               . $ * + .                                                                                                                               ",
"                                                                                                                                                        O O                                                                                                                         * O                                           . > +                                           o : q : $                                                                                                                                     ",
"                                                                                                                                                        O                                                         O O                                                             . .                                           & > O                                         & 0 r q $                                                                                                                                         ",
"                                                                                                                                                                                                  O             : *                                                                                                         , l j o                                         . : = .                                                                                                                                             ",
"                                                                                                                                                                                                * +         . t t                                                                                                         6 ;.k .                                                                                                                                                                                               ",
"                                                                                                                                                                                              . +         . r t .                                                                                                       . i 9 .                                                                                                                                                                                                 ",
"                                                                                                                                                                                              . .         d b O                                                                                                       . > &                                                                                                                                                                                                     ",
"                                                                                                                                                                                              . .       q ^ =                                                                                                         > +                                                                                                                                                                                                       ",
"                                                                                                                                                                                                      : t $                                                                                                           .                                                                                                                                                                                                         ",
"                                                                                                                                                                                                    + : .                                                                                                                                                                                                                                                                                                                       ",
"                                                                                                                                                                                                    O                                                                                                                                                                                                                                                                                                                           ",
"                                                                                                                                                                                                                                          .                                                                                                                                                                                                                                                                                     ",
"                                                                                                                                                                                                                                        .     .                                                                                                                                                                                                                                                                                 ",
"                                                                                                                                                                                                                                        .   .                                                                                                                                                                                                                                                                                   ",
"                                                                                                                                                                                                                                                                                                                                                                                                                                                                                                                                ",
"                                                                                                                                                                                                                                                                                                                                                                                                                                                                                                                                ",
"                                                                                                                                                                                                                                                                                                                                                                                                                                                                                                                                ",
"                                                                                                                                                                                                                                                                                                                                                                                                                                                                                                                                ",
"                                                                                                                                                                                                                                                                                                                                                                                                                                                                                                                                ",
"                                                                                                                                                                                                                                                                                                                                                                                                                                                                                                                                ",
"                                                                                                                                                                                                                                                                                                                                                                                                                                                                                                                                ",
"                                                                                                                                                                                                                                                                                                                                                                                                                                                                                                                                ",
"                                                                                                                                                                                                                                                                                                                                                                                                                                                                                                                                ",
"                                                                                                                                                                                                                                                                                                                                                                                                                                                                                                                                ",
"                                                                                                                                                                                                                                                                                                                                                                                                                                                                                                                                ",
"                                                                                                                                                                                                                                                                                                                                                                                                                                                                                                                                ",
"                                                                                                                                                                                                                                                                                                                                                                                                                                                                                                                                ",
"                                                                                                                                                                                                                                                                                                                                                                                                                                                                                                                                ",
"                                                                                                                                                                                                                                                                                                                                                                                                                                                                                                                                ",
"                                                                                                                                                                                                                                                                                                                                                                                                                                                                                                                                ",
"                                                                                                                                                                                                                                                                                                                                                                                                                                                                                                                                ",
"                                                                                                                                                                                                                                                                                                                                                                                                                                                                                                                                ",
"                                                                                                                                                                                                                                                                                                                                                                                                                                                                                                                                ",
"                                                                                                                                                                                                                                                                                                                                                                                                                                                                                                                                ",
"                                                                                                                                                                                                                                                                                                                                                                                                                                                                                                                                ",
"                                                                                                                                                                                                                                                                                                                                                                                                                                                                                                                                ",
"                                                                                                                                                                                                                                                                                                                                                                                                                                                                                                                                ",
"                                                                                                                                                                                                                                                                                                                                                                                                                                                                                                                                ",
"                                                                                                                                                                                                                                                                                                                                                                                                                                                                                                                                ",
"                                                                                                                                                                                                                                                                                                                                                                                                                                                                                                                                ",
"                                                                                                                                                                                                                                                                                                                                                                                                                                                                                                                                ",
"                                                                                                                                                                                                                                                                                                                                                                                                                                                                                                                                ",
"                                                                                                                                                                                                                                                                                                                                                                                                                                                                                                                                ",
"                                                                                                                                                                                                                                                                                                                                                                                                                                                                                                                                ",
"                                                                                                                                                                                                                                                                                                                                                                                                                                                                                                                                ",
"                                                                                                                                                                                                                                                                                                                                                                                                                                                                                                                                ",
"                                                                                                                                                                                                                                                                                                                                                                                                                                                                                                                                ",
"                                                                                                                                                                                                                                                                                                                                                                                                                                                                                                                                ",
"                                                                                                                                                                                                                                                                                                                                                                                                                                                                                                                                ",
"                                                                                                                                                                                                                                                                                                                                                                                                                                                                                                                                ",
"                                                                                                                                                                                                                                                                                                                                                                                                                                                                                                                                ",
"                                                                                                                                                                                                                                                                                                                                                                                                                                                                                                                                ",
"                                                                                                                                                                                                                                                                                                                                                                                                                                                                                                                                ",
"                                                                                                                                                                                                                                                                                                                                                                                                                                                                                                                                ",
"                                                                                                                                                                                                                                                                                                                                                                                                                                                                                                                                ",
"                                                                                                                                                                                                                                                                                                                                                                                                                                                                                                                                ",
"                          . .                                                                                                                                                                                                                                                                                                                                                                                                                                                                                                   ",
"                          3 3                                                                                                                                                                                                                                                                                                                                                                                                                                                                                                   ",
"                        . N N .                                                                                                                                                                                                                                                                                                                                                                                                                                                                                                 ",
"                        3 Z Z 3                                                                                                                                                                                                                                                                                                                                                                                                                                                                                                 ",
"                      % Z @X@XZ %                                                                                                                                                                                                                                                                                                                                                                                                                                                                                               ",
"                  . 3 Z @X@X@X@XZ 3                                                                                                                                                                                                                                                                                                                                                                                                                                                                                             ",
"                3 N Z @X@X@X@X@X@XZ N 3                                                                                                                                                                                                                                                                                                                                                                                                                                                                                         ",
"                3 N Z @X@X@X@X@X@XZ N 3                                                                                                                                                                                                                                                                                                                                                                                                                                                                                         ",
"                  . 3 Z @X@X@X@XZ 3                                                                                                                                                                                                                                                                                                                                                                                                                                                                                             ",
"                      % Z @X@XZ %                                                                                                                                                                                                                                                                                                                                                                                                                                                                                               ",
"                        3 Z Z 3                                                                                                                                                                                                                                                                                                                                                                                                                                                                                                 ",
"                          N N .                                                                                                                                                                                                                                                                                                                                                                                                                                                                                                 ",
"                          3 3                                                                                                                                                                                                                                                                                                                                                                                                                                                                                                   ",
"                          . .                                                                                                                                                                                                                                                                                                                                                                                                                                                                                                   ",
"                                                                                                                                                                                                                                                                                                                                                                                                                                                                                                                                ",
"                                                                                                                                                                                                                                                                                                                                                                                                                                                                                                                                ",
"                                                                                                                                                                                                                                                                                                                                                                                                                                                                                                                                ",
"                                                                                                                                                                                                                                                                                                                                                                                                                                                                                                                                ",
"                                                                                                                                                                                                                                                                                                                                                                                                                                                                                                                                ",
"                                                                                                                                                                                                                                                                                                                                                                                                                                                                                                                                ",
"                                                                                                                                                                                                                                                                                                                                                                                                                                                                                                                                "
};
