/* XPM */
static const char *north_bonus[] = {
/* columns rows colors chars-per-pixel */
"256 256 196 2 ",
"   c #070000",
".  c #0C0000",
"X  c #140000",
"o  c #1B0000",
"O  c #230100",
"+  c #2C0101",
"@  c #330202",
"#  c #3B0202",
"$  c #2A1D1D",
"%  c #3D1D1D",
"&  c #342C2C",
"*  c #3D2C2C",
"=  c #430303",
"-  c #4B0304",
";  c #450807",
":  c #4C0807",
">  c #4D0708",
",  c #450808",
"<  c #4C0908",
"1  c #530405",
"2  c #5B0505",
"3  c #540807",
"4  c #5B0807",
"5  c #560708",
"6  c #5D0708",
"7  c #540908",
"8  c #5C0909",
"9  c #630506",
"0  c #6B0506",
"q  c #630807",
"w  c #6B0807",
"e  c #640708",
"r  c #6B0708",
"t  c #640A09",
"y  c #6C0A0A",
"u  c #730506",
"i  c #7B0506",
"p  c #730807",
"a  c #7B0907",
"s  c #730708",
"d  c #7B0709",
"f  c #740B0B",
"g  c #7B0C0C",
"h  c #6D100D",
"j  c #75110E",
"k  c #7D100E",
"l  c #7D0F10",
"z  c #7F1210",
"x  c #452C2C",
"c  c #592C2D",
"v  c #6B2D2D",
"b  c #5F5A5A",
"n  c #645B5B",
"m  c #6A5A5A",
"M  c #725B5B",
"N  c #766D6D",
"B  c #7D6E6E",
"V  c #830506",
"C  c #890507",
"Z  c #830709",
"A  c #8C0609",
"S  c #830D0D",
"D  c #8B0D0E",
"F  c #900709",
"G  c #9D070B",
"H  c #930E0E",
"J  c #9B0D0E",
"K  c #84110F",
"L  c #8C100F",
"P  c #91110F",
"I  c #93110F",
"U  c #9B110F",
"Y  c #850F10",
"T  c #8C0E10",
"R  c #930F10",
"E  c #9B0F10",
"W  c #841211",
"Q  c #8E1210",
"!  c #8C1111",
"~  c #8F1A19",
"^  c #941111",
"/  c #9A1111",
"(  c #9B1212",
")  c #971918",
"_  c #A20D0E",
"`  c #AA0D0E",
"'  c #A7070C",
"]  c #B00B0E",
"[  c #BA0C0F",
"{  c #A3120F",
"}  c #A40F11",
"|  c #AC0F11",
" . c #B40E11",
".. c #BA0E11",
"X. c #A41313",
"o. c #A91515",
"O. c #AE1515",
"+. c #AB1414",
"@. c #A61816",
"#. c #AD1816",
"$. c #AD1718",
"%. c #AE1918",
"&. c #A31D1D",
"*. c #B01616",
"=. c #B21615",
"-. c #B41615",
";. c #B31515",
":. c #B91617",
">. c #BB1516",
",. c #B41816",
"<. c #BB1817",
"1. c #B41718",
"2. c #BB1718",
"3. c #B41918",
"4. c #BC1919",
"5. c #B6211C",
"6. c #BD221A",
"7. c #9E3838",
"8. c #A62322",
"9. c #B22427",
"0. c #C31516",
"q. c #CB1416",
"w. c #C31917",
"e. c #CB1917",
"r. c #C21718",
"t. c #CA1618",
"y. c #C31A1A",
"u. c #CB1C1B",
"i. c #D41516",
"p. c #DC1719",
"a. c #D21C1C",
"s. c #DB1D1D",
"d. c #D0171B",
"f. c #E21C1D",
"g. c #C4201E",
"h. c #CD201E",
"j. c #D3201F",
"k. c #DB211E",
"l. c #E0201F",
"z. c #CC1F21",
"x. c #D31F20",
"c. c #DD1F21",
"v. c #E11F20",
"b. c #C52221",
"n. c #CD2220",
"m. c #CE2C28",
"M. c #D42221",
"N. c #DC2323",
"B. c #D62C24",
"V. c #DC2A26",
"C. c #DE2E2B",
"Z. c #D52B28",
"A. c #DC322B",
"S. c #D5302C",
"D. c #CC3330",
"F. c #D53934",
"G. c #E32323",
"H. c #EB2424",
"J. c #E42A26",
"K. c #E42D2A",
"L. c #EC2C2A",
"P. c #EB2B27",
"I. c #F32D2C",
"U. c #F02827",
"Y. c #E3322D",
"T. c #EC332D",
"R. c #EA3027",
"E. c #F3322E",
"W. c #F0382F",
"Q. c #E02F30",
"!. c #E73130",
"~. c #ED3830",
"^. c #E93B37",
"/. c #F43533",
"(. c #F33A33",
"). c #FB3D35",
"_. c #F33C39",
"`. c #FA3C39",
"'. c #E1403C",
"]. c #F94136",
"[. c #FB453C",
"{. c #FA493B",
"}. c #9E605F",
"|. c #B75E60",
" X c #846D6D",
".X c #916D6D",
"XX c #827B7B",
"oX c #8B7B7B",
"OX c #F74E45",
"+X c #C07172",
"@X c #8C8181",
"#X c #928080",
"$X c #9A8181",
"%X c #A58182",
"&X c #C58281",
"*X c #D58182",
/* pixels */
"      . . X o o O O o o o o o o o o o + K O X X X X X X . X X X X X X y 5 X o o o O O O O O + + @ = 1 2 1 2 9 e e e e e 9 9 9 9 2 2 2 1 1 1 a >.E w y.O.- # @ + + O o o X X X . . . . . .   , y           . . . X X ; / @ X X X X . . . . . . . . X X X X X X X X X X X X o o O O O o o o o o o o o X + ! + X X X X X X X X X X y 8 X X X X X X o o O O O O + @ # = 2 2 1 2 e 0 e e e e 9 9 q 9 9 2 2 2 1 1 a -.H 9 4.+.- = @ @ + O o o o X X . . . . . .   , y .       . . . . X X ; H @ X X X X X X X X X X X X X X X X X X X ",
"    . . X o O + + + O O o o o o o o o + K + X X X X X X X X X X X X o k y X o o O ; K # O + + @ # K #.3.S O.3.3.-.-.=.=.=.O.O.O.O.O.=.P 1 2 +.:.:.d :.o.- # @ + + O o o X X X . . . . . .   ; y           . . . X + P X.f o X X X X X X X X . . X X X X X X O O X X X X o o O + + + O O o o o o o o o + ! + o X o X X X X X o o S f o o o o o o o # K # + + @ # = D =.1.S X.-.-.-.=.=.O.O.=.O.O.O.O.=./ 1 2 +.:.=.f :.o.- # @ + + O o o o X X . . . . . .   ; y .       . . . . X + P X.g o X X X X X X X X X X X X X X X X + @ ",
"    . . X o + 1 u 1 @ O O o o o o o o + L + X X X X X X X X X X X X o 8 5 o o O O ; ^ L # + @ @ = ( S +.+.a.-.O.H S Z Z D 3.D d f f ^ o.1 1 S y.u.S 2 1 = # @ + + O o o X X X . . . . . .   ; y           . . X X @ / S S O X X X X X + + + + + + + @ 8 @ ; L P # X X o o O @ 1 0 - + O O o o o o o o + Q + X X X X X X X o X o 4 5 o o o o o O O # Q L # + @ # = X.S +.X.a.-.O.D a a a S :.D f f f D +.1 1 S 2.y.a 9 2 = # @ + + O O o o X X . . . . .     ; y         . . . . X @ ( K L O o o X X o + @ + + + + + + 5 # ; Q ( ",
"    . X o O - :.~.>.d w q 4 4 5 5 5 8 t X.q 5 5 7 7 7 7 7 7 7 7 7 7 5 8 : O O O O + @ g L # @ # = ( 3.y.( M.J.V.a 9 9 e X.4.y 2 2 1 f X.1 1 1 2 g +.f - = # @ + + O O o o X X . . . . .     ; y           . . X X o t X.; o o o X o 7 ! K k k k K K g / g ^ / / 4 X X o o + - -.T.;.s t q 8 8 8 5 8 8 t o.t 5 7 7 7 7 5 7 7 7 3 7 7 7 5 : O O O O O @ g L ; @ # = ( 3.y.( u.G.N.Z 9 9 e X.3.y 1 1 1 f X.1 1 1 2 f X.d - = # @ + + O O o o X X . . . . . .   ; y         . . . X X o t o.> o o o o o > ^ K k g k g g g Q g Y / Q ",
"  . . X o O 1 u.[.a.J D S S g g g g g g g g f f f f f f f f f f f f g K ^ q O O + + + @ g ^ : # = 2 f f 0 Z H D 0 2 9 ( 3.y 2 1 1 1 f X.1 - - - = w O.f = # @ + + O @ ; O o X X . . . . .   ; t         . . . X X X ; k O o o o o 5 K # O O O O O O @ K @ @ k k @ X X o o + 1 a.[.a.J D S S g g g g g g g g g f f f f f f g g g g k k k ^ t + + + + + @ g ^ : # = 2 f f 0 i D S 0 9 e / *.y 1 1 1 1 f o.1 1 - - - w O.g = # @ + + O + ; O o X X . . . . .   , y         . . . X X o # S O o o o o > L ; O O O O O O O g @ + f ! ",
"  . . X o O # u J u = # @ + + O O O O O o o o o o o o o o o o o O O O O ; Q y + + + @ @ # S / 1 - - 1 1 2 9 9 9 2 2 / +.e 1 1 - - - f X.- - - = = - w +.f # @ @ + O 4 =.# o X X . . . . .   : t     . . . . . X X X ; K O o o o 5 S @ o o o o X o X + L @ o o o X X X X o O # u J 0 = @ @ + + O O O O o o o o o o o o o o o o O O O O O # ^ y @ + + @ @ # g / 1 = - 1 1 2 9 9 9 9 9 / O.0 1 1 - - - f o.1 1 - - - - w +.f # @ + + O 1 +.# o X X . . . . .   ; y   . . . . . . X X o # K O o o o > K @ o o o o o o X O W @ o o O ",
"  . . X X O + # = = # # @ @ + + O O O O o o o o o o o o o o o O O O + + + ; ^ y @ @ @ @ # = S X.2 - 1 1 1 2 2 2 2 / +.9 1 1 - - - - f X.- - - - = - = w o.= @ @ + + : ( + o o X . . . . .   : t . . . . . . . X X X ; K O o o o K : o o X X X X X X O L @ X X X X X X X o O + # = # # # @ @ + O O O O O o o o o o o o o o O O O O O O O O ; ^ f @ @ @ @ @ = S ( 2 - 1 1 2 2 2 2 2 ^ +.e 1 1 - - - - f X.1 1 - 1 - - - w X.= @ @ + + = / + o o X . . . . .   : y . . . . . . . X X o # K O O O O g > X o o X X X X X O W @ X o o ",
"  . . X X o O + @ # = = = # @ + + O O O O o o o o o o o o o o O O O + + @ @ ; ^ y @ @ # # = - D o.S g S S S S S X.X.9 1 - - - - - 1 I / - - S X.y - = 2 X.= @ @ + + ; / + o o X X . . . . . : y . . . . . . X X X o ; K O O o O K ; o o X X X X X X O K + X X . . . X X o O + @ @ # # = # @ @ + O O O O O o o o o o o o O O O O O O O + + + ; / f # @ @ # # = S X.a Z Z S D D S ( X.9 1 - - - - - 1 / ( 1 1 S X.f - - 2 X.= @ @ + + = ^ + o o X X . . . .   : y . . . . . . X X o o # W O O O O g ; o o X X X X X X o W @ X X X ",
"  . . . X o O O @ = 9 C V 2 # @ + O O o o o o o o o o o o o o O O O + + @ @ @ : ( f # # = = - - S / E ( ( E E ( E 9 1 - - - : - 1 / =.q - 2 -.=.X.- = 2 X.= @ @ + + ; / + o o X X . . . . . > y . . . . . . X X o o ; K O O O O K ; o o X X X X X X o K + X X . . . . X X o O + @ # 2 V u - @ + O O O o o o o o o o o o o o O O O O + + + + @ : ( g # # # = = - a E E E E E E E E 9 1 - - - - - 1 / =.e - 9 2.-.X.1 = 2 X.= @ @ + + = ^ + o o X X . . . . . > y . . . . . . X X o o # ! + O O O S : o o X X X X X X o K @ X X X ",
"  . . . X o O : q a >.T.J.` S f y t q q 8 8 8 8 8 8 8 q q q t t w w y f f f > # 1 X.g = = - - - 1 1 1 2 2 2 2 2 1 1 1 - - - - 1 / u.L - - - R r.o.1 = 1 X.= @ @ + + ; / + o o X X X X X X . 7 y . . . . . . X X o o ; ! + O O O K ; o o X X X X X X o K + . X . . . . X X o + 1 r d  .L.J._ a f w t q q q q 8 8 q q q q t t t w y y y f f f > @ : ( k = = = - - 1 1 2 2 2 2 2 2 2 1 1 - - - - 1 / y.H - - 1 E y.o.1 = 1 ( = @ @ + + ; ^ + o o X X X . . . . > f . . . . . . X X o o ; ! + O O O S : o o X X X X X X o W @ X X X ",
"  . . . X o 8 Q S H 0.(.T.>.H S g g f f f f y y y y f f f f f g g g S S Y / X.q = 2 X.L - - > 1 1 2 2 2 2 2 2 2 2 1 1 - : - - 2 +.( L - - = - 6 X.g = 1 ( = @ @ + + ; ^ + o o o X X X X X X 5 f X . . . . X X o o o : ! + O O + L ; o o X X X X X . o K + . . . . . . . X o q ( D J 0.E.T. .H S g g f f f f f f f f f f f g g g g S S S D / X.4 # 1 ( L - - - 1 1 2 2 2 2 2 2 2 2 1 1 - - - - 2 o.E D - - = - q X.f = 1 ( = @ @ @ + = ^ + o o o X X X X X X 7 f X . . . . X X o o O ; Q + O O O S : o o X X X X X X o W @ X X X ",
"  . . . X 7 Y # + = 9 F A 2 # @ + O O o o o o o o o o o o O O + + @ @ # # = g =.y - 2 +.Q 1 1 2 2 2 9 e e e 9 9 2 2 1 1 > : - 4 O.*.g = = = = # S g # 1 ( = @ @ + + ; ^ + o o o o X X X X X 8 f X X X X X X o o o O > ^ @ + + + L ; o o X X X X X X o W + . . . . . . . X 5 T ; @ = 2 F A 1 # + + O o o o o o o o o o o O O + + + @ @ # # = f X.t = 1 X./ 1 1 2 2 2 9 9 9 9 9 9 2 2 1 1 1 - - 2 O.O.g = = = = # S S # 1 ( = @ @ @ + ; ^ + o o o X X X X X X 5 f X X . . X X X o o O : ^ @ + + + K : o o o X X X X X o W + . X . ",
"  . . . X f 7 o + @ # = = # @ + O O o o o o o o o o o o o O O + @ = > - = > 1 D <.f 1 e +./ 2 2 9 e 0 u s u u 0 e 9 2 2 1 - - 6 3.! : = # # # # Y g # 1 ( = @ @ @ + ; ^ + o o o o o o o o o 8 g X X X X X o o O O + 1 / # @ + + L ; o o o X X X X X o W + . . . . . . . X g 7 O + + @ # # @ + + O o o o o o o o o o o o O O + + @ = - - = - 1 S -.f - 9 +.( 9 2 9 9 9 0 0 u 0 0 9 9 2 2 1 1 - q 4.D - = # # # # S S # 5 ( ; @ @ @ + ; ^ + O o o o o X o o o 5 j X X X X X X o o O + > / # @ + + D > o o o X X X X X o W + . . . ",
"    . . X f : o O O + + + + O O o o o o o X X o o o o o o O O + ; ( o.( g =.-.o.O.u.S 1 e O.-.+.O.=.-.:.>.>.>.;.O.o.X.X.X.( / +.W = # # # # # # Y g # 1 ( = @ @ @ + : ^ + O o o o o o o o o 8 k o o X X o o O O + @ 2 / = @ @ @ L : o o o X X X X X O W + . . . . . . . X f : o O O + + + O O O o o o o o X o o o o o o o O + + = ( +.( f O.-.X.o.u.S 1 e O.:.X.o.} } |  ... .| | } } } X./ / +.S = # # # # # # Y g # 1 ( ; # @ @ + ; / + O o o o o o o o o 8 k o X X X X o o O + @ 2 ( = @ @ + D > o o o X X X X X o W + . . . ",
"    . . X y ; o o o O O O o o o o o X X X X X X o o o o o O O + 1 +.f O./ ( ^ y.E X.3.L 2 u 4.a.o.J -.t.G.H.q.` J H D =.=.S S y ; # @ @ @ @ @ @ S g # 1 X.= @ @ @ @ : ^ @ O O O O O O O O O y k o o o o o O O + @ # s o.- # @ @ P : O o o X X X X X O W + . . . . . . . X f ; o o o o O o o o o o X X X X X X X o o o o o O O + : +.f +.^ ( R u.X.o.<.P 2 p :.s.+.J o.>.p.H.q.` _ H D o.=.S g y = # # @ @ @ @ @ Y g # 1 ( ; # @ @ @ : / @ O O O o o O O O O q k o o o o o o O + @ = s -.1 # @ @ L 1 O o o o o X X X O W + X . . ",
"    . . X y ; X X o o o o X X X X X X X X X X X X o o o o O O + > -.=.=.D :.:.( - - t =./ 0 Z >.u.H =.0.V./.p.y.{ u e / / - - = # @ @ + + + @ @ W g # 1 X.; # @ @ @ > ( @ O O O O O O + + 8 ( 3 O O o o O O + @ # 1 -.V.0 = # # P > O O o o o o o o O W + . . . . . . . X f ; X X X X o X X X X X X X X X X X X X o o o o O O + ; O.+.O.D :.<.X.1 - 0 =.( u Z >.t.S o.>.N.I.p.0.J 0 2 D / 1 - = # @ @ @ @ @ @ @ S g # 1 X.: # # @ @ > / @ O O O O O O + + : P 5 o o o o o O + @ # 1 3.!.s = # @ L 1 O O o o o o o o O K + X X . ",
"    . . . h ; X X X X X X X X X X . X X X X X X X o o o o O O + @ 2 w q 1 w w 1 ; = - 2 O.1.3.y.y.g.-.o._ t.U.I.u.d e / ^ - = # @ + + + + + + + g g # 1 X.; # # # @ > ( @ + + + + + + + 8 O.q + O O O O O + @ # - D G.y.0 - # # / 1 O O o o o o O + # L + X . . . . . . X j ; X X X X X X X X . . . . X X X X X X o o o o O O + @ 1 q 2 1 t w 1 = - - 9 O.:.>.y.>.y.-.+.J 0.H.H.y.u 2 D ^ - = # @ @ + + + + + + g g # 1 ( ; # # # @ > ( @ + + O + + + + 5 o.w + O O o O O O + # = S N.n.u = # @ L 5 O O O o o o O + @ ! + X X . ",
"    . . X h ; . . . . . . . . . . . . . X X X o X o o o o o O O + @ # # # # # # # = = - 2 X.V.Y.:.u.=.( d J s.y.y.O.+.3.^ = # @ + + O O O + + + g g # 1 X.; # # # # 1 ( # + + + + + + 1 -.:.= + + O O O + @ @ = s t.( 0 1 - = = ( 1 + O O O O O w ( / o.+ X X . . . . . X j ; . . . . . . . . . . . . . X X X o X o o o o O O + + @ @ # # # # # # = = - 9 } N.K.-.u.-.X.d J a.<.0.X.( +.^ = # @ @ + + O O + + + g g # 1 X.; # # # # 1 ( # + + + + + @ 1 -.<.- @ + O O O + + @ = 0 r.( u 2 - # # ^ 2 + O O O O O q / ^ X.+ X X X ",
"  . . . X h ; . . . . . . . . . . . . . X o 8 f @ O O O O + + + @ # # = ; : 1 # # # # = - 2 Z y.g S o.y.3.y.k.k.-.O.4.j.g # # @ + O O O O O + + g g # 5 X.; # = s e 2 ( # @ @ @ @ @ 4 o.L O.- @ + + + + + @ # y >.H 0 0 2 1 - = ( 5 + + O O O O S f w #.+ X X . . . . . X j ; . . . . . . . . . . . . . X o 8 f @ O O O + + + @ @ @ # # = : 1 # # # # ; - 1 i y.g d X.u.<.y.k.a.;.-.y.u.g = # @ + O O O O O + + g g # 1 X.: = - 0 2 2 X.# @ @ @ @ @ 2 X.D +.1 @ + + + + + @ # e -.A 0 e 9 1 = # / 4 + + O O O O g y 1 +.@ X X X ",
". . . . + K 8 X . . .             . . . . @ / ( / S S D D D D Q ^ / / / ( X.O.; + @ @ # = = e =.q 1 e f d a a d 0 u +.^ : # @ + O O o o O O + + g g # 3 X.; # 2 u.O.9 X.= @ @ @ @ 4 X.f S u.S # @ + + + @ # e -.D o.4.3.1.=.g : X.2 + + O O O + D ( I #.+ X X X . . . X + ^ t X . . . . .     . . . . . . + / ( ( S D D D D Q ^ ^ / / / ( X.-.> @ @ # # = = 2 +.2 1 0 Z S S Z d 0 0 o.^ - # @ + O O O o O O + + g g # 1 X.: = 2 u.X.2 X.= @ @ @ @ 4 X.d S u.S = @ + + + @ # 9 +.D X.4.3.1.O.g = / 4 @ + + O O O g R S O.@ o X X ",
". . . X f ^ P @ . . .             . . . . o y g ; @ # # # # # # # ; ; ; ; > 8 @ + + + @ @ # 1 O.f t w y f f f f g o./ : # @ + O O o o o o O O + g g @ 3 X.; # - o.D 2 X.; # # @ = ( f 1 3./ +.2 @ @ @ @ @ = X.D X.:.D S d H X.> X.4 @ + + + + + L I g ( + X X X . . . X g / U @ . . .           . . . . . o y S ; @ @ @ # # # # # ; ; ; ; > q @ + + @ @ # # 1 O.f w y s f f d f d X.^ - # @ + O O o o o O O O + g g # 3 X.: = - o.D 2 X.; # # # = ( f 2 4./ +.2 @ @ @ @ @ = ( S / -.S Z d D ( : ( q @ + + + + + S H g X.@ o X X ",
"X X . X f S ^ @ . .                 . . . X o o X X X X o o o o o o o o O O O O O O + + + @ # g X.X.X.X.+.O.O.O.O.L ; # @ + O O o o o o o O O + g f @ 3 X.: # = H d 2 X.; # # # - X.1 2 <.o.=.2 @ @ @ @ # = X.S y.S O.y.D S o.1 X.4 @ @ + + + + L 4 # / @ o o X X X X X g L / @ . .               . . . . X o o X X o o o o o o o o o o O O O O O O + + @ @ # g o.X.X.X.+.+.O.O.O.D : # @ + + O o o o o o O O + g g @ 3 X.: = = H d 2 X.; # # # - X.2 2 <.X.=.2 @ @ @ @ # = X.g 1.d H -.S Z X.1 ( q @ @ + + + + S 8 @ ^ @ o o X ",
"5 7 X X # t 8 o . .                 . . . X X X X X X X X X o o o o o o o o o o o o O O O + @ @ # = = = - - - - = # @ @ + O O o o X X o o O O + g f @ 1 X.: = = R d 2 X.; # # # > X.4 1 f =.L = # @ @ @ # - X.S -.d 4.V.( D O.1 o.2 @ @ @ + + @ L q # ( # o o o 7 8 X X ; t 5 o . .                 . . . . X X X X X X X o o o o o o o o o o o o o O O + + @ @ = = = = - - - - = # @ @ + O O o o o X o o O O + g f @ > X.: = = R d 2 X.; # # # - X.4 - f =.S = @ @ @ # # = X.g =.f O.M.E Z o.1 X.q @ @ @ + + + S 8 @ ^ @ o o X ",
"S f X X X . . . .                 . . . . . X X X X X X X X X X X X X X X X X X o o o o O O + + @ @ @ # # # # # @ @ + + O O o o X X X o o O O + g f @ 1 X.: # = / d 2 X.= # = = 1 +.4 - y O.4 # # @ @ # # - X.S =.d ( o./ R O.2 o.q # # @ @ @ @ L 4 = ( # O o o f g o X X X . . . .                 . . . . . X X X X X X X X X X X X X X X X X X o o o O O + + @ @ @ @ # # # # @ @ + + O O o o o X X o o O O + g f @ 3 X.: = = R d 2 X.; # = = 1 o.4 - w +.1 # # @ @ # # - X.g O.f / o./ D o.1 X.q # @ @ @ + + S 8 # ^ @ o o o ",
"y 8 X X X . . . . .             . . . . . . . . . . . . . . . X X X X X X X X X X X X o o o O O + + + + + @ @ + + + O O o o o X X X X o o O O + g g @ 1 X.: = = / d 2 X.: = = = 1 O.q y =.g = # # @ @ # # - X.S =.( y.X.u.O.O.9 O.e = # # @ @ @ L 4 = ( # O O o t t X X X . . . . .           .   . . . . . . . . . . . X . X X X X X X X X X X X X X o o o O O + + + + @ @ @ + + + O O o o o X X X X o o O O + g g @ > X.: = = R d 2 X.- = = = 1 +.q y +.y # # @ @ @ # # - X.S O.U y./ y.O.o.2 X.w # # @ @ @ @ S 8 # ^ # o o o ",
"f 8 X X X . . . . . .     . . . . . . . . . . . . . . . . . . . . . . . . . . . . X X X X o o o O O O O O O O O O O O o o o X X X X X o o O O + g f @ 1 X.: = = / d 2 X.: = = - 2 O.g 3.g - = # # # # # = - o.S 1.X.X.0 3.=.O.9 O.0 = = # # # @ Q 5 # ( # O O o t y X X X . . . . .       . . . . . . . . . . . . . . . . . . . . . . . . . . . . . X X X o o o O O O O O O O O O O o o o o X X X X X o o O O + g g @ > X.: = = ^ d 9 X.> = = - 1 +.f #.f = = # # @ @ # # - X.S 1.( X.9 O.O.o.2 X.r = = # # @ @ Q 8 # ^ # O o o ",
"f 8 X X X . . . . . . . . . . . . . X X X X X X X X . . . . . . . . . . . . . . . . . X X X X o o o o o o o o o o o o o o X X X o o o o o O O + g f @ 1 X.: = = / g q +.> = - - 2 =.D :.2 - = # # # # # = 1 o.D 1.X.X.r 3.=.o.9 O.0 - - = = = f / ; # ^ # O O O y y X X X . . . . . . . . . . . . . . . X X X X X . . . . . . . . . . . . . . . . . . X X X X o o o o o O O o o o o o o X X X X X X o o o O O + g f @ > X.: = = E d 9 +.> = - - 2 +.g =.1 - = # # @ # # = - X.D 1.X.o.9 +.O.X.2 o.f - = = # # y / ; # ^ # O O o ",
"f q X X X . . . . . . . . . . X X X X X X X X X X X X . . . . . . . . . . . . . . . . . . X X X X X o o o o o o o X X X X X X X o o o o o O O + g f @ 1 X.- = = / g q +.1 = - - 2 =.D -.2 1 = = # # # # = - o.D 1.X.=.S 3.O.o.2 +.s 1 1 1 1 Z ( > @ # ^ # O O O y y o X X . . . . . . . . . X X X X X X X X X X X X X . . . . . . . . . . . . . . . . . . X X X X X o o o o o o o o X X X X X X X o o o o O O + g f @ > X.: = = / d e +.1 - - - 2 O.S =.2 - = # # # # # = - X.D 1.X.3.D :.o.X.2 o.f 1 - - - d ( 1 @ = ^ # O O O ",
"g t o X X X . . . . . . X X X X X o o o o o o X X X X X X . . . . . . . . . . . . . . . . . . X X X X X X X X X X X X X X X X o o o o o O O O + g f @ 1 X.: = = / g r =.1 - - - 2 =.D 4.r 2 - = # # # # = - o.L 3.R 4.4.3.X.o.q o.f 2 2 9 H ;.2 # # = ^ # + O O y y o X X X . . . . . . X X X X X X o o o o o o X X X X . . . . . . . . . . . . . . . . . . . X X X X X X X X X X X X X X X X o o o o o O O O + g f @ > X.: = = / d w O.1 - - - 2 O.S :.0 2 - = # # # # = - X.D 4./ y.y.1.E X.2 X.f 1 2 2 D X.1 # @ = ^ ; + O O ",
"g t o o X X X X X X X X X X o o o o o o o o o o o o X X X . . . . . . . . . . . . . . . . . . . X X X X X X X X X X X X X o o o o O o o O O O + g f @ 1 X.: = = / g r =.1 - - - 2 O.D a.y.%.2 = # # # # = - o.Q y.Z -.y./ D o.q +.f 0 i | :.0 - = # = ( ; + + O f f o o X X X X X X X X X X o o o o o o o o o o o o X X X . . . . . . . . . . . . . . . . . . . X X X X X X X X X X X X X X o o o o o o O O + + g f @ > X.: = = / d y O.1 - - - 2 O.D a.y.O.2 = # # # # = - X.Q 4.S -.y./ S X.6 X.d 9 u } -.9 = # # = ( ; + + + ",
"S y o o o X X X X X X o o @ + O + + + + + + + O O O O o o X X X . . . . . . . . . . . . X X X X X X X X X o o o o o o o o o O + w S ; O O O + + g f @ 1 X.: = = ( g S u.0 - - - 2 O.D a.X.y.9 = # # # # = - +.^ y.D u.u.1.D o.e O.a A x.G.S 1 - = # = ( ; + + O f f O o o X X X X X X X o @ + O + + + + + + + O O O O o o o X X X . . . . . . . . . . . . X X X X X X X X X X X X o o o o o o + t g ; O O O + + g f @ > X.: = = / a S y.e - - - 2 O.D a.E 2.e = # # # # = - X.L 4.S z.u.1.S X.2 X.a A M.N.V 1 = # # = ( ; + + + ",
"S y O O o o o o o o o o # o.( D H R R ^ R R R R Q Q D S S S g g g g g g g g g g g g g g g g g g g g g g g g g g g Y S K S S S / ;.U S O O O + + g f @ 1 X.: = - ( g H G.a - - - 2 +.D M.y.3.2 = # # # # = - +.S ^ s 1.N.( D O.e O.Z ' (.a.u 1 - = # - ( ; @ + + f g O O o o o X X o o o @ X./ D D R ^ ^ ^ ^ ^ ^ Q Q ! K K K g g g g g g g f f f f g g g g g g g g g g g k k k k k k k K K K K I ;.U S O O O + + g f @ > X.: ; = / a H s.f - - - 2 O.D M.y.:.2 = # # # # # - X.S / f O.N.X.S X.6 o.Z G _.x.u 1 = = # = ( : @ @ + ",
"W f O O O o o o o o o o + t 1 > > 1 1 1 1 1 1 > > : ; ; # # # @ @ @ @ @ @ @ @ @ @ @ @ @ @ @ @ @ @ @ @ @ @ @ @ @ @ # # # # ; ; 3 / X.q O O O + + g f @ 1 X.: = = ( g 2 u 1 - - - 2 +.S 3.d 9 - = # # # # = - +.f 2 2 s y.d D O.0 =.Z V d.G 9 1 = = # - X.; @ @ + f g + O O o o o o o o o O 8 1 > 1 1 1 1 1 1 1 1 > : ; ; ; # # @ @ @ @ @ @ @ @ @ @ @ @ @ @ @ @ @ @ @ @ @ @ @ @ @ # # # # # # ; > I X.q O O O + + g f @ > X.: = = / d 2 p 1 - = = 1 +.D y.a e - = # # # # # - X.g 2 2 u y.a D o.9 +.Z i u.G 2 - = = # = ( : @ @ @ ",
"Q g @ + + + + O O O O + + + + @ @ @ @ @ @ @ @ + O O O o X X . . .                                             . . . . . . X X o + # O o O O + + S g @ 1 X.- = = / g - - - = = = 1 +.S 3.1 - = = # # # # = - o.f 1 2 0 <.d X.y.0 -.Z 0 -.s 1 - = # # - X.: @ @ @ g g @ @ + + + O O O O O O + + @ @ @ @ @ @ @ @ + + O O o o X X . .                                         . . . . . . . . X X o + # O o O O + + S g @ > X.- # = / f = = = = = = 1 +.S 3.9 1 - = # # # # = - o.f 1 2 0 :.a X.y.0 O.S 9 -.u - - = = # = ( : @ @ # ",
"-.O./ ^ R R D D D T Q Q ^ ^ ^ ^ ^ / / / / / / / f + O o o X X . . . .                             . . . . . . . . . . . . X X X o o o o o O O : ( q # 9 -.1 # = / f = = = = = = 1 +.S 3.1 = = # # # # = = - X.y 1 1 r 3.f D } D 4.r 2 O.9 = = = # # - o.> @ @ 4 ;.O./ / / ^ L L T T T Q Q Q ^ ^ / / / / / / ^ ^ y + O O o o X X . . .                               . . . . . . . . . . . . X X X X o o o O O : X.q @ 2 ;.1 # # ^ y # = = = = = 1 +.S 3.9 - - = # # # # = - X.y > 1 e 3.d D E D y.f 2 +.0 = = = # # - X.> @ # 5 ",
"1 1 > : : ; ; ; ; ; ; ; ; ; ; ; ; ; : : : : : 1 L f O o o o X X . . .                                         . . . . . . . . X X X X o o O # / w @ @ f u.e # # ^ g # # # # # = 1 +.y O.g = # # # # = - 1 2 X.w - - f 4.r 9 S <.S 1 9 O.1 = = # # # - +.1 # @ = 1 1 > > : : ; ; ; ; ; ; ; ; ; ; : : : : : : : 1 Q f + O o o X X . . .                                         .   . . . . . . . X X X o o o # / w @ @ w w.2 @ @ Q g # # # # # = 1 +.f =.S - = = # # = = 1 2 X.w : - w 3.r 2 S 0.S 1 2 O.2 = = # # # : X.1 # # = ",
"@ @ @ + + + + + O O O O O O + + + + + + + + + + @ S f O o o X X . . .                                                     . . . . X X o o o : ! + + @ = 2 = @ @ 4 X.t # # # # # 1 #.2 q +.f # # # # = w -.+.X.1 - 6 O.D 2 S 4.S 1 9 X.L = # # # # = 1 O.2 # # # # @ @ + + + + + + O O O O O + + + + + + + + + + # Q g + o o X X . . .                                                     . . . . X X o o o > L + + @ # 1 # @ @ 8 o.t # # # # = 1 +.4 9 O.g = = # = = w =.o.X.2 = 2 o.D 2 a >.S 1 2 X.^ - = = # # = > +.1 # # # ",
"# @ @ @ + + + + + + + O + + + + + + + + + + + + + @ K f O o X X . . .                                                       . . . X X X o o : K + + + + + @ @ @ @ 4 o.t # # # # = X.S = q X.f # # = = d X.2 1 = 2 +.K 1 g 4.S 1 9 O.^ = # # # # # = 1 =.2 = # # # @ @ @ + + + + + + + + + + + + + + + + + + + @ + # L f O o X X . . .                                                         . . . X X o o > K + + + + + + @ @ @ q o.t # # # # - ( g = 4 X.f = = = = g o.2 1 = 2 X.L 1 d :.S 1 9 +.^ = = = # # = = 1 O.2 = = # ",
"# @ @ @ @ + + + + + O O O O + + + + + + + + + + + O : ^ + o o X X . .                                                         . . . X X o o : K O O O + + + + + @ @ q o.w # # # # 8 #.K - q X.f # = = f / - = 2 X.S : f 3.g - 2 O./ - = # # # # # = 1 :.e = = # # @ @ + + + + + + + + + + O + + + + + + + + @ # @ + : ^ + o o X X . . .                                                       . . . X X o o : K O O O O + + + + @ @ q o.w # # # # 5 X.g = 8 X.g = = = d ( - - 2 X.D - f 3.f - 2 +.^ - = = # # = = = 2 1.9 - = = ",
"T ! D D S S S g g g g g g g g g g g g g g S / S @ + : ^ + o o X X . . . .                                                   . . . . X X o o : K O O O O O O O + + @ @ 8 +.w # # # = 2 +.L = q +./ D D o.^ = 4 X.S - f *.f = 2 o.I - - f R T D T R R ( u.o.E E E H D S S S S g g g g g g g g g g g g g S S S / H # + ; ^ + o o X X . . . .                                                   . . . . X X o o : K O O O O O O O + + @ @ q o.y # # # # 5 X.k = 8 +./ D R O./ - 6 +.D 1 f =.f = 2 o.L - = f R T D H E E X.u.X.E E E ",
"g g g f f f y y w w t t q q q t t t t t w w g d @ + > ^ + O o o X X . . . . . . . .           .     . .   .                 . . . . X X o o : K O O O O O O O O + + + @ 4 o.y # # = = 2 o.D - 9 d f f f 1 1 X.S - f 3.f = 1 X.L - - S o.f e e r r f f a S Z Z a d f f f y y w w w w t q q q q q q q q t w w S S # + ; ^ + O o o X X . . . . . . . . . . . .     . .       . .         . . .   . . . X X o o : K O o o O O O O O + + @ @ 4 o.w # # # # 1 X.S - 2 f y y f 2 2 +.S - d *.f = 2 X.S = = S X.f e e r r r s f f f f f ",
"# # @ @ @ @ @ + + + O O o o o o o o o o O O O + + + > ^ + O O o X X X . . . . . . . . . . . . . . . . . . . . . . . . . . . . . . . X X o o : K O o O O O O O O O + + + @ 4 +.y # # = = 2 -.X.S g g g g S o.S - f -.f = 1 ( g = = S o.1 # # # # # = = - - - - = = # # # @ @ @ + + + O O o o o o o o o o O O + + + + ; ^ @ O O o X X X . . . . . . . . . . . . . . . . . . . . . . . . . . . . . . . X X o o : K O o o O O O O O O + + @ @ 4 o.w # # = = 9 ;.( S S g g g S X.S > f =.y ; 2 X.g = = g X.1 # # # # = = = - - - - - ",
"# # # # # # @ @ + + O O O o o o o o o o O O O + + + > / @ O O o o o X X X X X X X X X X X . . . . . . . . . . . . . . . . . . . . . X X X o : W O o o o o o o O O O + + @ @ q o.w # = - 1 d d.+.D D T T T g 1 d 3.f = 2 X.g # # g ( 1 # # # # # = = - - - - = = = = = # # # # @ @ + O O o o o o o o o o O O + + + + : / @ O O o o o X X X X X X X X . . . . . . . . . . . . . . . . . . . . . . . . X X o o : K O o o o o o O O O O + + @ @ 4 o.w # = = - a a.+.H D S S S y = f *.y = 2 X.g # # g ( > # # # # # = = - - - - - - ",
"= = = # # # # @ @ + + O O o o o o o o o O O O + + + 1 / @ + O O O o o o o o X X X X X X X X X X X X X X X X X X X X . . . . . . . . X X X o : K O o o o o o o O O O + + @ @ # q X.w = - 1 D G.S - - - = - - d =.y = 2 X.g # # f ^ ; @ # # # # = = = - - - = = = = = = = = = # # @ + + O O o o o o o o o O O O + + + : ^ @ + + O O o o o o X X X X X X X X X X X X X X X X X X X . . . . . . . . . . X X X o : K O o o o o o O O O O + + @ @ @ 4 o.w = - 1 S f.D 1 - - = = = w +.w = q O.f # = g ( > # # # # # # = = - - - - - - ",
"= = = = = 1 1 - @ + + O O o o o o o o o o O O + + @ 1 / @ + + + + O O O o o o o o o o o o o o o o o X X X X X X X X X X X X X X . . X X X X ; K O o o o o o o O O O + + @ @ # # q O.f - 1 S :.9 1 - - - 1 a -.y = e +.f # # g / ; @ @ @ # # # = - - 1 - - - - - = - - - - 1 1 - # @ + O O o o o o o o o o O O + + @ > ( # + + + + O O O o o o o o o o o o o o o o X X X X X X X X X X X X X X X . X X X X o ; K o o o o o o o O O O + + @ @ @ @ q =.g - 1 d >.0 1 - - = = y X.q = r =.g = = g / : @ @ @ @ # # = = - 1 1 1 1 1 1 ",
"- - - - 2 +.O.X.; @ + O O o o o o o o o o O + + @ @ 1 / # @ @ @ @ + + + O O O O O O O O O O O o o o o o o o o o o o X X X X X X X X X X X X ; K o o o o o o o o O O + + @ @ @ # # f Z 1 - f ( 1 1 - - 1 a =.w = 9 O.g # # g / ; @ @ @ @ # # # = 1 D o.D 1 - - - - - 1 1 9 =.=.X.: @ + O O o o o o o o o o O O + @ @ 1 ( # @ @ @ @ + + + O O O O O O O O O O O o o o o o o o o o o o o X X X X X X X X X X X ; k o o o o o o o o O O O + + @ @ # # f Z - - f ;.2 1 - = = f +.q # e O.f = = S ( : @ @ @ @ @ # # = - S o.R 2 2 2 2 ",
"1 1 1 - e =.d O.> @ + + O O o o o o o o O O + + @ @ 2 ( = # # # # = # @ + + + + + + + O O O O O O O o o o o o o o o o o o o O o X X X X X X # ( f f f f f f f f f g g g S S D D E o.H 1 = t / - - - 1 a ;.t # 2 X.f g 2 ; X.1 @ @ @ @ @ # # = - 2 :.+.3.2 1 2 2 2 1 1 1 0 3.S =.1 # @ + O O o o o o o o O O + + @ @ 1 X.= # # # # = # @ @ + + + + + + + O O O O O O o o o o o o o o o o o o O X X X X X X X ; ( f y f f f f f f f f g g g S S D R X.D - - r o.1 - = = f O.q # q X.y f 2 > +.2 @ @ @ @ @ @ # # = 1 +.X.4.e 9 e 0 ",
"S 2 1 1 9 :.:.4.1 @ @ + + O O O o o O O O + + @ # # 2 X.= # = = 0 :.H S S S S S S S S S g g g g g g g g g f f f f f f f f g S O X X X X X X O 5 8 8 8 6 6 8 6 q q q t t w y f f g D a - = q ^ = = - Z ;.0 # 2 ( q y 1.q > X.; @ @ @ @ @ # # 6 g D t.H $.2 2 d X.Z 2 2 2 0 :.>.y.2 # @ + + O O O O O O O O + + @ @ # 2 X.- = = = e :./ S S S S S S S S g g g g g f f f f f f f f f f f f f g S + X X X X X X O 7 8 8 8 8 8 8 8 8 8 8 q q t w y f f S f - = e X.- = = f O.t = w +.q w O.6 > X.: @ @ @ @ @ # # 1 f g 1.D 3.0 0 Z O.",
":.u 0 2 2 e d :.2 # @ @ + + O O O O O O + + @ # # = e X.- = = - r :.H S g g g g g g f f f f y y y w y y y t t t q q q q 8 y ( + X X X X X X X X X X X o o o o o o o O O O + + @ @ # # # # q ^ # - E :.r = t ( 8 q X.q # > +.2 @ @ @ @ @ @ 2 O.o.+.+.S 1.e 0 } I.:.u 0 9 2 0 a w.e # @ @ + + O O O O O O + + @ # # = 9 +.1 - - - r <.^ g S S S g g g g g f f f y w w t t q q q q q q q q q y ( + X X X X X X X X X X X o o o o o o o o O O O + + @ @ # # # 9 ( = - ( -.0 = f =.w t X.q @ = X.2 @ @ @ @ @ # 1 X./ E / g 3.s i +.H.",
"a.r.4.X.2 1 2 4.O.2 # @ @ + + + + + + + + @ # # = - r 3.e - - - - 1 - = = = = # # # # # @ @ + + + + O O O O O o o o o o o @ L + X X X X X X X X X X X X o o o o o o O O O O + + @ @ @ @ @ 8 ^ @ : X.a = w X.8 : X.4 @ @ # y / > + @ @ @ : ( g 1 2 e d 1.g y.u.G.j.y.y.o.2 1 e y.O.2 @ @ @ + + + + + + + @ @ # = = - e 4.f 1 1 - - 1 - = = = = # # # # @ @ @ + + + O O O O O o o o o o o o + L + X X X X X X X X X X X X o o o o o o o o O O O + + @ @ @ # 2 ( # 1 ;.d = f O.t 1 X.4 @ @ @ q / 1 @ @ @ @ > ( g - - 1 y 3.S z.M.N.",
"Z d D *.2 1 1 9 S o.2 # @ @ @ @ + + @ @ @ @ # - s 0 9 ( =.9 - 1 - - - - - = = = = = # # # @ @ @ @ + + + O O O O O O O O o @ L + o X X X . . . X X X X X X X X X X o o o o O O O + + + @ @ 8 ^ @ # = # 1 X.8 + 8 / @ @ @ @ @ q / : + @ ; ^ f = = - 1 r +.S 2.S S S S H :.9 1 1 q g X.2 # # @ @ @ + @ @ @ @ # = 1 a e 2 X.4.u 1 1 - - - - - - = = = = = # # @ @ @ + + + + O O O O O O O O O @ L + o X X X . . . . X X X X X X X X X X o o o o O O O + + @ @ 1 / # # - = 2 +.t # q / @ @ @ @ @ 8 ( 1 @ @ : / f # = - - w 3.S y.S Z ",
"9 2 u O.2 1 - - - d o.9 # @ @ @ @ @ @ @ @ # # 2 u.4.0 9 H O.e 1 - - - - - = = = = = # # # @ @ @ @ @ + + + O O O O O O o o @ L + o X X X . . . . . . . . . X X X X X X X o o o o O O O + + 8 / @ @ @ @ q ^ @ @ 8 / @ @ @ @ @ @ S w + = ! y # # = = - 9 X.S =.0 0 0 9 a *.2 1 - - = f X.e # # @ @ @ @ @ @ @ # = 0 V.4.0 9 / -.0 - - - - - - - = = = = = # # # @ @ @ @ + + + O O O O O O O o @ L + o X X X . . . . . . . . . . X X X X X X X o o o O O + + + > ^ @ @ # # w ( # # 8 / @ @ @ @ + + g f @ = ^ f # # # = - e 3.S 4.0 9 ",
"H H ( +.2 9 S S f 1 f X.y 1 1 1 1 1 1 1 1 1 - - S M.=.0 2 H =.H D T T T T T T T T T D S y # @ @ @ @ @ + + + O O O O O o o @ ! + o X X . . . . . . . . . . . . . . . X X X X X o o o O O O 4 / @ @ @ + 8 Q @ @ 8 / @ @ + + + + f y + f K @ @ @ # # = 2 X.g y.o.o.X.X.O.*.1 2 g S y - f ;.d 2 1 1 1 1 1 1 2 2 - 2 E V.=.0 2 D O.T T T R R R R T T T T T Y y # # # @ @ @ @ + + O O O O o o o + L + o X X . . . . . . . . . . . . . . . . X X X X o o O O O O ; Q @ @ @ @ t / # @ 8 / @ @ + + + + f y + y W @ @ @ @ # = 9 1.g y.X.( ",
"S S S f 1 a =.X.O.1 = t ( ( / / / / / ( ( X.( 1 - f 4.X.9 2 a D D D D T T D S S S S S g ( g = = = = # # # = + O O O O o o + ! + o X X X . . . . . . . . . . . . . . . . . X X X o o o O O 5 P @ @ + + 8 Q @ @ 8 ^ @ + + + + + f y + g g @ @ @ @ @ # 1 X.9 D U I I P P f - f O.( X.- - r X.X.( / / / / / ( X.( 2 2 S u.X.1 - f T T T R T T T T T S S g g / g = = = = = # # = + O O O o o o + L + o X X . . . . . . . . . . . . . . . . . . X X X o o o O O ; L @ @ @ @ t / @ @ 8 ^ @ + + + + + f y O y f + + @ @ # # 2 %.9 g S S ",
"2 2 2 2 2 D o.D +.- = = = = = = = = = = = - ^ ( 1 - 0 -.( 2 1 1 1 1 1 1 - - - - = = = # - E X.X.X.} X.( o.=.= + O O O o o + ! + o X X . . . .                   . . . . . . . X X o o o O y o.# + + + 8 Q @ @ 8 Q + + + + + + f y + g g + @ @ @ @ @ > X.r 0 0 r r r r e 2 S X.D X.- = = = = = = = = = = = - / o.e 2 r =.R - - 1 1 1 1 1 1 - - - = = = # - E o.X.X.X.X.X.o.+.= O O O o o o + ! + o o X . . . . .                   . . . . . . X X o o O O 4 +.= @ @ @ q ^ @ + 5 ^ @ + + + + + y y O y f + + + @ @ # 1 3.w 2 9 9 ",
"( ( ( ( X.o.O.o.S = = # # # # # # # # # = # = L ( 2 - e +.J 1 1 1 1 1 1 1 1 1 - - = = = # = 2 2 2 2 2 2 q w # + O O O o o + W + o X X . . . .                       . . . . . . X X o o O y ( # O + + 8 ^ @ @ 8 Q + + O + + + f w + g f + + + + + @ = ^ X.o.O.O.O.+.+.X.X.H X.X.g = # # # # # # # # # = = = - / o.2 = 2 X.R 1 1 2 2 2 1 1 1 1 - - - = = # = 2 2 2 2 2 2 2 q @ + O O O o o + ! + o o X . . . .                       . . . . . X X X o o O t o.- + + + 8 Q @ + 5 Q @ + + + O O y t O y f + + + + @ @ = / X.X.X.X.",
": : - - - - - - = = # # # # # # # # # = # # # = L X.2 - 2 X.X.E } X.X.X.X.X.X.( 0 - = = # # # # # # # @ @ @ + + O O O o o + ! + X X X . . .                         . . . . . . X X o o o + @ O O + + q / @ @ 8 ! + + O O O + f w + g f + + + + + @ @ = - > 1 1 1 1 1 1 > - = = = # # # # # # # = = = = = = = - Q ( 1 = 2 +.=.X.o.o.X.X.( ( ( ( s 1 - = = # # # # # # @ @ @ + + O O O O o + ! + o X X . . .                           . . . . . X X o o O + # + + + + 8 L + @ 1 ^ @ + + O O O y t O y f O + + + @ @ @ = - > > 1 ",
"# # # # # # # # # # # # # # # # # # # = = # # # - P X.1 = 1 f f d a a a a a a H :.9 = = # # # @ @ @ @ @ @ + + O O O O O o @ ! + X X X . . .                         . . . . . . X X X o o o o O O O + w X.= @ 1 L + + O O O O f t + f y O + + + + @ @ # # # = = = = = = = = # # # # # # # # # # = = = = = = # # = L ( 1 - 2 a S S g d d d d g H 2.r - - = # # # # @ @ @ @ @ + O O O O O O @ ! + X X X . . .                           . . . . . X X X o o O O O O + O 8 / # @ 5 ^ @ + + O O O y t O y f O + + + + @ @ @ # # = = ",
"# # # # # # # # # # # 1 S D D D D D H H H D 1 = = - D X.2 - - 1 1 2 0 d d 0 0 f O.f 1 - - = = = = = # # # # @ @ @ + + + + w L O X X X . . .                       . . . . . . . X X X o o o o O O O + f a.r + 1 K + + + O O O f t O f y O O + + + @ @ # # # # # # # # # # # # # # # # > S D D T ^ ^ / / / S : # # = D X.e 1 1 2 2 2 e f f e 0 s o.a 2 1 - - - - = = # # # # @ @ @ @ + + + t L O X X X . . .                       . . . . . . X X X X o o o O O O O O 6 t.y @ 2 ^ @ + O O O O y t O y f + + + + + @ @ @ # # # # ",
"g g g g g g S S S S D X.g w w w y y y y y D o.2 = = = S O.X.X.o.O.O.u.y.u./ 3.3.y.X.X.X.X.X.X.X.( ( ( / / / / ^ ^ ^ ^ ^ / P # X X X X . . .                 . . . . . . . . X X X X o o o o o O O O + - ;.2 + 1 L + + + O O + g t o 8 ^ f f g g S S S S S S S S S S S T T T D Y T T D ( g w y f f f f y w S / : # # - D :.O.O.O.O.X.3.3.y./ 3.4.y.X.o.X.X.X.X.X.( ( ( / / / / / ^ ^ ^ ^ / P # X X X . . . . .             . . . . . . . . . X X X X o o o o O O O O O @ ( q @ 2 Q @ + O O O O y t O t ( g g g g S S S S S T T ! ",
"t t q t t t t t t t t 5 @ @ @ @ @ @ @ # = 9 H o.2 # # = 1 2 2 2 9 r :.H +.( =.S 1.f 1 1 1 > > : = = = = = # # # # # # # # + o X X X X . . .         . . . . . . . . . X X X X X X o o o o o o O O + + # H 1 + 1 L @ + + + O + y W + + > 5 5 4 6 6 q q t t t q t t t t t t t t t t t t 1 @ @ @ @ @ @ @ @ # 2 S / 1 = = = 2 2 2 2 2 9 O.T X.X.1.g O.d 2 1 1 1 - - : ; ; ; # # # # # # @ @ @ + o X X X . . . . .     . . . . . . . . . . X X X X X o o o o o o O O O O O + H 2 @ 2 Q + + O O O O 8 Q # # 8 8 8 8 8 q q q q t t w y ",
"@ @ @ @ @ # # # # # # # # # # @ @ @ @ # 1 0.d S / # # # # # = = = - ( :.3.S +.=.-.2 # # @ @ @ + + + O O O O O o o o o o o o X X X X . . . . . . . . . . . . . . X X X X o o o o o o o o o o O O O + + @ H 1 + 1 X.f 2 @ + O O + f g @ + + @ @ # # # # # # # # # # # # # # # # # # # # # ; ; # @ @ @ @ @ 1 >.f g / = # # # # # # = = E :.4.D O.-.3.9 # # # @ @ + + + O O O o o o o o o o o o X X X X . . . . . . . . . . . . . . X X X X X o o o o o o o O O O O O O + @ H 2 @ 2 o.f 1 + O O O + f L ; @ @ @ @ @ @ # @ # # # # # ",
"/ / / / / / / / / / / / / ( ( 4 @ @ @ @ = o.t 1 / # @ @ @ # # # # = - 1 1 - 1 2 1 # @ @ @ + + O O O O O O o o o o o o o o X X X X X X . . . . . . . . . X X X X X X o o o O O O O O O O O O O O + + + @ L 1 @ 4 o.H ( @ + O O o + g / Q ^ / / ( ( ( ( ( ( ( ( / / ( ( / / ( / / ( / ( ( X.( ( 8 + + @ @ = X.6 1 / # @ @ @ @ @ # # = - 2 2 > 1 2 2 = @ @ @ + + + O O O o o o o o o o o o o X X X X X . . . . . . . . . . . X X X X X o o o O O O O O O O O O O + O + + @ U 9 @ 2 o.D / + O O O O + g ( / / / / / / / / / / ( ( ( ",
"; ; ; ; ; ; = ; = = = ; ; ; 8 / 2 + @ @ # E 6 1 ^ @ @ @ @ @ @ @ @ @ # # @ @ @ @ @ @ + + + O O O o o o o o o o o X X X X X X X X X X X X X X X X X X X X X X X o o o O O O + + + + + + + + + + + + + + + Q 1 @ q X.S ( @ O O O O o O @ # # = = = = = ; ; ; ; ; ; = ; ; = = ; ; = = ; ; ; ; ; 8 / 5 + + @ # H 4 1 / # @ @ @ @ @ @ @ @ # # # # # @ @ @ + + + O O O o o o o o o o X X X X X X X X X X X X X . . X X X X X X X X X o o o O O O + + + + + + + + + + + + + @ # / 4 @ 2 / y ^ + O O O O O + # # # # # # # ; ; ; ; = ; ; ",
"+ + + + + + + + + + + + + + + y K + + @ @ / 8 1 ^ @ @ @ + + + + + + @ @ @ @ + + + + O O O o o o o o o o o X X X X X X X X X X X X X X X X X X X X X X X o o o o O O + + @ @ @ @ @ @ @ @ @ @ @ @ @ + + @ ^ 1 @ 1 H I d @ O O O o o o o O O + + + + + + + + @ @ @ @ @ @ @ + + + + + + + + + + O q k + + @ @ E 4 1 ^ @ + + + + + + + @ @ @ @ @ @ + + + O O O o o o o X X X X X X X X X X X X X X X X X X X X X X X X X X o o o o o O O + + @ @ @ @ @ @ @ @ @ @ @ @ @ @ @ # / 4 @ ; S D f + O O O O O O O O O O O + + + + + + @ @ @ ",
"+ + + + + + + + + + + + + + + q K + + + @ / 8 1 Q @ @ @ + + + + + + + + + + O O O O o o o o o X X X X X X X X X X X . . . . X X X X X X X o o o o o o o o o O O + + @ # - - = = - - = - - = # # @ @ @ @ ( q # # # # @ + O O O o o O O O + + + + + + + + + @ @ @ @ @ @ @ @ + + + + + + + + + O 5 k + + @ @ ^ 8 > ^ @ + + + + + + + + + + + + + O O O O o o o X X X X X X X X . . . . . . . . X X X X X X X o o o o o o o o O O O + + @ # - - = = - - = = = = # # # # # # ( 8 @ @ @ @ + + O O O O O O O O O O O + + + + + @ @ @ @ ",
"+ + + + + + + + + + + + + + + 8 K + + + @ ^ 8 1 Q @ @ @ + + + + O O O O O O O o o o o X X X X X X X X X X X X X X . . . . . X X X X o o o o o o o o o O O O + + @ # # y ;.o.S S O.-.D X.O.( - # # @ @ # L / - # # @ @ + O O O O O O O O + + + + + + + + + + @ @ @ @ @ @ + + + + + + + O O O O 8 W + + @ @ ^ 8 > Q @ + + + + + + O O O O O O O o o o o o X X X X X . . . . . . . . . . . . . X X X X o o o o o o o O O O O O O + @ # = f ;.;.D D +.O.S E o.E - = = # # # g ^ = @ @ @ + + O O O O O O O O O O O + + + + + @ @ @ @ ",
"1 > > > > > : : : : : : : # + 8 W + + + @ ^ 8 1 Q @ @ + + + + O O O O o o o o o o X X X X X . . X X X X X o X X X . . . . . X X o o o + + + + + @ @ @ @ @ @ # # = - 1 H O.D X.X.H O.3.r.H :.2 - - = # # - / / - # @ + + O O O O O O O O # w 1 : : : > > > 1 1 1 1 1 1 1 > > > > > : : ; ; @ O 8 W + + + @ ^ 5 > Q @ + + + + + + O O O o o o o o o X X X X X . . . . . . . . . . . . . . . . X X X o o + + + @ @ @ @ @ @ @ # # # = - 1 H ;.J o.O.H X.o.;.H 2.9 1 2 1 = # # S ^ = @ @ + + O O O O O O O O @ 4 > : : > > > 1 3 1 1 ",
"/ / / / ^ ^ Q Q ! ! ! Q ( W + 8 K + + + @ ^ 8 1 Q @ @ @ @ + + + O O o o o o o X X X X X . . . . X X X o # w # X X . . . . . X X o O t ^ Q Q ^ ^ / / / / / / ( X.X.o.;.t.y.:.X.X.>.u.1.u.=.4.D X.X.+.y = = - / / = @ + + O O O O O O O + - o./ D T R ^ / / / / / ( / / / / ^ ^ ^ Q Q ! ! ^ l + 8 K + + + @ Q 5 > ^ @ + + + + + + O O o o o o o X X X X X . . . . . . . . . .   . . . . . . . X X o o 8 / Q ^ ^ ^ ^ / / / / / / / ( X.+.0.u.0.X.O.>.y.o.r.-.y.J +.O.O.w # # = S / > @ @ + + O O O O O O O = o./ H ^ / / / / / / / ",
"# # # # # @ @ @ @ @ @ + 3 Q + 8 K + + @ @ ^ 8 3 ^ @ @ @ @ # @ + O O o o o o X X X X X . . . . . X X X o g { g o X . . . . X X X o t L ; @ @ @ # # = = = = : > 1 1 2 e X.-.a r f S S f S S f 2 2 2 d -.f - = = L ^ = + + + + + O O O + + @ # @ @ @ # # # # = = = = = = # # @ @ @ @ @ + + : ^ @ 8 W + + + @ Q 5 > ^ @ + @ @ # @ + O O o o o o X X X X X X . . . . . . . . . .         . . . . X X o 8 ^ ; @ @ @ # # # ; = ; ; : > 1 2 2 E X.d w f S S f S D g 9 9 9 f +.w = = - D ( - @ @ + + + O O O O + + = # # # # # = = = = = ",
"# # # # @ @ + + + + + + : ! + q g + + @ @ ^ 8 5 ^ # @ @ 2 X.> + + O o o o o X X X X X X X . X X X X X o 4 o.4 o X . . . . X X X O ! ; o O O O O + @ @ @ @ @ # # = = - D t.g f f f f f w q q t w 9 - f -.g = # = D ^ # + + + + + + + + + + + + @ @ # # # = = = = = = # # @ @ @ + + + + + ; ^ @ 8 K + + + @ Q 8 > / @ @ @ : X.t + O O o o o o X X X X X X X . . . . . . . . . .       . . . X X o O ! ; o o o O O + + @ @ @ @ # # = = - S -.f y y f f f f y w w w 2 = q +.f - - 1 D ( > @ @ + + + + + + + + @ @ @ # # # # = = = = ",
"= = = # # @ @ + + + + + > ! + q K + @ @ @ ^ 8 5 / # # @ 2 <.1 + + O O o o o o o X X X X X X X X X X o o @ P + X X . . . . X X o O W @ o O O O + + @ @ @ @ # # # # = - 2 H -.;.-.-.=.O.+.+.+.=.1.3.S - w 3.g = = = S Q = @ @ @ @ @ @ + + + + @ @ # # = = = - - = = = = # @ @ @ + + + + + > / @ 8 K + + + @ Q 8 3 / # @ @ > :.y + + O O o o o o X X X X X X X X X . . . . . . .       . . . X X o O K @ o o o O O + @ @ @ @ # # # = = - 1 D O.+.O.=.=.-.=.O.O.O.%.3.g = y 3.S 1 - - S ( - @ @ @ + + + + + @ @ @ # # # = = = - - - ",
"E R R R T 1 @ @ @ @ + + > ! + q K + @ @ # / q 5 / # # # : ( = @ + + O O o o o o o o o o X X X o X o o o @ L + X X . . . . X X o O W @ o o O O + # d f 2 2 1 > # # = = - 1 2 2 2 2 2 1 1 1 2 2 2 f *.g = y :.S - = - D / - # # # # @ @ + + @ @ # f D H J J J E E E H D D S > @ @ + + + + > / @ 8 K + + + @ Q 8 3 / # @ # = ( 2 @ + + O O o o o o o o o o X X X X X X X . . . . .   . . . . X X o O W @ o o O O O @ y t 1 1 2 2 = = = = - - 1 2 2 2 2 2 2 2 2 2 1 t O.S 1 d <.D 1 - - D ( > @ @ @ @ @ @ @ @ @ # = d D D D D R R R ",
"y y y y X.f # # @ @ @ + > Q + q W @ @ @ # / q 8 / # # # > X.; @ @ + + O O O O O o o o o o o o o o o o o @ L + X X . . . . X X o O K @ o o o O + = =.:.X.X.( X.f = = - - - - 1 1 1 1 1 1 1 1 1 1 - t *.S - r =.S 1 - - P +.I I / ^ L f @ + @ # - O.( u.J a a a d f f f y X.f @ @ @ @ @ @ 1 ( # q K + + @ @ Q 8 7 / # # # = ( 2 @ @ + + O O O O o o o o o o o o o o X X X X . . . . . . . . X X o O K @ o o O O O # O.-.X.X.o.O.S - = = - - - 1 1 1 1 1 1 1 1 1 > - e 3.D 2 f :.D 2 1 - S X.D L Q L ! g # @ # # 1 =.E :.D f f d d ",
"t e q 1 T g = # # @ @ @ > Q @ t K @ @ @ # / t 8 / = # # 1 X.: # # @ @ + + + O O O O O O O O O O O O O O @ L + X X X . . . X X o O K @ o o O O + @ = = # # # 1 E ( / / ( E E ( ( X.X.X.X.X.X.o.o.( 9 y :.S - y 0.o.Z 2 1 f f f y w t Q K # @ # 1 =.D y.i 2 0 y w 0 r 0 2 D S # # # @ @ @ 1 ( # q K @ @ @ @ ^ 8 1 / = # = = X.4 # @ @ + + + O O O O O O O O O o o o o o X X X . . . . . . . X X o O K @ o o O O O + = - = = = 1 / X./ E E E X.X.X.X.X.X.X.X.X.X.X.( w f <.H 1 f y.O.Z 1 - q w w w t t ^ L = # = 1 =.S 1.0 1 r s f ",
"1.%.3.Q / S - = # # @ @ y L @ t K @ @ # # / t 4 / = = = 1 +.1 # # # # # = # # # # # # # @ @ @ @ @ @ @ O @ L + X X X . . . X X o O K @ o o O O O + + + + @ @ @ = y f f f f f f f f g d d a a a S X.O.e y =.D 2 Z K.K.i - = # # @ @ @ # S L = # 1 J -.O.u S y.O.+.+.o.4./ P D - = # # # # f ^ @ q L @ @ @ # ^ 8 3 / = = = - o.q # # @ @ # = = # # # # # # @ @ @ @ @ @ @ o X X . . . . . . . X X o O K @ o o o O O + + @ @ @ # # - w y y y f f f f f f d d d d a Z X.:.r f :.D 9 S K.V.0 = # # @ @ @ @ # S / 1 = - D X.X.0 f y.=.1.",
"e 0 / +.( D - - = # # w ( 1 @ y Q @ # # # / w 8 ( - = = 2 O.1 = = = 2 X.o.( / / / ( ( / / / / / / / X.5 @ P + X X X X . X X X o O K @ o o O O O O + + + + @ @ @ @ # # # # # = = = = = - - - - - 1 U =.9 s y.o.0 X.N._ - = # @ @ @ @ @ @ g ( 2 - 2 0 V i D O.0 0 0 0 E +.X.I 1 - = # # w ( 1 @ q ^ # # # # ^ q 5 / ; = = - +.q # # # - / X.X.( ( ( ( / / / / / / / / X.; X X X . . . . . . X X o O K @ o o o O O O + + @ @ @ @ @ # # # # = = = = = = = - - - - 1 9 ( =.0 f u.J 9 ( u.H = # # # @ @ @ @ # g X.2 = - 2 i d D 3.u 0 ",
"0 0 X.=.X.D 1 - - = y X.4 @ @ 1 ( t # # = / y q X.- - - 9 -.2 - - e -.J 2 1 1 > > > > : : ; ; ; ; = D w @ ^ @ o X X X . X X X o O K @ o O O O O O O O + + + @ @ # # # # # # # = = = = = - - - - 1 2 / :.0 a S 2 2 u ;.D - @ @ + + + @ @ @ g ;.a i d u.-.H O.u i i u X.=.X.( 2 1 - = t ( 1 @ @ : ( y # # = ( t 8 ( - = - 1 O.q = = 1 X.I 2 1 1 1 > > > : ; # # = = ; / : o o X X . . . . . X X o O K @ o o o O O O O + + + @ @ @ @ # # # # # = = = = = - - - - 1 1 2 H =.r d d 1 1 9 X.D - # @ @ + + @ @ # f X.r 0 u u.4.H y.Z Z ",
"J O.N.=.o.H 2 1 - f +.q # # # # 5 ( f = - X.y t X.1 1 1 S -.2 1 p 4.( 2 - - = = # # # # # # @ @ @ + S y @ ^ @ o o X X . . X X o O L @ o o o o o O O O O O + + + @ @ @ @ @ # # # # # # = = - 2 1 - - 2 O.y.0 1 1 - - 2 +.X.= + + + + + @ @ = a y.u.V y.E S u.r.u.>.| u.-.+.X.9 2 1 f X.5 @ @ @ @ 5 ( f = - X.y 8 X.- - - f :.9 - e 3.I 1 - - = = = = # # @ @ + + + + L : o o X X . . . . . X X o O K @ o o o O O O O O O + + + + @ @ @ @ # # # # # = = = = - 2 1 - - 1 E >.e - - = = 1 o.+.- + + + + + @ @ # w O.y.Z y.X.D x.u.V.",
"L.u.y.H o.I a S T O.q # # # # # # 2 +.2 g +.2 g o.2 2 S -.f 1 S n.O.0 e 2 - - - = = = - - # # @ @ @ S y # ^ @ o o X X . . X X X O ^ g y y y y y y y y f f f f g g g g g g S S S S S S S D E y.a - - - 9 >.p - = = # # 1 D # O O O O + + @ # = f y.u o.f e D +.G._.G.0.H =.X.A H U O.8 @ @ @ @ @ @ 1 X.9 D -.2 f X.1 1 f O.d 1 g g.X.9 2 2 1 - - = = = = = # @ @ + + L > o o o X X . . . . X X X O ^ f t y y y y y y y f f f f g g g g g S S S S S S S D D E >.f = - - 2 =.y = = # # @ 2 H = + O O O + + @ @ # 9 3.u =.Z u F ;.J.",
"J.| Z i +.( :.o./ w = # # # # # # = X.( ( 2 w 1.g 9 8.m.a 1 f y.X.u +.:.o.S / E T D E O.X.- # @ @ @ S y # ^ @ o o X X X . . X X o t y t t t t t y y y y y y y f f f f f f g g g g g g g S D :.d = = = 1 o.r = # # @ @ + + O O O O O O + @ @ # 1 O.0 X.r 2 e V 0.L.u.A d ;.o.y.+./ w # # @ @ @ @ # # ( X.O.r f 1.f 1 ) b.d - r n.%.0 X.-.+.D H H H D D ;.H = @ @ + + L 1 o o o X X . . . . . X X o y y t t t t y y y y y y y y f f f f f g g g g g g g g g D =.r # = = - X.w = # @ @ @ + + + O O O O O O + @ # > +.0 O.d 9 0 d ;.",
"_ H S Z =.=.>.r - = # # # # # # # 1 -./ 1 t O.f - T ^.&.2 f -.S 2 0 :.X.-.D / / R S g E D = @ @ @ @ S y # ^ @ o o X X X . . X X X o o o o o o o o o o o O O O O O O O O O + + + + + + + @ @ = # # # = - o.9 # @ @ + + O O O O o o O O O + @ # > X.9 X.a 0 s S G ] _ A Z ;.-.y.f 1 - # # @ @ @ @ # > -.( 2 f :.g - g S.) - e O.D 9 e :.U >.H J S f f f E Z = @ @ + + L 1 O O o X X . . . . . X X X o o o o o o o o o o o o O O O O O O O + + + + + + + + @ @ # # # # # = X.9 # @ @ + + O O O O o o o O O + + @ : X.0 +.S u s i A ",
"r.y.y.2.y.y.=.2 = = # # # # # # > ( D = q +.y = d y.^ 9 f =.a 1 1 2 O.<.+.( X./ ( %.6 = = # @ @ @ @ S f # ^ @ o o X X X . . . X X X X X X o o o o o o o o o o O O O O O O O O O O + + + + + @ @ @ @ # = ( 2 @ @ + + O O O o o o o o O O + + @ ; ! 1 / -.-.>.0.0.q.0.r.:.2.y.O.2 - = # # @ @ @ @ : ( S = w =.d - f 3.S - e X.g 1 1 9 +.<.:.| ;.f = # = = = # @ @ + + Q 1 O O o X X . . . . . . X X X X X X o o o o o o o o o O O O O O O O O O O O O + + + + + + @ @ @ # / 2 @ @ + + O O O o o o o o o O O + @ = Q 2 / :.-.-.>.-.",
"r 0 0 0 e 9 2 - = # # # # # # > ( S # q X.w = y 2.S 1 f =.f - - - 1 9 0 E ( 2 - 1 ^ 1.2 # @ @ @ @ @ S f # ^ @ O o o X X . . . . X X X X X X X X X X X X o o o o o o o o o o o o o O O O O O + + + + @ # / 1 @ @ + + O O O o o o o o o O O + + @ # # - 2 e 0 r s s s r e q 2 1 - = = # # @ @ @ ; / g # t O.f - f y.S = q X.f = - - 1 9 u +.+.f :.S = = = # # @ @ + @ ^ 1 O O o o X . . . . . . . . X X X X X X X X X o o o o o o o o o o o o o o o o O O O O O + + + @ @ / 4 @ @ + + O O O o o o o o o O O + + @ = = - 2 9 9 9 e ",
"1 1 1 1 1 1 - = = # # # # # > ( g # t +.w # t -.g 1 y =.f = = = - - 9 J / 1 - - : > ! #.1 @ @ @ @ @ S f # ^ @ O o o X X . . . . . . . . . X X X X X X X X X X X X X X X X X X o o o o o o o O O O + + @ / 1 + + + O O O O o o o o o o O O + + @ @ # = - - 1 1 2 2 2 2 1 1 - - = = # # # # # : / f # t O.y = w 3.S - t +.y = = = - - e o.+.9 - y -.S - = # # @ @ @ @ ^ 1 O O o o X X . . . . . . . . . . . . X X X X X X X X X X X X X X X X X o o o o o o o o O O O + @ ^ 1 @ + + O O O O o o o o o o O O + + @ @ # = - - 1 1 1 ",
"- - - - - - - = = # # # # > / g # t +.w # 9 O.g - f =.f - = = = = = r H 1 = 1 9 - = - g X.1 @ @ @ @ S f # ^ @ O o o X . . . . . . . . . . . . . . . . . . . X . X X X X X X X X X X X X X o o o O O O + ^ 1 + + + O O O O O o o o o O O O O + + @ @ # = = - - - 1 1 1 - - = = = # # # # # 1 ( f @ 8 +.w # 8 +.g - y =.f = = = = - - f O.s 1 - = e =.S = # # # @ @ @ / 2 O O O o X X . . . . . . . . . . . . . . . . . . X . . . X X X X X X X X X X X X X X o o o O O + Q 1 + + + + O O O O o o o o o O O + + @ @ # # = = - - - ",
"= - - - - = = = = # # # : / f # t O.w # q O.d = w O.f - - - - 9 y 1 # 2 2 = f -.e = = = g X.1 @ @ @ S f # ( @ O o o X . . . . . . . . . . . . . . . . . . . . . . . . . . . . . . . . X X X X o o O O + ^ 1 + @ + + + O O O O O O O O O O O + + @ @ # # = = = - - - - - = = = # # # # # 1 X.S # q +.w # 4 +.g = t =.d - = = = 2 f 9 - 2 o.D - - = 9 O.g = # # # # # / 4 + O O o X X . . .     . . . . . . . . . . . . . . . . . . . . . . . . . . . . X X X X o o O O + L 1 + + + + + + O O O O O O O O O O + + @ @ # # # = = = ",
"1 1 1 1 1 1 1 1 > > > 1 / f # t +.w = 9 +.g = t +.y = = = = - H >./ # f =.q 1 D o.2 = # # f o.1 @ @ S f ; ( # O o o X . . . . .   .             . . . . . . . . . . . . . . . . . . . . . . X X o o O + Q 1 + @ 2 1 # # # @ @ @ @ @ @ @ @ # # # = ; : : > > 1 1 1 1 1 1 1 1 1 > : : : 2 X.S = w =.y # 2 o.g # 8 +.f - - = = - E y.O.6 - y O.f - = = 2 X.Z - 1 e - # / 4 + + O o o X X . . .                 . . . . . . . . . . . . . . . . . . . . . . . . X X o o O + L 1 + @ 1 1 # # @ @ @ @ @ @ @ @ @ @ # # # = ; : : > 1 1 ",
"X.X.+.O.2.=.X.X.X.X.X.o.f # q +.w = 9 +.S > y O.y = = ; : - 1 1 d X.# # f o.4 - S o.2 = # # f X.= @ S f = ( # O o o X X . . . .                     .         .       . . . . . . . . . . . . X X o o O Q 1 + = ;.:.( ( / / / / / / / / / / / / ( ( X.X.X.o.X.+.o.+.O.;.t.:.o.X.X.( ( X.g = w -.f = 2 +.S = 8 X.f - - > 1 1 1 2 d =.o.S : y O.f = = = 9 :.y e ;.2 = / 4 + + O O o o X . . . .                     .       . . . .   . . . . . .   . . . . . . X X o o O L 3 + # o.-.E E / ^ ^ ^ ^ ^ ^ ^ ^ ^ / / / / ( ( X.X.X.X.",
"> > 1 1 o.g > > > > > - # q o.w = 9 +.S 1 f :.g = g X./ / ( X.( o.I # # # y X.4 = g o.1 = # > o.- # S f = ( # O O o X X . . . . . .                                                 .   . . . X X o o O ! > + @ 1 1 = = # # # # # # # # # # # # # # ; ; ; ; : : : > 1 2 -.S 1 > > ; : : # w -.f - e O.S : q +.f # f o.X.X.o.X.X.o.( y :.D - t +.y = = - X.d 9 :.2 = / 8 @ @ + O O o X X . . . .                                                     . . . . . X X o o O ! 3 + + > > # # # # # # # # # # # # # # # # = = ; : : > ",
"# # # = / w # # # # # = w +.w = 9 ;.D 1 f :.S 1 > o.g 2 4 2 2 1 1 ; # @ @ # f X.8 - X.g = = > X.> # D f = ( # O O o X X . . . . . . . .                                                 . . . X X X o O k g @ @ @ @ + + + + + O O O O O O O + + + + + + @ @ @ @ # # = : o.f # # # # # # t O.f - e -.I 1 w +.f ; ; ( D e 9 q 2 2 2 > = w -.S = g / = = - X.f 2 =.2 = / 8 # 1 2 1 + O o X X . . . . . . .                                             . . . . . . X X o O k g @ + + + + + + + O O O O O O O O O O + + + + @ @ # # ",
"# # # # / t # # # # = - +.f = 9 +.D 1 9 :.L 9 D d +.w = = # @ @ @ @ @ @ @ # # f +.q ( g = = > o.> # D f = ( # O O o o X X X X . . . . . .                                               . . . . X X o o @ ! g # @ @ + + + + + + O O O O + O + + + + + + @ @ @ @ @ # # : o.y # # # # # = X.f - 0 -./ 2 9 3.L > f f ( y = = = # # # # = = e +.y f ( ; ; - ( f 2 O.1 = / q - o.E +.: O O o X X X . . . . . . .                                             . . . . X X o o # ! f + + + + + + + + + + + O O O O O O + + + + @ @ @ # ",
"# # # # / q @ # # # = 1 +.9 1 +.P e 0 0 <.f e 3./ o.y = # # @ @ @ @ @ @ @ # # = Q ^ X.g = = 1 o.> # D f - ( # + O o o X X X X X X X . . .                                                 . . . X X o o o @ ! S # @ @ @ + + + + + + + + + + + + + + + @ @ @ @ # # # # = X.y # # # # = - +.q 1 +.( f f f <.f 2 O./ ( y # # # # @ # # # = = f / g ( : : - ( f 2 +.1 = ( w 2 O.w +.1 + O o o o o X X X X . . .                                               . . . X X o o O @ W f @ + @ + + + + + + + + + + + + + + + + @ @ @ # # ",
"f # @ # / q @ # # = = 1 +.w e -.f U +.0 -.f 9 O.D +.y = # @ @ + + + + @ @ # = ; g ^ X.g - = 1 o.> # D g : ( = + O o o o o o o o o o X . . . .                                               . . X X X o o O # L ( P L Q L L L L L L L ! Q Q Q Q Q Q Q ^ ^ / ( X.g # @ # ( w # # = = - 2 =.t 2 =.f ( w.d <.d 9 +.T ( y # # @ @ @ @ # # = = w ( S X.: : - ( f 1 +.1 = X.f 1 X.+.X.- + O O O O O O o o X X . . .                                             . . . X X o o O O @ S / L Q L L L L L L L D D L D D T ! ! Q Q ^ / ( X.",
"> @ @ # / q @ # # = - 2 -.f e -.f ( X.e 3.y 9 O.Q +.y = # @ + + + + + @ @ # = - S ^ ( S - - 1 X.1 = D g > X.; + O o o o O O # = @ O X X . .                                                   . . X X o o O O @ 1 5 5 5 1 5 5 5 5 3 1 1 > > > > > > 1 1 1 2 X.D 1 @ @ @ / t # # = - 1 e <.f 2 ;.f / *.f <.g e O.^ ( y # # @ @ @ @ # # = - f X.S X.: : - ( f 1 X.1 - X.f 1 2 2 - # + + O + @ # = @ O o X . . .                                               . . . X X o o O O @ 1 1 5 5 1 5 1 1 3 1 1 1 > : : : : : > > 1 2 E E ",
"+ @ @ @ / q @ # # = 1 0 0.Z 0 -.d / / y <.S e +.T +.y = # @ + O O O + + @ = f / 3./ ( g - - 1 #.1 = D g > X.= + O O o o O = 3.n.d ; @ + + O O O O O O O O O O O O O O O O O O O O O O O o O O O O + + + @ @ # # # # # # # # # # ; ; 1 @ O o o o o o O O O + D w @ @ @ @ / t @ # = - 2 i u.S e =.f Q X.f u.P 0 O.^ X.f # # @ @ @ @ @ # y ( =.O.D o.> - - / f 1 X.1 - X.f 2 U X.L = + + + @ - o.u.Z : # @ + O O O O O O O O O O O O O O o o o O O O o O O O O O O O + + @ @ @ # # # ; ; ; ; = # # # ; 1 @ O o o o o o o O O + g f ",
"+ + @ @ / q @ # = - 2 _ G.' u -.d ( ( I u.y.S X.T O.y = # + + O O O + + # = X.X.:.( ( a - - 2 #.1 = P g > X.= + O O O O O 9 T.[.y./ / Q ! ! W W W W W W W W W W W W W W W W W W W W W W W W W W W W ! ! Q ^ ^ / / / / / / / / / / X.-.1 o o o o o o o O O + D t + + @ @ / q @ # = 1 0 ] L.` u -.d L X./ M.j.R O./ X.f = # @ @ @ @ # # Q ( +.=.D X.- - - / y 1 +.2 - X.f 9 :.H O.: + + + @ 0 G.[.a.X./ ^ Q ! ! W W W W W W W W W W W W W W W W W W W W W W W W W ! ! ! Q ^ ^ / / / ( ( ( ( / / / / X.:.1 o o o o o o o o O O g f ",
"O + + @ ^ 8 @ # = - 9 q.(...i -.f / X.X.4.u.D X.T O.y = @ + + O O O + + @ = X.=.y.X.( d - - 2 #.2 = ^ g 1 X.= + + O O O O # D X.9 @ + O O o o o o o o o o o o o o o o o o o o o X X o X X X X o o o o O O O + + @ @ @ @ @ @ @ @ @ @ ; + o o o o o o o o O O K q O + @ @ I q @ # = 1 u s.[.>.s -.d D X.X.u.h./ O./ +.f = # @ @ @ @ @ # Q O.3.3.D +.1 - - / y 1 +.2 - ( w 1 -.O.-.1 @ + + @ - E -.s = @ + O O O o o o o o o o o o o o o o X o X X X X o X X o X o o o O O O + + @ @ @ # # # # # @ @ # > + o o X X X X o o o O f f ",
"O O + + P 4 @ # = - Z q.| Z 0 =.f / X.D :.=.d +.T O.y = @ + O O O O O + @ = f E :./ ( g - - 2 *.2 = P g 1 X.= + + O o o O O + @ + O o X X . . . . . . . . . . . . . . . .   .               . . . . . . X X X o o o o O O o o o o o o o X X X X X X X o o o k 8 O O + @ I q @ # = - A s.>.S 0 =.f Q X.S 3.3.S O./ X.f = # @ @ @ @ @ # 8 S X.O.D X.- - - ( f 1 O.2 - ( w ; g :.f = @ + + + + # # @ O o X X X X . . . . . . . . . . . . . . . .                   . . . X X X o o o o O O O O o o o o o o X X X X X X X X o o f w ",
"O O O + L 4 @ # = d =.a 2 2 9 O.y / +.4.4.y.X.+.Q +.w # @ + O O O O O + @ # - 1 R / ( g - - 2 3.9 = ^ g > X.: @ + O o o o o o o o o X X X . X X X X X X X X X X . . . . . . . . . .       . . . . . . . X X X X X o o o o o o X X X X X X . . . X X X X o o g 8 o O + + ^ q @ # = f -.Z e 9 e =.f ^ +.1.3.3.O.O./ X.f = # @ @ @ @ # # = - g +.D X.- - - ( f 1 +.1 - ( w = 1 ( = # @ + O O O O O O o o X X X X X X X X X X X X X . . . . . . . .     . .   . . . . . . . X X X X o o o o o o o o X X X X X X . . . X X X X o y w ",
"o o O + L 2 @ # y o.w 1 1 1 2 O.w ^ O.y.S X.3.O.Q +.w # @ + O O O O O + @ # - 1 E / ( g - - - / +.y H g > X.: @ + O o o o X X X X X X X X X X X X X X X X X X X X . . . . . . . . . . . . . . . . . . . . . . X X X X X X X X X X X X . . . . . . . X X X o f 5 o o O + ^ 4 @ # f o.t - 1 1 2 =.g ^ #.4.g Q 4.O.^ X.f = # @ @ @ @ # # = - f X.S X.= = - R ( w X.1 = ( w # 1 / = @ + O O o o o o o o X X X X X X X X X X X X X X X . . . . . . . . . . . . . . . . . . . . X X X X X X X X X X X X X . . . . . . . . . X X X w t ",
"o o O O D 1 @ t / 1 = = - - 1 O.t ^ O.y.s H 3.O.Q +.w # @ + O O O O O + @ # = - X.E X.g - = = = f O.w.g > X.: @ + O o o X X X X X X X X X X X o o o o o o o o X X X X X . . . . . . . . . . . . . . . . . . . . . . X X . . . . . . . . . . . . . . . X X o g 5 o o O O L 4 @ y X.2 = = - - 2 O.f ^ =.4.f S 3.O.^ X.f = # @ @ @ @ # = = - S ( g ( = = - 1 D -.:.1 = ( w # 1 / # @ + O O o o o X X X X X X X X X o o o o o o o X X X X . . . . . . . . . . . . . . . . . . . . . . X X X X X X . . . . . . . . . . . . X X X w t ",
"o o o O D 1 # ^ 1 @ # # = = 1 +.t T o.y.d H 3.O.Q +.w # @ + O O O O + + @ # = g =.0 X.g = = # # # 1 X.g 1 o.: + + O o o X X X X X X X X o o o o o O O O O O o o o o X X X X . . . . . . . . . . . . . . . . . . . . . . . . . . . . . . . . . . . . . X X o g 4 o o O O L 5 # ( 4 # # # = - 1 O.f ^ O.4.d D 3.+.Q X.f = # @ @ @ @ # = - y +.t f / = = = = = y 3.2 = / t # 1 / # + O O o o X X X X X X X o o o o o o O O O O o o o o X X X . . . . . . . . . . . . . . . . . . . . . . . . . . . . . . . . . . . . . . X X X w t ",
"X o o O S 1 # ! # @ @ @ # = - +.q T X.y.=.y.3.O.Q +.t # @ + O O O O + @ # # f X.e - ( g = # # # # # S a 1 o.; + + O o X X X X X X X X o o o O O O + + + + O O O O o o o X X X X . . . . . . . . . . . . . . . . . . . . . . . . .   . .   . . . . . . X X o g 8 o o o O L 5 @ ^ ; @ @ # # = - +.y Q O.y.3.4.3.X.! X.f # # @ @ @ @ # = w +.y = f / # # = = = > +.2 = / q @ 1 / @ + O O o X X X X X X o o o O O O O O + + + + O O O o o o X X X X X . . . . . . . . . . . . . . . . . . . . . . . .   . . . . . . . . . X X X w t ",
"X o o O S 3 @ ! @ + + @ # # - o.t Q ^ g ( X.a O.Q +.t # @ + O O O O + @ # f o.9 - - / f # # # # # # D g > X.; + + O o o X X X X X o o o O O + @ @ @ @ @ @ @ + + + O O o o o X X X X X X X X X X X X X X X X . . . . . . . .                 . . . o O o X o ^ y o o o O D 3 @ ^ # + @ @ # = - +.y Q X.D +.o.a X.! ( f # # @ @ @ @ # 2 +.f - = y ^ # # # # # > +.1 = / q @ 1 / @ + O o o X X X X X o o o O O + + @ @ @ @ @ @ @ + + O O o o o X X X X X X X X X X X X X X X . . . . . . . . . . .     .     . . . . o O o X o S f ",
"X X o o S > @ Q @ + + @ @ # - o.t T D d a.y.s O.! +.q # @ + O O O O + @ > X.I - - = Q y # # @ @ # # D g > X.; + O O o X X X X X o o O O + + @ # = = = = = # # # @ @ + O O o o o o o o o o o X X X X X X X X X X X X . . . .                 . . o K ^ f o X ; @ o o o o S 1 + ^ # + + @ @ # - o.t T ( a B.B.a o.K ( y # # @ @ @ # = g o.1 - = y Q @ @ @ @ # - X.1 = / q @ > ^ @ + O o o X X X X o o O O + + @ # = = = = = = # # @ + + O O o o o o o o o o X X X X X X X X X X X X X . . . . . .             . . X k Q f o X ; # ",
"X X o o S 1 # Q @ O + + @ @ - o.q T D 9 J H 0 *.L X.4 @ + + O o O O + # / -.:.y = # Q y @ @ @ @ @ # D g : X.; + O O o o X X X o o O + + @ # e E J } E E E H H H g = @ + + O O O O o o o o o o o o o o X X X X X o o X . . . .               . . o Q f ! o X X X X X o o K 5 @ ^ # O + + @ # = X.q S / 0 X.o.u O.L ( w @ @ @ @ @ # D +.-.e = = y P @ @ @ @ @ : o.1 # / q @ > ^ @ O O o o X X X o o O O + @ @ 6 / ( ( ( ( / / / R f # @ + + + O O O o o o o o o o o X X X X X X X o o X . . . .             . . . o ! y ! o . . . ",
"X X X o L / L L + O O + + @ = X.2 T ^ 1 9 9 D 3.f O.2 @ + O O o O O + # ( g X.f = # ! w @ @ @ @ @ @ S g = ( ; + O O o o X X o o O + @ @ = f o.Z f d f y y w y f -.q # # @ + + O @ 8 ; # @ @ @ @ @ @ @ + + + + @ f f O . . . . .               . X y +.w o X . . X X X o ^ ( L L + O O + @ @ = X.q S / 9 0 u / 4.f #.q @ @ @ @ @ # E S X.y = # w P @ @ @ @ @ = X.> # / 8 @ > / @ O O o o o X o o O O + @ # t X.S f f d d f f y y +.4 # # @ + + + @ 2 ; # @ @ @ @ @ @ + + + + + @ f g O . . . . .             . . X t o.t X . . . ",
". X X o K t ; @ O O O O + @ = X.2 y *.X.+.O.O.f / Q = @ + O o o o O + + f <.X.1 = # L t + @ @ @ @ @ S f = ( ; + O O o o o o o o O + @ = f :.S 0 f f f f f 9 1 2 -.a - = # @ @ + : *.( / / / ^ Q Q ! ! W W W S R o.U ; . . . . .           . . . . + K o X . . . . X X o L t ; @ o o O O + @ # X.q w $.X.#.3.4.K X.( = @ + + + + @ f w.X.1 # # t L @ @ + @ @ = ( > # ^ 8 @ > / @ O O O o o o o o O + @ = y -.S e y s p f d 0 1 1 o.f - = # @ @ + > 3.X./ / ^ ^ Q Q ! ! W W W S R o.E ; . . . . . . . .       . . . + k o . . . . ",
". . X o K ; o o o o o O + + # ( 1 = 2 9 e e e / Q = @ + O O o o o O O + # X.q # # # L t + + + + + @ S f = ( ; + O O o o o o o O + @ # e u.y.-.;.d.s.:.o.3.*.a a :.H 2 - = # # @ @ > = = = = # @ @ + + + O O O + w w O . . . . . . . . . . . . . . + k X . . . . . . X o K ; o o o o o O O + # X.8 = 1 2 2 t w o.X.> # @ + + + + @ # X.9 # @ @ t P @ + + + + # ( : @ ^ 8 + > / @ O O O o o o o O + @ # e u.u.3.o.u.d.-.X.=.O.u u ;.H 9 1 = # @ @ # 1 ; = = # # @ @ + + + + O O + w w O . . . . . . . . . . . . . . O k o . . . . ",
". . X X K ; X o o o o O O + # ( 1 = - 1 0 f X.L = @ + + O o o o o o O + @ / 4 @ # @ L t + + + + + + g f = ( ; + + O o o o O O + + # = S u.O.-.0.-.a.J d H y.w.<.n.C._ 9 - = = # # @ # # # @ + + O O o o o X X X X X X . . . . . . . . . . . . . . + k X . . . . . . X X K ; X o o o o o O + @ ( 8 = = : 1 t ( ( - # @ + + O O O + @ U 2 @ @ @ g o.# + + + + # ( : @ ^ 8 + > / @ + O O o o O O + + # = a y.X.O.:.;.u.H u a :.=.=.y.V.o.0 - = # # # @ # # @ @ @ + O O o o o o X X X X X . . . . . . . . . . . . . . O k o . . .   ",
". . . X k ; X X X X o o O O @ ^ > # = 2 X.M.o.- # @ + O o o o o o o O O ; ( : @ @ # / q + + + + + + g f = ( ; + + O O O O O + + @ # - S ;.u d y.G.H.d.` { y.:.a.j.V.>.o.9 - - = > 4 4 1 > 2 1 @ O O O o o o X X X X X . . . . . . . X X X X X X X + k X . . . . . . . X k # X X X X o o O O @ ( 5 # = - ^ u.X.- # @ + + O O O O O ; / : + + + > t @ + + + + # ( : @ ^ 8 + > / @ + O O O O O + + @ # - Z ;.u i :.N.G.0._ D :.+.u.w.M.0.+.2 = = = ; 1 2 1 > 2 1 # + O o o o o X X X X X X X . . . . X X X X X X X X + k o . . .   ",
". . . X k # X X X X o o O O @ ^ : # = 1 4.K.u = @ + O o o X X X o o o # L q + + # S L # + O O O + + g f # ( ; + + + O O + + @ @ # # = S o.0 u J 0.f.`.K.>.y.A >.0.S 0 E ;.r 1 - g 4.=./ ^ =.*.t O O O o o o o X X X X X X X X X X X X X o o o o X @ k X .     . . . . X k # X X X X X o o O @ ^ 3 @ = - 4.K.0 = @ + + O o o o o # L t + O O O O O O O O O + # ( : @ / 8 @ > / @ + + + O + + + @ # # - a +.0 u J t.f./.C.;.y.S 3.>.S u J o.9 - = w #.O.( I =.O.w + O o o o o X X X X X X X X X X X X X o o o o X X + k o . . . . ",
". . . X g # . X X X X o o O @ ^ ; @ # = D o.- # + O O o X X X X X o o t f O O + f L # O O O O O + + g f # ^ ; + + + + + + @ # # 1 t w R =.S D J ` i.(.T.e.e.J J u.y.f 2 H >.X.E -.O.S ( / g / y + O O o o o o X X X X X X X X X o o o o O O o o o # K X . .     . . . X k # . X X X X o o o + ^ > @ # = S +.= # + + O o o o o o y f O O O O o o O o O O O O # ( ; @ / 8 @ 1 / @ + + + + + @ @ # > t r D :.S H J ` i.E.L.0.w._ J w.y.s 2 D ;.H D X.X.g X.X.S / f + + O o o o X X X X X X X X X X o o o o O o o o o + k o . . . . ",
". . . X g # . X X X X o o O + ! # + @ # g P # @ + O o X X X . . X X X t y O O + ^ : O O O O O O O + g f = ^ ; + + + + @ @ # = q o./ ^ / X.X.X.;.>.0.e.e.w.-.o.X.X.=.3.r 1 S a.-.X.y.3.^ Q #.#.8 + O O o o o o o o X X X X o o o O O O + + + O O O # K o . . . . . . . X k # . X X X X X o o + ^ : + @ @ f ^ # @ + O o o X X o o y q o o o o o o o o o o O O # ( ; @ / 8 @ 3 / # @ @ + @ @ # = 2 ( / / / X.X.o.;.>.0.e.q.>.-.;.X.X.+.=.t 1 a u.O./ :.O.P L #.#.w + + O o o o o X X X X X X o o o o O O + + + O O o + k o . . . . ",
". . . X g # . X X X X o o o + ! # + + + f S + + O o o X X . . . . X X t y O O O ! # o O o o o O O + g f = ^ ; @ @ @ @ @ # = w <.D - - > 1 1 2 0 u u i i u 0 9 2 2 2 T 1.w 1 d 3.D 0 9 1 - > : # + + O O o o o o o o o o o o o O O + @ # # # @ + O ; L o . . . . . . . X k # . X X X X X o o O ! : + + + t L @ + O o o X X X X X y q X o X X X X X X o o o O @ ( ; @ / q @ 5 / # @ @ @ @ # = e =.D - - - 1 1 2 0 u i d i u 0 9 2 2 1 S O.t - f 3.D 2 2 - - 1 > # + + O o o o o o o o o o o o o O O + @ # # @ + + O @ K o . . .   ",
". . . X g # . X X X X o o o + ! # O + + w g + O o o X X . . . . . . X t t o o O ! # o o o o o O O + g f ; ^ ; @ @ @ @ # = 9 =.y.a - - > > 1 1 2 e e e e e 9 2 1 1 1 - g $.t - w 3.S - = # @ @ @ @ + O O O O o o o o o o o o O O + @ 1 A _ i = @ # S f o . . . . . . . X k # . X X X X X o o O ! ; O O O q K + O o o X X X X X X t 8 X X X X X X X X X o o O @ ( ; @ / q # 1 / # @ @ # # = 2 +.y.g - - - 1 1 2 2 e e e e e 9 2 1 1 1 - g O.t - w =.S - # # @ @ + + O O O o o o o o o o o o o O O + @ - Z J u = @ @ f y o . . .   ",
". . . X g # . X X X X X o o + ! @ O O O t f O O o X X . . . . . . . . 8 t o o O ! # X o o o o o O + g g ; X.1 # # # # # = f O.=.S - - - - - 1 2 2 2 9 2 2 2 1 1 - - - = g #.t = 4 X.( L L K K K K S S g g S g g g g g g g g g S D H ;.P.[.s.X.H / K + o X . . . . . . X k # . X X X X X o o O ! ; O O O q S O O o X X . . . . . t 8 . . . . . . X X X o o O @ ( : @ / t # 1 ( : # # # = = y O.+.S - - - - - 1 2 2 2 2 2 2 2 1 1 - - - - g #.q = 4 X./ L S S g g g g g g g f f f f f f f g g g S S D ` G.].a.E H U K + X . . .   ",
". . . X k # . X X X X X o o + ! @ O O O q f o o o X . . . . . . . . . 8 q o o O ! # X o o o o o O + g g # f / S / 6 # = = f u.=.w 1 - - - - 1 1 2 2 9 2 2 2 1 - - - - ; = f +.8 @ ; w y t t w t q q 8 8 8 8 8 8 8 8 8 8 8 4 8 8 q y H l.(.q.S w 4 @ o o X . . . . . . X k # . X X X X X X o O ! # o O O 8 g O o o X X . . . . . t 8 . . . . . . . X X o o O @ ( : # / t # ; D X./ w = = - y u.:.r 1 - - - - 1 1 2 9 9 2 2 1 1 - - - - = = f +.8 @ : w w t t q q 8 8 8 8 8 8 5 5 5 5 5 5 4 8 8 8 t y A a.T.>.d w 4 @ o X X . . . ",
". . . X g # . X X X X X o o + ! @ o O o q f o o X X . . . . . . . . . 8 8 o o O W @ X X o o o o O + g g # # w -.+.T = = - / =.r 1 1 1 1 1 1 1 D X.X.o.o.o.X.X./ 2 - = = = # w ( > + + + + + + + O O O o o o o o o o o O O O O O + @ - u C 0 - @ + O o o X X . . . . X X k # . X X X X X X o O ! # o O O 8 g o o X X . . . . . . 8 5 . . . . . . . . X o o O @ ( : # ( t # # : +.X.X.- - 1 H :.y 1 1 1 1 1 1 1 D X.o.o.o.X.X.X./ 2 - = = = = w ( 3 + + + + + O O O O O O O O o o o o o o o O O O + @ - 0 V 9 = @ @ + O o X . . . ",
". X X X k # X X X X X o o o + ! @ o O o q f o o X X . . .   . . . . . 8 8 X o O W # X X X o o o O + g g # # = Y +.y = = g X.2 1 1 1 1 1 2 2 / +.d f f f f f f ^ +.2 = = # # @ 8 ^ : O + + + + + O O O O O O O o o O O O O O O + + + # = - = = # @ + O o X X X X X X X X k # X X X X X X X o O W # o O o 8 g o o X X . . . . .   8 5   . . . . . . . X X o O @ ( > # X.y # # ; g o.S - = f O.0 1 1 1 1 1 2 2 ^ X.g g g d f f f / +.2 = = # # @ 8 ^ : O + + O O O O O O O O O O O O o O O O O O + + @ # = = = # # @ + O o X . . . ",
"X X X o g # X X X X X o o o + Q @ o o o q y o X X X . .     . . . . . 5 8 X o O W # X X X o o o O O y ^ = # = - 1 - - = T S - 1 1 1 2 2 0 o.O.0 2 2 2 1 1 1 1 1 L O.2 = # @ @ + 5 Q : + + + O O O O o o o o o o o O O O O O O O + + + @ # # = - = @ O o X X X X X X X o g ; X X X X X X X X O ! # o O o 8 g o o X . . . . . .   8 7   . . . . . . . X X o O @ ( > # f ( > # ; - 1 1 - - S D 1 1 1 1 2 2 0 X.o.0 2 2 2 2 1 1 1 1 D +.2 # # @ @ + 5 Q ; O O O O O O O O O O o o o o o o o O O O O + + @ @ # # = = = @ O o X . . . ",
"X X X o g # X X X X X o o O y K O o o o 8 y o X X . . .         . . . 5 8 X o O ! # X X X o o o O O # K D > - - - - - - T S - 1 1 2 9 0 *.3.u 9 9 2 2 1 1 1 1 - > L O.1 @ @ + + O 7 / 1 + + + O O O O O O O O O O O O O O O + + + + @ @ @ = 0 +._ 1 + o o X X X o o X o g ; X o o o o o X o 8 k + o o o 5 f o o X . . . . . .   8 7   . . . . . . . X X o O @ / f # # f ^ 1 - - - 1 - - Y D 1 1 1 2 9 0 +.:.u 9 2 2 2 2 1 1 1 1 > L +.1 # @ + + O > ! : + + + + + O O O O O O O O O O O O O O + + + @ @ # = 0 | J 1 + o X . . . ",
"5 q + o g # X X X X X X O y K @ o o o o 8 y X X X . . .         . . . 5 8 X o O ! # X X o o o o O + + # ! / 2 - - 1 1 > Q S 1 1 2 2 u 3.:.a 0 u ^ E a e g S d - = = S ( ; + + O O O 5 / P Q ! K K W W W W W W W W ! S L D D L L D L P ^ / X.t.].T.u + o o X X o 1 w @ o f # X X o o o o o 8 k + X o o o 5 f X X X . . . . .     8 7     . . . . . . X X o O + : / y # # f X.w 1 1 1 1 - T D 1 1 2 9 u O.3.a 0 0 D R S r g S d 1 - : K X.: + + + O O : / H D D D D K K K K K K K K K S D D S S D D D D R E } t.[.(.i + o X . . . ",
"X./ S > w 8 y y y y y y g g + o o o o + K L + X X . . .         . . . 5 8 X o O Q # o o o o o o O + @ @ = E o.a s 2 2 1 / D 1 2 2 0 y.y.a 0 0 S C.j.u.D 2.X.3.1 = # # f ^ # O O O O O # : ; ; ; # # ; ; ; ; ; ; ; ; ; S y ; : : : : > > 1 2 S j.y.2 + o o X X # ( / / q f 8 y f f f g g S k O X X o o + S / + X X . . . . . .   8 7     . . . . . . X o o O + + ; / S : - L >.S f 2 1 1 T D 1 2 2 0 y.w.i 0 0 Z u.u.a.H :.+.:.2 - = = g ^ ; O O O O O # > : 1 1 ; ; ; ; ; ; ; ; ; ; ; S f ; ; ; : : > 1 2 9 H V.u.9 + o X . .   ",
"X./ y ; f 5 : > > > > : ; O o o o o o 8 / P 8 X X . . .         . . . 5 8 X o O ! y O o o o o O O + @ # = 2 o.k.u.D 2 2 ( o.g S S H u.+.J J U X.>.:.u.H 1.T *.1 = # @ @ y ( q O O o o o o o t g o X X X X X X X o o o f > o o o o o O O O + # 1 1 @ O o o X o # X.o.S 1 g 5 : > > > 3 5 1 + X X X X X 5 ( P t X X . . . . . .   8 7   . . . . . . X X o o O O + + 1 / 2 - 2 U s.u.I 2 1 R o.g S S H u.+.J U U { ;.X.u./ 1.T O.1 = # # @ t / 8 O O O O o o O w S O X X X X X X X X o o y 8 o o o o o o O O + # 2 1 @ O o X . . . ",
"# ; X . X X X X X X X X X X o o o o o 5 +./ : X X . . . . . . . . . . 8 q X o O ; ( y O o o O O + + @ # - 1 S u.y.X.9 9 D -.+.X.X.X.X.o.+.;.;.;.-.-.X.Z +.X.! ; # @ @ + + f g O o o o o o o q k o X X X X X X X X o o f > o o o o o o O O O O O + O o o X X o o ; > + o o o X X X X X X o o o o o X X ; X.U 5 X X . . . . . . . 8 7   . . . . . X X o o O O O + @ # = - 1 1 d d.y.=.9 9 S +.X.X.X.X.o.+.;.;.;.-.-.;.+.S +.X.K = # @ @ + + w f O o o o o o o 8 K o X X X X X X X o o o f 4 o o o o o o o O O + + + O o X X . . . ",
".   . . . X X o o o o X o o o o o o o @ / 3 o X X . . . . . . . . . X 8 t o o o O # L y O O O + @ @ # = - 1 e X.=.a 9 9 w 0 0 9 9 9 2 2 2 9 9 0 u u S p 2 1 = # @ + + + O + + o o o X X X X > y X X X . X X X X X o o f : X o o o o o o o o o o o o o X X X X o X X X o X o X X o o o o o o o o o o X O L 4 O X X . . . . . . . 8 5 . . . . X X X o o O O O + + @ # = - 1 2 0 J =.S 9 e q q e 9 2 2 2 9 e e 0 u u a I a 9 1 = # @ + + O O O O o o o X X X X : f X . . . . X X X X o o f 4 o o o o o o o o o o o o o X X . . . . ",
"    . . . X o o O O o o o o o o o o o @ P @ o X X X . . . . . X X X X 8 t o o O O O # K 7 O + @ # - 1 2 1 2 2 9 e 0 0 w r p f y e q 2 2 2 2 g O.J D B.#.9 : # @ + + O O O o o o X X X . . . > y . . . . . . . X X o @ / 3 X o X X X o o o o X X X X o o X X X o o X X X X o o o o o o o o o o o o o o O K @ o X X X X . . X X X t 8 . X X X X X o O O O O + + @ # - 9 9 2 2 e e e 0 w w r f f w q q q 6 2 2 g -.X.D A.5.0 1 = # @ + O O O o o o X X X X X . : y . . . . . . . X X o ; ( t O o o X X X o o o o o X X X X . . . . ",
"    . . X X o O + + O O O o o o o o o @ P @ o X X X X X X X X X X o o g S O O O O # g ; @ + + @ = H :.:.S o.=.O.O.=.-.:.:.<.w.w.:.=.1.^ 1 2 X.=.y.J V.6.2 = # @ + O O O O o o X X X . . . . : y . . . . . . . X X + ^ o.f o X X X X X X X X X X X X X X X o + + o X X X X o O + + + O O O O o o o o o O K @ o X X X X X X X X o g f X X X X o o o = S # + + @ # = P w.4.D X.=.o.O.=.-.:.>.w.w.:.O.+.%.^ 2 2 X.3.y.U B.6.e > # @ + + O O o o o X X X . . . . ; y . . . . . . . X X + ^ o.S O o o X X X X X X X X X X X X . . O + ",
"    . . X o + 1 u 1 @ + O O o o o o o @ ^ @ o X X X X X X X X X X o o 4 q + O O O @ W g @ + @ # = o.H %.X.d.;.1.H a Z D J u.{ D S d Q X.1 1 S 3.u.H a r 1 = # @ + O O o o o o X X . . . .   : t   . . . . . . X X @ / S S o X X X X X + @ @ @ + + + + 8 # > L I ; X X X o O @ 1 0 - + + O O O o O o o O K @ o X o o X X X X o o 4 4 o o o o o O O @ K S @ + @ # - X./ o.X.u.;.X.D S S S H u.{ D a f T X.1 1 g 3.a.U a p 1 - # @ + O O O o o o X X . . . .   ; y .   . . . . . X X @ / S S O o o o X o + @ @ @ @ @ @ @ 8 # # T ( ",
"    . . X O = 3.~.:.a w q 8 4 4 5 5 5 t o.t 3 > : : : : : : : > > 3 5 q 3 + O O O O + f ! ; # # - X.4.y.H y.N.K.D 9 9 s 3.j.Z e 9 2 f ( > 1 1 2 S -.S 1 - = # @ + O O o o o o X X . . . .   : t     . . . . . X X o t o.1 o o X X X > ^ K K K K k g f L g / U / 8 X X X o O - >.T.-.d w t q 4 4 4 4 4 8 / q 3 7 3 3 7 7 > > > 7 7 > > 5 : O O O O O + f S # # = - ( 4.y.( u.c.a.g 9 9 0 +.h.a e 2 1 f ( 1 1 1 9 g -.D 1 - = # @ + + O o o o o X X . . . .   ; y . . . . . . . X X o q ( ; o o o o o 7 Q K K S g g S g S f S / ! ",
"    . X o O 1 u.[.u.E D D S g g g g g g S g g f f f f f f f f f g g K L X.t O O + + + @ S / > = = 2 f f e f D D s 9 e X.4.d 9 2 2 1 d X.> > 1 1 - y O.f = # # @ + O + # O o X X . . . . .   : t     .   . . . X X o ; S O O o o X : K ; O O O O O o O j @ @ S K @ X X X o O 2 a.].d.J D D S S S g g g g S g g f f f f g g g g g j j k K ( t + O O + + @ g I 1 = - 9 f d 0 d S S r 2 e X.4.d 9 2 2 1 f X.1 > 1 1 1 w O.S - # # @ + + @ : O o o X X . . . .   ; y . . . . . . . X X X # S O o o o o 5 ! ; O O O o o o O f # + f W ",
"    . X o O # u H 0 = # @ + + O O O O o o o o o o o o o o o o O O O O + ; ^ t + + + @ @ = L X.1 - - 1 1 2 2 9 e 9 e ( +.0 2 2 1 1 1 d X.1 > 1 > - ; q X.f # # @ + + 2 o.@ o X X X . . . .   : t         . . . X X o ; K O O o o > g + X o o o o o X O W + o O O o X X X o O # u J u = # @ + + + O O O O O O o o o o o o o o o o o O O O ; L t + + + @ @ # D o.2 - 1 1 2 2 2 9 9 9 2 / *.f 2 1 1 1 1 f X.1 > 1 > - : 4 X.g # # @ @ + 2 O.# o o X X . . . .   ; y . . . . . . . . X o # S O o o o 3 K # o o X X X X X o k # o o o ",
"  . . X X o + @ # # # # # @ + + O O O o o o o o o o o o O O O O O O O + + # ! y @ @ @ # # - P o.2 - 1 1 1 1 2 2 e ( +.e 1 1 1 1 1 1 a O.1 1 1 1 : ; # q X.= # @ @ + > ( + o o X X . . . .   : t .     . . . . X X o ; K O o O O K : X o X X X X X X o W + X X X X X X X o O + @ = = = # # @ + + + O O O O O O o o o o o o o O O O O O + + ; Q t + @ @ @ # = D X.9 1 1 1 1 1 2 2 9 ^ +.e 1 1 1 > 1 1 d +.1 1 1 1 : = = 8 X.; @ @ @ + : ( + o o X X . . . .   ; y . . . . . . . X X o # K O o o o g 1 o o o X X X X X o k @ X X X ",
"  . . X X o O + @ # = = = # @ + + O O O O o o o o o o o O O O O O O + + + + ; ^ f # # # = = 1 H o.g g g S S D D +.+.9 1 - - - > - 2 X.o.2 2 H X.w = # 1 ( # @ @ @ + ; ^ + o o X X . . . . . > y . . . . . . . X o o : L O O O O K ; o o X X X X X X o W + X X X X X X X o o O + @ # = - = # @ + + O O O O O O o O o o o o O O O O O + + + + # Q f # # # = = - D o.S g Z S S S S X.O.e 1 1 - - - - 2 X.o.1 2 H o.w = = 1 ( # @ @ @ + ; / + o o X X . . . . . ; y . . . . . . . X X o # W O O O O S : o o X X X X X X o k @ X X X ",
"  . . X X o O + @ = 2 V i 1 # @ + O O o o o o o o o o o o o O O O O O + + + @ > ( S = = = = - - g R R E E ( X.X.( 0 1 1 - - - - 2 X.<.y 1 0 0.=./ = # 1 / # @ @ @ + ; / + o o X X X . . . . 7 y . . . . . . X X o o : Q + O O O K ; o o X X X X X X o W + X X . . . X X o o O + @ = 9 A C 2 # @ + O O O O O o o o O o o o o O O O + + + + + + ; ( g = = = = - - a / E ( X.X.X.X.( 0 1 1 - - - - 2 ( 3.0 1 s y.=.( = = 3 / # @ @ @ + = / + o o X X X . . . . : y . . . . . . X X o o # ! + O O O S : o o X X X X X X o k @ X X X ",
"  . . . X o + 1 q d  .~.J._ Z f y t t q q q q q q q q t t t t w y y y y f f 1 # 1 +.Q - = - - - - - 1 1 2 2 2 2 2 2 1 - - - - 1 ( y.I 1 1 2 E y.( - # 1 ( # @ @ @ + ; ^ + o o X X X X X X . 5 y X . . . . . X X o o : Q + O O O L : o o X X X X X X o W + . . . . . . X o o + 1 q d >./.L. .S d f w w t t t q q t t q q t q t t w y y y f y : @ 1 X.D - = = - - - 1 1 1 2 2 2 2 2 2 1 - - - - - / y.I 1 1 2 ( y.X.> = 1 ( = @ @ @ + ; / + O o o X X X X X . > f . . . . . . X X o o ; ! + O O O S : o o X X X X X X o k @ . X . ",
"  . . . X o q / D H 0._.T.| D S g f f f f f f f f f f f f f g g g g g S S ^ +.q - 9 O.^ 1 - - - 1 1 2 2 2 2 9 2 2 2 1 - - - - 2 X.^ D - - - 1 q ( f # 1 ( = @ @ + + ; ^ + O o o X X X X X X 5 f X X . . . X X o o O > Q + + + + L : o o X X X X X X o W + X . . . . . X o O w X.D H t.(.W.>.H D S g g f f f f f f f f f f f g g g g g S D / X.4 = 2 +.L 1 - - 1 1 1 2 2 9 9 9 2 2 2 1 - - - - 2 X./ P - - - 1 2 / f = 1 X.= @ @ @ + ; / + O o o X X X X X X 3 f X . . . . X X o o O ; Q + O O O K : o o X X X X X X o k @ . X . ",
"    . . X 5 ! ; @ = 9 F Z 1 # + O O o o o o o o o o o o O O O + + + @ @ # = g =.y - 9 O./ 1 1 1 1 2 2 e e 0 e 9 2 2 1 1 - - - 6 O.+.f = = = - = Y g # 1 ( = @ @ + + ; ^ + O o o o X X X X X 8 f X X X X X X o o O O 1 / @ + + + L : o o o X X X X X o W + X . . . . . . X 8 / : @ = 9 H F 2 # @ + O O o o o o o o o o o O O O + + + @ @ # = f O.w - 2 X./ 1 1 1 2 2 9 9 9 0 9 9 9 2 1 1 - > - 2 +.#.g = = = = = S S = 1 X.= @ @ @ + = ^ + O o o o X X X X X 7 f X X X X X X o o O O : ^ @ + + + K > o o o X X X X X o k @ . . . ",
"    . . X k 7 O + @ @ # # @ + + O O o o o o o o o o o o O O + + @ = ; = = - 5 D :.d 1 e O./ 2 2 2 e 0 u i d u u 0 9 2 1 1 - - r y.Y = = # # = = T S = 1 ( = @ @ + + ; ^ + O o o o o o o o o 8 f o X X X X o o O O + 2 / # @ + @ Q : o o o X X X X X O W + . . . . . . . X g 8 O + @ # = # @ @ + O O o o o o o o o o o o O O O + + # = = = : 1 D :.f 1 e +./ 2 2 2 9 0 u i i s u 0 9 2 1 1 1 - q 4.Q : = # # = # Y S # 1 X.= @ @ @ + = ^ + O o o o o o o o o 5 f X X X X X o o O O + 1 / # @ + + L > o o o X X X X X o z @ . . . ",
"    . . X k : o O O + + + O O O o o o o o o o o o o o o o O + + ; X.X.( f O.-.X.o.a.D 2 e o.;.X.X.=.:.0.q.q.0.>.;.+.o.X.X./ ( =.S = # # # # # # W S = 2 X.= @ @ @ + ; ^ @ O O o o o o o o o 8 g o o o X o o O O + @ 9 X.= # @ @ ^ > o o o o X X X X O W + X . . . . . . X f > O O O + + + + O O o o o o X X X o o o o o o O O + # ( X.( f O.:.+.o.h.S 2 e O.=.J E } +.-.>.0.>.-.+.o.X.E / / / O.! = # # # # # # Y S = 1 X.; @ @ @ + ; ^ + O O o o o o O O o 8 f o o X X o o O O + @ 2 X.= # @ @ L 1 o o o X X X X X o z @ . . . ",
"    . . X j ; o o o O O O o o o o X X X X X X X X X o o o O O + 1 O.f O./ / R y.X.+.y.I 2 0 -.d.X.J :.u.H.U.i.+.J H D =.=.g g w = # # @ @ @ @ @ Y g # 1 X.= @ @ @ + : ^ @ O O O O O O O O O t f o o o o o O O + @ # d >.1 = # @ / 1 O O o o o X o o O W + X . . . . . . . f : o o O O O O o o o o o X X X X X X o o o o o O O + : O.f +.^ ( ^ u.o.=.y.H 9 0 O.u._ J >.t.H.U.i. ._ J H +.O.g g f = # @ @ @ @ @ @ Y S = 1 X.= # @ @ + ; ^ @ O O O O O O O + O t g o o o o o o O + @ = s -.1 = # @ L 1 O O o o X X X X o k @ . . . ",
"    . . X j ; X X X o o o X X X X X X X X X X X X X o o o O O + > 3.=.-.H 3.3.( 1 1 r =.( 0 i >.u.H 4.y.N./.p.y.X.p e / ( 1 - = # @ @ + + + @ @ S g # 1 X.= @ @ @ @ : ^ @ + O O O O + + + 4 / 1 O O o o O O + @ # 2 2.K.u = # # / 1 O O o o o o o o O W + X X . . . . . . y ; X o o o o o X X X X X X X X X X X X o o o o O O + ; 3.3.-.T 3.3.+.2 2 f >.( e u | 0.A :.u.G./.f.0._ u e / / - = = # @ @ + + + @ @ Y S # 1 X.; # @ @ @ : ^ @ O O O O + + + @ t ( 1 O o o o O O + @ # 2 2.K.u = # # L 1 O O o o o o o o O k @ X . . ",
"    . . X j ; . X X X X X X X . . . . X X X X X X o o o o O O + @ 2 t 4 1 q q 1 = - - 2 X.:.-.>.u.n.w.+.J 0.H.P.j.V 0 U ( - = # @ @ + + + + + + g g # 1 ( = # # @ @ > ( @ + + + + + @ @ 8 =.q + O O O O O + @ # - Z s.u.0 - = = / 1 + O O o o o + @ # Q + X X . . . . . . y ; . X X X X X X X X . . . X X X X X X o o o o O O + @ 1 t q 1 t w 4 - - 1 e O.O.-.y.y.h.>.*._ 0.H.H.a.V 0 ( ( - = # @ @ + + + + + + g g # 1 X.; # # # @ > ^ @ + + + + + @ @ t 4.w + + O O O O + @ # - Z N.n.u - = # P 5 + O O o o o O + @ K @ X X . ",
"    . . X k ; . . . . . . . . . . . . . X X X o o o o o o O O O + @ @ # # # # # # # = - 2 X.V.K.y.M.:.( f H a.4.h.3.O.3.( - = # @ + O O O + + + g g # 1 X.= # # # # 1 ( @ + + + @ @ @ 2 -.w.- @ + O + + + @ # = 0 >.H 0 1 - = = ( 4 + O O O O O y X.X.#.+ X X X . . . . X h ; . . . . . . . . . . . . . X X X o X X o o o O O O + @ @ # = # # # # = - - 2 E N.T.y.B.w.X.s D a.2.a.=.O.4.X.- = @ @ + O O O + + + g g # 1 X.= # # # # 1 ( # + + + + @ # 9 :.y.- @ + + O O + + @ = 0 r.X.i 2 - = = I 4 + + O O O O q ( / #.@ X X . ",
"  . . . X j ; . . . . . . . . . . . . . X o 8 f @ O O O O + + @ @ # # = ; : 5 # @ @ # = - 2 S u.S S o.y.-.0.s.k.4.3.y.h.K = # @ + O O O O O + + g g # 1 X.; # = t 2 1 ( # @ @ + @ @ 4 o.P -.2 # @ + + + @ # = 0 :.H e 2 2 1 - - X.4 + + O O O O S g f 3.@ o X X . . . X X j ; . . . . . . . . . . . . . . o 8 f @ O O O O + + @ @ # # = ; : 1 # # # # = - 2 Z u.L L +.y.=.>.s.s.w.4.u.N.L = # @ + O O O O O + + g g # 1 X.; # = y 2 1 ( # @ @ @ @ @ q O.D =.1 # @ + + + + @ # e :.H u 0 e 2 - = / 4 + + + O O O g g y 3.@ X X X ",
". . . . + ^ 8 X . . .             . . . . @ / ( P S S S D T Q Q ^ ^ / / / X.*.: + @ @ # = - 9 -.q 1 e f d a a a f a O.^ - # @ + O O o o O O O + k f @ 1 ( ; # 1 y.o.2 ( # @ @ @ @ 4 X.g P j.H - @ @ + @ @ # 9 =.H X.4.*.=.O.g : o.4 @ + + O O O S ( / :.@ o X X X . X X + ! 8 . . . .   .   .       . . . + / ( / S S ! ! Q Q ^ ^ ^ / ( ( X.#.; @ @ @ # = - 9 :.r 2 e d d a a a u i =.( 1 # @ + O O o o O O + + g g @ 1 X.; # 1 y.X.2 X.= @ @ @ @ 8 X.f D u.H = @ @ + + @ # 2 +.H X.4.:.-.=.g = / 4 @ + + + + + g ( / 3.@ o X X ",
". . . X f / I + . .               . . . . o y g # @ @ @ @ @ # # # # # # ; ; 5 @ + + + @ # # 1 O.f q w y f f d f d X.! - # @ + O O o o o o O O + k f @ > ( ; # : X.D 2 X.# @ @ @ = ( f e y.E ;.2 # @ @ @ # = ( D X.:.S a s D / : X.q @ @ + + + + W ^ g o.@ o o X X X X X f ( L + . .                 . . . o y g ; @ @ @ # # # # # # # ; ; : 8 @ + + + @ # = 1 -.d q q e w y f f f X.( - = @ + O O o o o O O O + k g @ > ( ; # - X.S 2 o.; @ @ # # ( y 1 3./ =.q @ @ @ @ @ # / D X.-.S a d D X.: ( q @ @ + + + + S Q f X.@ o X X ",
"X X . X g K ^ + . .                 . . . X X o X X X X o o o o o o o o o o o O O O + + + @ # f ( ( X.+.+.O.O.+.+.S = # @ + O O o o o o o O O + k f @ > ( ; # = / d 2 X.= # # # - ( 1 e y.O.-.1 # @ @ @ # = X.S 4.Z X.:.Z Z ( : X.q # @ @ + + + K 4 @ ^ @ o o o o X X X g Q ^ @ . .                 . . . X X o X X X X o o o o o o o o o o o O O O + + @ @ # d X.X.X.X.+.O.O.O.O.L - # @ + + O o o o o o O O + g g @ > X.; # ; / f 2 o.= # # # = ( 1 1 3.o.=.4 # @ @ @ # = ( S 1.a E :.D S X.1 ( q @ @ @ + + @ S 8 @ ^ @ o o X ",
"w 8 X X # t 5 o . .                 . . . . X X X X X X X X X o o o o o o o o o o o O O O + + @ # = = - - - - - = # @ + + O O o o o o o o O O O g f @ > ( ; # = / f 2 +.= # # # - X.2 1 d -.D = # # # # # - X.S -.a 4.N./ S X.1 o.q # # @ @ @ + L 4 @ ^ @ O o o 8 q X X # t 5 o . .                 . . . . X X X X X X X X X o o o o o o o o o o o O O + + @ @ # = = = - - - - - # @ @ + O O o o o o o o O O O g f @ > X.: # = E f 2 X.= # # = - X.2 - f =.L = # # # # # - X.S =.f -.N.( S +.1 X.q # @ @ @ @ @ D 8 @ ^ @ o o X ",
"L f X X X . . . .                   . . . . . . . X X X X X X X X X X X X X X X o o o o O O + + @ @ @ # # # # @ @ @ + + O o o o X X X o o O O + g f @ > ( ; # = ^ f 2 #.- = # = > X.4 - f =.2 # # # @ # # - X.S -.S o.O./ D o.1 +.q # # @ @ @ @ L 4 # ^ # O o o g S X X X X . . .                   . . . . . . . X X X X X X X X X X X X X X X X o o o O O + + + @ @ @ # # # # @ @ + + O O o o o X X o o O O O g f @ > X.; # = / f 2 X.= = = = 1 #.q 1 f +.4 # # # # # = - X.S =.f / X./ H +.2 X.q # # @ @ @ @ D q # ^ @ o o o ",
"f 8 X X X . . . . .               . . . . . . . . . . . . . . X X X . . . X X X X X X o o o O O + + + + + + + + + O O O o o o X X X X o o O O + g f @ > ( ; # = / f 2 +.: = = = 1 X.4 y O.g - # # # # # = - o.D -.( u.o.u.+.o.2 O.w = # # # @ # Q 8 @ ^ @ O O o y w X X X X . . . .               . . . . . . . . . X X . . X . . X . X X X X X X X X o o o O O O + + + + + + + + + O O o o o X X X X o o O O O g f @ > X.; # = / f 2 X.: = = - 1 #.w f #.f = # # # # # = - X.D =.U y.( y.O.o.2 o.w # # # @ @ @ D q # ^ # o o o ",
"f 8 X X X . . . . .       . . . . . . . . . . . . . . . . . . . . . . . . . . . . . X X X o o o o O O O O O O O O o o o o o X X X X o o o O O O g f @ > ( = # = / f 2 +.> = = = 1 +.y O.g 1 = # # # # # = 1 o.D 3.X.o.0 -.O.X.2 =.y = # # # # # / 8 # ^ @ O O o y y o X X . . . . . .     . . . . . . . . . . . . . . . . . . . . . . . . . . . . . X X X o o o o O O O O O O O O O o o o o X X X X o o o O O O g f @ > X.; = = / f 2 X.: = = - 2 #.g 3.g - = # # # # # = - X.D =.( o.e O.=.o.2 o.w = = = # # # ^ q # ^ # O o o ",
"g q X X X . . . . . . . . . . . . . . X X X X X X X X . . . . . . . . . . . . . . . . X X X X o o o o o o o o o o o o X X X X X X X o o o O O O g f @ > X.; # = / d 4 +.1 - - - 2 +.g =.2 - = # # @ # # = 1 o.D 3.X.X.r =.=.o.e =.f - = = = = f o.> = ^ # O O o y y o X X . . . . . . . . . . . . . . X . X X X X X . . . . . . . . . . . . . . . . . . X X X X o o o o o o o o o o o o X X X X X X o o o O O O g f @ > X.; # = / f 2 X.- = - - 2 *.S 3.2 - = # # # # # = - X.D 3.X.+.e %.=.o.9 +.y - - = = = f X.> = ^ # O O o ",
"k q o X X . . . . . . . . . . X X X X X X X X X X X X . . . . . . . . . . . . . . . . . . X X X X X X X o o o o X X X X X X X X X o o o O O O + g f @ > X.; # = / d 9 +.1 - - - 2 1.S =.2 - = # # @ # # = 1 o.L 3.X.3.D 4.-.O.e =.f - - - - d o.2 # - ( # O O o y y o X X X . . . . . . . . X X X X X X X X X X X X X . . . . . . . . . . . . . . . . . . . X X X X X o o o o o o X X X X X X X X o o o O O O + g g @ > X.; # = / f 9 X.1 = - - 2 *.S 3.9 1 - = # # # # = - X.D 1.X.3.D 3.=.o.9 +.f 1 1 1 1 d X.2 # = ( ; O O O ",
"K t o o X X . . . . . . X X X X X o o o o o o o X X X X . . . . . . . . . . . . . . . . . . . X X X X X X X X X X X X X X X o o o o o o O O O + g f @ > X.; # = / f 9 +.1 - - 1 9 3.D :.e 1 = # # # # # = 1 o.L 3.R 4.y.4.o.=.e =.f 1 2 1 S +.9 = # - ( = + O O f y o o X X . . . . . X X X X X X X o o o o o X X X X . . . . . . . . . . . . . . . . . . . . X X X X X X X X X X X X X X X o o o o o o O O O + g g @ > ( ; # = / d e O.1 - - - 2 O.S 3.u 2 - = # # # # = - X.R 3.R y.y.3.( o.9 +.f 2 2 2 D =.9 # # = ( ; + O O ",
"K y o o X X X X X X X X X X o o o o o o o o o o o o X X X . . . . . . . . . . . . . . . . . . . X X X X X X X X X X X X X o o o o O o o O O O + g f @ > X.: = = / f e +.1 - - 1 9 3.D a.1.X.1 # # # # # = 1 O.L 3.Z 1.y.( H O.q O.d 9 u _ :.e = = # - X.; + + O f f o o X X X X X X X X X X o o o o o o o o o o o o X X X . . . . . . . . .   . . . . . . . . . . X X X X X X X X X X X X o o o o O o o O O O + g g @ > ( ; # = / d 0 =.1 - - - 2 O.S u.y.+.2 = # # # # = - X.P 2.S -.y.( S X.6 X.a 0 u J :.0 - = # = ( ; + + + ",
"! y O o o o X X X X X o O # + O + + + + + + + + O O o o o X X X X . . . . . . . . . . . X X X X X X X X X X X X o o o o o o O + f D ; O O O O + g f @ 1 X.: = = / d d y.2 - - 1 9 1.H a.E 1.2 # # # # # = 1 O.L :.S x.a.3.H +.6 +.a Z u.G.S 1 - = # : @.: @ + + f f o o o X X X X X X o o @ + + + + + + + + + + O O o o o X X X X X . . . . . . . . . . . X X X X X X X X o o o o o o o o o O + t S ; O O O O + g g @ > X.; # = / d Z y.e - - - 1 +.D u.( y.9 = # # # # = - X.^ 2.S z.u.:.S X.6 o.Z A d.s.S 1 - = # = ( : @ @ + ",
"Q f O O o o o o o o o o ; =.( H H R R ^ ^ R R R R L D S S S g g g g f f f g f g g g g g g g g g g g g g g g k k S K K K K L L ( :.{ D O O O O O g f @ 1 X.- = = / d D a.r - - - 9 1.D N.y.-.1 = # # # # = - O.S L s 1.G.X.H +.6 O.a G (.N.i 2 - = # > @.: @ @ + f f O O o o o o o o o o @ X.( H H E E / / E / ^ ^ Q L K S K g g g g f f f f f f g g f f g g g g g k k k g k g g g k K K K K K I -.U D O O O O + g g @ > X.; # # / g H k.p - - - 1 +.S u.y.3.2 = # # # # = - X.S H s O.N.X.D X.q +.S ' /.a.u 1 - = # = ( : @ @ @ ",
"^ f + O O o o o o o o O @ q 1 > > > 1 1 1 1 1 > : : ; ; # # # @ @ @ @ + + + + + + + @ + @ @ @ @ @ @ @ @ @ @ @ @ @ @ # # # # ; 3 ( +.w O O O O O g f @ 1 X.- # = / f 1 e - - - - 2 3.D y.a e - = # # # # = - +.f 2 2 u y.a E +.9 O.a d d._ 9 1 - = = 1 X.: @ @ + g f O O O o o o o o o O + q 2 1 1 1 1 1 1 1 1 1 > : : ; ; # # @ @ @ @ @ + + @ + + + + @ @ @ + + @ @ @ @ @ @ @ @ @ @ @ # # # ; > I o.t O O O O O g g @ > ( ; # # / g 2 p 1 - = - 1 +.S 3.d e - = # # # # = - X.g 2 9 u y.S D O.0 O.Z Z a._ 9 1 = = # - X.> @ # @ ",
"/ S @ @ + + + + + + + + + + @ @ @ @ @ @ @ @ @ + O O O o X X X . .                                           . . . . . . . X X o @ # + O O O O O g f @ 1 X.= # = ( f # = = = = = 1 $.S 4.9 1 - = # # # # = - X.f 1 2 s w.a O.y.r -.Z e :.d 1 - - = = 1 +.: @ @ @ S g @ @ + + + + + + + + + + @ @ @ @ @ @ @ @ @ @ + O O o o X . . .                                             . . . . . . X X X + # O O O O O O g f @ > ( = # # / f = - = = = - 2 O.S 3.2 - - = # # # # = - X.f 2 2 0 4.S O.u.s -.S 0 :.d 1 - = = # - X.> # # = ",
":.-.( / H H ^ Q T T Q ^ ^ ^ ^ ^ R ^ ^ / / / / / y + O O o X X X . . .                               .   . . . . . . . . . X X X o o o o O O O : / 5 + 1 +.- # # ( f # # = = = = 1 +.g 4.9 - = = # # # # = = X.y 1 1 0 w.d H ( D <.y 2 +.w - - = = = 1 +.> @ @ 4 ;.+.H H H H H L D D L Q ^ ^ ^ / E / / / / / / / y + O O o o X X . .                                     . . . . . . . . . X X X X o o o O O O > / 5 + 1 +.- # = / f = = = = = - 2 O.S 3.1 - = # # # # = - - X.f 1 1 e -.a H o.J y.f 9 O.r - - = = # : X.1 # # e ",
"1 1 1 > > : ; ; ; = ; = ; ; ; ; = - : : : : : 1 ^ f + O o o X X . . .                                         . . . . . . . . X X X X o o O # / t + + 4 :.2 @ # / g # # # # # = 1 #.w %.S - = = # # # = > 1 X.w - 1 f w.s 9 Z -.d 1 9 =.2 = = = = = 1 O.1 # # # > > > > : ; ; ; ; ; ; ; ; ; ; ; = - : : : : : 1 ^ f + O o o X X . .                                         . .     . . . . . . X X X o o O # / 8 + + 4 <.2 # # / g # # # # = = 1 #.f O.g = = # # # = - 2 9 o.y - - r 3.f e A >.Z 1 e =.9 - = = = # > X.1 = = - ",
"# # @ @ @ + + + + + O + + + + + + + + + + + + + # ! f + o o X X . . .                                                   . . . . . X X o o o 1 ^ + + + @ > @ @ @ t o.q # # # # # > @.1 8 #.g = = = # = w =.X.X.1 - 9 =.I 9 Z :.g 1 9 X.L = = = = = = 1 *.1 # # # @ @ @ @ + + + O O O + + + + + + + + + + + + + + = ^ g @ O o X X . . .                                                   . . . . . X X o o o 3 L + O + @ 1 # @ # q o.q @ # # # = 1 #.q q X.f # # # # = w -.O.o.2 - 2 X.D 2 Z :.g 1 2 X.^ - = = = = = 1 +.2 = = = ",
"# # # @ @ @ + + + + + + + + + + + + + + + + + + + @ ! f O o o X . . .                                                     . . . . X X X o o 3 L + + + + + + @ @ # w +.q @ @ # # ; ( f # q *.g = = = = S o.2 1 = 2 X.L 1 g <.g 1 e =.^ - = = = = = = 2 3.1 # # # # # # @ @ + + + + + + + + + + + + + + + + + @ @ @ = ^ g O o X X . . .                                                   . . . . . X X X o o > L + O O O + @ @ @ @ q o.q # # # = : ( K = 8 X.y # # # = f o.2 2 - 2 X.L 1 f 3.g - 2 X.^ - = = = = = = 2 O.2 = = = ",
"# # # @ @ @ + + + + + + + + + + + + + + + + @ @ + O : ^ + o o X X . . .                                                     . . . . X X o o > ! + O O O O + + + @ @ t +.q @ # # # 4 #.S - w O.f = = = S X.- - 2 ( g = y *.g 1 w -.P - = = = # = = = 2 4.9 - = = = # # @ @ + + + + + + + + + + + + + + + + @ @ # @ + > ( + o o X . . .                                                         . . . X X o o > K O O O O O + + + @ @ q o.t # # # # 5 #.K = t +.f # # # y / - - 9 +.D 1 f *.f = 1 X.Q - = = = = = - - 9 1.e - - - ",
"T D D S S S S S g g g g g g g g g g g S S S / D @ + ; ^ + o o X X . . . .                                                     . . . X X o o : K O O O O O O O + + + @ t o.q @ # # # q O.S - t O./ H E :.( - 9 X.g = w #.w = q -.P - - g ^ T T D D H X.a.+.} E J H H D D S S S S g g g g g g g g g g g g S S ( ( # + : ^ + o o X X . . . .                                                     . . . X X o o : K O O O O O O O + + + @ q o.t @ # # # 4 +.L > t O./ T R +.^ = 2 +.D 1 f =.f = 1 X.L - = f R R R E E E X.u.o.E E E ",
"g g f f f f y y w w t q q q 8 8 q q q t w w S d @ + : ^ + O o o X X . . . . .   . .   . . . . .   .                       . . . . . X X o o : K O O O O O O O O + + @ @ q o.q # # = = q =.S - 2 f d g g 9 e ;.D - w +.t # 1 +.L - - D o.f e r r y s f a Z S S Z a d f f f y y w w t t q q 8 8 q 8 8 q q t t S S # + : ^ + O o o X X . . . . .     .     . . .                           . . . . . . X X o o : K O O O O O O O O + + @ @ q o.q # # = = 2 =.D > 9 d f y y 1 1 X.D 1 f =.f = 1 ( K = = g X.f y r s s f d d g g d f ",
"# # # # @ @ @ @ + + O O O o o o o o O O O O + + + + : ^ + O o o X X X . . . . . . . . . . . . . . . . . . . . . . . . . . . . . . . X X o o ; K o o O O O O O O O + + @ @ q +.w = = = = q =./ S S D D D D O.D 1 f +.q # 1 X.k = = D X.1 # # # # = = = - - - - - = # # # # @ @ + + + O O o o o o o o o O O O + + + + : ^ + O o o X X X . . . . . . . . . . . . . . . . . . . . . . . . . . . . . . . X X o o : K O o o O O O O O O + + @ @ 8 o.w = = = = 9 ;.X.H D D S g g X.S - f =.y = 1 X.K = # g ( 1 # # # = = - - - - - - - ",
"= = = # # # # @ @ + + O O O o o o o o O O O + + + + > / @ O O o o o X X X X X X X X X X X . . . . . . . . . . . . . . . . . . . . . X X o o ; W O O O O o o O O O + + + @ # w =.y = = - 1 Z d.X.H H E H D f - f O.q # 1 X.g # # S X.> # # # # # = = - - - - - - = = = = # # # @ @ + + O O o o o o o o o O O O + + + : ^ @ O O o o o X X X X X X X X X X X . . . . . . . . . . . . . . . . . . . . . X X o o ; K O o o O o O O O O + + + @ @ q o.y = = - > d a.-.E E R T T f = y O.w = 2 X.g = # d ( > @ # # # = = - - - - - - - ",
"= = = = = # # @ @ + + O O o o o o o o o O O O + + + > ^ @ + + O O o o o o o X X X X X X X X X X X X X X X X X X X . . . . . . . . . X X X X ; K O O o o o o O O O O + + @ # # y O.w = - 1 E G.Z 1 1 - - - = f +.q # 2 o.g = # g / ; @ # # # # # = = - - - - - - = = = = = = # # @ + + O O o o o o o o o O O O + + + : ^ @ + O O O o o o o o X X X X X X X X X X X X X X X X X X X . . . . . . . . . X X X o ; K O o o o o O O O O O + + @ @ # t o.w = - 1 D G.J 2 1 - - - - y X.q # 1 X.g # = d / > @ @ # # # # = = - - - - - - ",
"- - - - - - - = @ @ + O O o o o o o o o o O O + + + 1 ( # @ + + + O O O o o o o o o o o o o o o o o X X X X X X X X X X X X X . . . X X X X ; K O o o o o o O O O O + + @ @ # # y =.d - 1 D y.9 1 - - - - f X.q # e +.g = = S / = @ @ @ # # # = = - - - - - - - - - - - - 2 1 - # + + O O o o o o o o o O O O + + + : ^ # + + + + O O O o o o o o o o o o o o o o X X X X X X X X X X X X X X X X X X X X X ; K O o o O o O O O O O + + @ @ # # w O.f - - f 4.u 1 1 - - - f +.8 # 1 ( f # # a ( > @ @ @ @ # # # = = 1 1 1 1 1 1 ",
"1 1 1 - 2 X.X./ = @ + + O O o o o o o o O O O + + @ 1 ( # @ @ @ @ + + + + O O O O O O O O O o o o o o o o o o o o X X X X X X X X X X X X X : ! O o o o o o O O O O + + @ @ @ # = a H 1 1 d o.1 - - - - d +.4 # q ;.d = = S / = @ @ @ @ # # = = 1 D X.D 1 1 1 1 1 1 1 1 9 =.=.X.; @ + + O o o o o o o o o O O + + @ : ( # @ @ @ @ + + + + O O O O O O O O O o o o o o o o o o o o o X X X X X X X X X X X X ; K O o o o o o O O O O + + @ @ # # = f a - - e o.2 1 - - - d =.t # 4 ( w # # d / > # @ @ @ @ @ # = = g X.T 2 1 2 2 ",
"2 2 2 1 9 3.S =.> @ @ + O O o o o o o o O O + + @ @ 2 X.= # # # # = @ @ @ + + + + + + + O O O O O O o o o o o o o o o o o o O X X X X X X X ; X.g f f f f f f f f g g g S S D D H +.J 2 - f X.- - - - f +.q # q o.d a e 1 o.> @ @ @ @ @ # # = - 2 -.X.$.2 1 2 2 2 2 2 1 0 4.S O.> @ @ + O O o o o o o o O O + + @ @ 1 ( = # # # # = # @ @ + + + + + + O O O O O O O o o o o o o o o o o o o O o X X X X X X ; X.g f f f f f f f f g g g S S D D H X.D - = 9 X.1 - - 1 a -.y = 2 ( w w > = ( 1 @ # @ @ @ @ # # = - X.X.3.9 2 9 r ",
"D 9 2 1 9 1.4.y.1 # @ + + O O O O O O O O + + @ # # 2 X.- = # # 9 :.I S S S S S S S S g g g g g g f f f f f f f f f f f f g S O X X X X X X O 8 8 8 8 8 8 8 8 8 q q t t w y f f g H S 1 - y ( = = - f X.2 # w +.y d :.w 1 X.= @ @ @ @ @ # # 9 S D r.D $.9 2 e E S 9 2 2 0 :.2.4.1 # @ + + O O O o o O O O O + @ @ # 1 o.- = = = e <.I S S S S S S S g g g g g g g f f f f f f f f f f f f g D + X X X X X X O 5 8 8 8 8 8 8 8 8 8 8 q t w w y f f S y = = 2 X.- - 1 a -.f - y X.t y O.5 ; / = @ @ @ @ @ # # 1 y g 1.D 1.0 e i O.",
"-.d 0 2 2 e a 4.9 # # @ + + + O O O O + + + @ # # = e o.1 = = = r w.J S S g g g g f f f y y y w w t t t q q 8 8 8 8 q q q y ( O X X X X X X X X X X X o o o o o o o O O O + + @ @ # = = = w ( = - H ;.9 # w O.f f O.w = > o.2 @ @ @ @ @ @ 1 O.o.X.X.S $.e e Z k.>.u 0 9 2 e f 3.2 # # @ + + O O O O O O + + @ # # = 9 O.1 = = = 0 :.H g g g g g f f f f f y y w w t t q q 8 8 8 8 q q q q y / + X X X X X X X X X X X o o o o o o o O O O O + @ @ @ # # # 2 X.= 1 } :.y = f =.y w X.q @ ; ( 1 @ @ @ @ @ # 1 X.( E E g 1.r s J G.",
"u.2.r.( 2 1 0 y.=.9 # @ @ + + + + + + + @ @ # # = - r -.e - - - 1 2 1 - = = # # # # # @ @ @ + + + O O O O O o o o o o O o @ L O X X X X X X X X X X X X X o o o o o o O O O + + @ @ @ # # t ( # - X.f # w o.q 2 +.q # # # y / 1 @ @ @ @ : ( g 1 2 2 f 3.d 3.y.j.a.0.r.X.2 1 2 3.O.2 # # @ @ + + + + + + + @ # = - - 0 :.0 - - - - 1 - = = = = # # # # @ @ @ + + + O O O o o o o O O O O o + L + X X X X X X X X X X X o o o o o o o o O O O O + + @ @ @ # 2 ( # - X.a = w O.w 1 o.q @ @ @ q ^ 1 @ @ @ @ > ( g - - 1 y 1.a y.z.N.",
"i d H *.2 1 2 0 S +.2 @ @ @ @ @ @ @ @ @ @ # # - r 2 2 R +.e 1 1 1 - - - - = = = = = # # # @ @ @ + + + + O O O O O O O O o @ L O X X X X X X . X X X X X X X X X X X o o o O O O + + + @ @ q / # # = # 1 X.2 @ t ( # # @ # # t / : @ @ : / f = = - 1 r 3.S 4.Z Z Z Z D 3.2 1 1 9 S O.q = # @ @ + + + + @ @ @ = 1 i 9 2 U O.9 1 1 - - - - - = = = = # # # @ @ @ @ + + + O O O O O O O O O o @ L + o X X X X . . X X X X X X X X X X o o o o o O O O + + @ @ 1 / @ @ = = 1 o.t # q ( # @ @ @ @ q / 1 @ @ : / g = = - - r 1.S 4.S d ",
"2 1 f O.2 1 1 1 - f o.2 @ @ @ @ @ @ @ @ # # = e a.=.9 1 D +.0 1 1 - - - - = = = = = # # # @ @ @ @ @ + + + O O O O o o o o @ L + X X X X . . . . . . . . . X X X X X X X o o o o O O O + + 8 / @ @ @ @ w ^ @ @ 8 ^ # @ @ @ @ @ S y @ = ^ f # # # = - e %.S 3.0 0 0 9 r +.2 1 - - - g =.0 # # @ @ @ @ @ @ @ # = 0 a.=.9 9 J ;.e - - - - - - = = = = = # # # # @ @ @ + + + + O O O o o o o o + L + o X X X . . . . . . . . . X X X X X X X X o o o O O O + + : ^ @ @ @ @ q / # @ 8 / # @ @ @ @ @ K y + ; Q f # # # = - e 1.g 1.9 2 ",
"H D X.+.2 e D D f - w X.w 1 1 1 1 1 1 1 2 2 - 1 H j.+.9 2 H >.H H R T T T D D D D D D D f # @ @ @ @ @ + + + O O O O o o o + ! + o X X X . . . . . . . . . . . . . . . X X X X o o o O O O 5 P @ @ @ @ y P @ @ 8 Q @ @ @ + + + g y @ f S @ @ @ # # = 2 +.g b.+.o.X./ X.#.1 2 g S f 1 f ;.f 1 1 1 > > > 1 1 2 1 2 D a.o.0 9 H O.D D T T T D D D D D D D D f = # @ @ @ + + + + + O O o o o o + L + o X X X . . . . . . . . . . . . . . . X X X X o o o O O O ; ^ @ + @ @ q ^ # @ 4 / @ @ @ + + + f w + y W @ @ @ # # = 9 %.f 4./ / ",
"Q D D f 2 S -.X.O.1 = q / / / / / / / ( ( +./ 1 1 a u.X.2 2 S H D D D D D S S S S S S S ( g = = = = # # # = + O O O o o o + ! + o X X . . . . . . . . . . . . . . . . . . X X X o o o O O 1 P @ @ @ @ w P @ @ 8 ! + + + + + + g w + g f @ @ @ @ @ # 1 X.9 D / I P D S f - f +.X.+.- = y o.X./ / / / / / ( +.( 2 1 a y.X.2 1 g D D D D T D D D D D S S S X.S = # # # # # = = @ O O O o o o + L + o X X X . . . . . . . . . . . . . . . . . X X X X o o O O ; P @ + @ @ q ^ @ @ 5 ^ @ @ + + + + f t O f f + @ @ @ # = 2 X.2 f S Y ",
"e e e e e S +.D O.- = # = = = = = = = = = 1 / / 1 - s 4.E 2 1 - - - - - - - - - - = = # - E X.X.X.X.X.X.o.+.= O O O o o o + ! + o X X . . . .                     . . . . . . X X o o o O y o.# + @ @ w P @ @ 8 ! + + + + + + g w + g g @ @ @ @ @ @ 1 X.w r r r r e q 2 2 S X.T o.- = = = = = = = = = = - 1 P ( 2 1 s :.H 1 - - 1 1 1 1 1 - - - - = = = 1 E } E E E ( ( o.;.= + O O o o o + ! + o X X . . .                     . . . . . . . X X X o o O 4 +.= + + @ q Q @ + 7 ^ @ + + + + + f t O y f + + @ @ @ # 1 $.6 1 2 2 ",
"X.X.X.X./ S ( X.S = = # # # # # # # # = = = - / / 2 1 0 -.J 1 - 1 1 1 1 1 1 1 1 - - = = # = 2 2 2 2 2 2 9 q @ + O O O o o + ! + o X X . . .                       . . . . . . . X X o o O f X.= + + + t P @ @ 8 Q + + + + + + f t + g g @ @ + + @ @ # ^ o.o.+.+.+.+.+.+.X.S ( X.S = = # # # # # # # # = = = = L / 2 - e +.D 1 1 2 2 2 2 1 1 1 - - - - - = - 1 1 1 1 1 1 2 q # + O O O O o + ! + o X X . . .                         . . . . . . X X o o O 4 { - + + + 8 L + + 7 ^ @ + + + + O y q O y f + + + @ @ @ = / X.X.X.+.",
"1 > - - - = = = = = # # # # # # # # # = = = = - / X.2 - 2 X.X.E E X.X.X.X.X.X.X.r - = = # # # @ @ @ @ @ @ @ + + O O o o o + ! + X X X . . . .                         . . . . . X X o o o + @ O O + + t P @ @ 8 Q + + O O O O f q O f f + + + + + @ @ = - > > > > > > 1 1 - - = = # # # # # # # = = = = = = # = S / 1 = 1 X.+.o.o.+.o.o.X.X.} E 0 1 - = = # # # @ @ @ @ @ @ + + O O O O o + ! + o X X . . . .                         . . . . . X X X o o + @ + + + + 8 ! + + 1 ^ @ + + + + O y q O y f + + + + @ @ # = : > > 1 ",
"= = = = = # # # # # # # # # # # # # # = = = = = - I X.1 = > y f f d d a Z Z Z E :.9 = = # # # @ @ @ @ @ @ + + O O O O O o + ! + X X X . . .                         . . . . . . X X X o o o O O O + + y ( # @ 4 ! + + O O O O f q O f y + + + + + @ @ # # # # # # # = = = = = # # # # @ @ # # = = = = = = # # # = S / > # 1 d a Z Z a a a d a J >.e - = = # # # # @ @ @ @ @ + O O O O O O + ! + X X X . . . .                         . . . . . X X X o o o O O O + O 8 / # + 1 ^ @ + + + O O y 8 O y f + + + + + @ @ # # # # = ",
"# # # # # # # # # # # - S S S D D T T R ^ Q 1 = = - H / 1 = = - 1 2 0 i a 0 0 f O.f - - - = = = # # # # # # @ @ @ + + + + t K O X X X . . .                       . . . . . . X X X X o o o o O O O + f q.9 @ 4 ! + + O O O O f q O y w O + + + @ @ @ @ # # # # # # # # # # # # # @ @ - g D H H H J E E R S : # # = D ( 1 1 1 1 2 2 0 s f 0 u a ;.f 1 - - - - - = = = = # # @ @ @ @ @ @ @ y K O X X X . . .                       . . . . . . . X X X o o o O O O O O 8 w.y @ 2 / @ + + + + O y q O y f + + + + + @ @ @ # # # # ",
"Y Y S S S S Y Y Y Y D ( g e t w w w y y y D X.1 = = = D o.X.X.X.o.o.y.y.u./ :.-.y.X.X.X.X.X.X.( ( / / / / / / / / ^ ^ ^ / L @ X X X . . . . .             . . . . . . . . . X X X X o o o o o o O + + - +.2 @ 4 ! @ + + O O O k t O 8 Q f f g g S S S S S S S S S S S D D D S S S S S / g t y f f f f f w S / > # # = S =.O.;.;.;.+.0.4.y.( 4.y.u.o.X.X.X.X.X.X.X.( ( / / / / / / / / ^ / L @ o X X . . . .                 . . . . . . . . X X X X o o o o o O O O O @ X.q @ 2 / @ + + + O O y t O t ( g g g g S S S S T T T T ",
"y t t t t t t t t t t 4 @ + @ @ @ @ # # = e D X.2 # # = 2 2 2 9 e r 4.H %./ =.g :.a 2 2 1 1 - : ; = = = # # # # # # # # # + o X X X . . . . . . . . . . . . . . . . . X X X X X o o o o o o o O O + + @ H > + 2 L @ + + + O O y W O + > 1 5 4 q q t t t t t t t t t t t t t t t t q q 1 @ @ @ @ @ @ # @ # 2 S ( 1 # # = 2 2 2 2 9 9 O.H o.X.-.S =.d 1 1 1 - : ; ; = = # # # # # @ @ @ @ @ + o X X X . . . . .   . . . . . . . . . . . X X X X X o o o o o o O O O O + @ H 2 @ 2 / @ + + O O O t ! @ @ 8 8 8 8 8 8 8 q q q t t y ",
"# # # # # # # # # # # # # # # @ @ @ @ # 1 >.a S / # # # # # # = = - X.3.3.g O.-.:.9 = # # @ + + + + O O O o o o o o o o o o X X X X . . . . . . . . . . . . . . X X X X o o o o o o o o o O O O O + + @ H > + 4 o.d 2 + + O O + f f + + + @ @ @ @ # # # @ # # # # # # # # # # # # # # # # = = @ @ @ @ @ 1 :.f g P # # # # # # = = = R :.<.D o.=.-.2 # # @ @ + + + O O O O O o o o o o o X X X X X X . . . . . . . . . . . . . . X X X X X o o o o o o O O O O O O + + @ U q @ 2 o.d 4 + O O O + f D ; @ @ @ @ @ @ @ # # # # # ; ",
"( / / / / / / ( / / / / ( ( X.4 @ @ @ @ = X.t 1 / # @ @ @ # # # # = - 1 1 = 1 2 1 = # @ @ + + O O O O O o o o o o o o o X X X X X X . . . . . . . . . . X X X X X o o o o O O O O O O O O O O O + + + @ ^ > + 4 +.H ( @ O O O o O g ^ T R E / / / / / / / / / / / / / / / ( / / / / ( ( X.X.( 4 + @ @ @ = o.q 1 / # @ @ @ @ @ # # # - 2 2 - 1 2 1 = # @ @ + + O O O O O o o o o o o o X X X X X X X . . . . . . . . . . . X X X X X o o o O O O O O O O O O O + + + + @ ( q @ 2 o.D / @ O O O O + f ( / / / / / / / / ( ( ( ( ( ",
"; ; ; ; ; = ; = = # ; ; ; ; 8 / 2 + @ @ # E 8 1 ^ @ @ @ @ @ @ @ @ @ @ @ @ @ @ @ @ @ + + + O O o o o o o o o o o X X X X X X X X . . . . . . X X X X X X X X X o o o O O O + + + + + + + + + + + + + + @ ^ > @ t o.Z / @ O O o o o O @ # # = = ; ; ; = ; ; ; = = = ; ; ; ; ; ; = = ; ; ; ; ; 8 ^ 1 + @ @ # / 4 1 I @ @ @ @ + @ @ @ @ # # # # # @ @ @ @ + + O O o o o o o o o X X X X X X X X X X X X X X X X X X X X X X X X X o o o O O O + + + + + + + + + + + + + @ # ( q @ 4 X.f R @ O O O O O + # # # # # # ; ; ; ; ; ; ; ; ",
"@ @ + + + + + + + + + + + + + y S + + @ @ R 8 1 ^ @ @ + + + + + + @ @ + + + + + + + O O O o o o o o o o X X X X X X X X X X . . X X X X X X X X X X X o o o o o O O + + + @ @ @ @ @ @ @ @ @ @ @ @ @ + @ / 1 @ 1 H H f @ O O o o o o o O O + + + + + + + + + @ @ @ @ @ + + + + + + + + + + + O q K + + @ # / 4 1 P @ + + + + + + + @ @ @ @ @ + + + + O O O o o o o X X X X X X X X X X . . . X X X X X X X X X X X X X X o o o o O O + + @ @ @ @ @ @ @ @ @ @ @ @ @ @ @ # ( 4 @ ; g S y + O O O O O O O O O O + + + + + + @ @ @ @ ",
"@ @ + + + + + + + + + + + + + q S + + + @ ^ 8 > Q @ + + + + + + + + + + + O O O O O o o o o X X X X X X X X X X X X X . . . . X X X X X X o o o o o o o o o O O + + @ # - - = = - - = - - = # # @ @ @ # / 2 # # # # @ + O O o o o o O O + + + + + + + + + + @ @ @ @ @ @ + + @ + + + + + + + O 5 K + + @ @ / 8 1 P @ + + + + + + + + + + + + O O O O O o o X X X X X X X X X . . . . . . . . X X X X X X X o o o o o o o o o O O + + @ # - - - = - - = = = = # # # # # # ( 4 @ @ @ @ + + O O O O O O O O O + + + + + + @ @ @ @ @ ",
"@ + + + + + + + + + + + + + + q g + + + @ ^ 8 > Q @ + + + + + + O O O O O O o o o o o o X X X X X X X X X o X X X X . . . . . X X X o o o o o o o o O O O O + + @ # = f -.O.D S o.O.D } ;.X.1 = # # # # D / - # # @ + + O O O O O O O O + + + + + + + + + + + @ @ + + + + + + + + + + + O + O 5 K + + + @ ^ 8 1 ^ @ + + + + + + O O O O O O o o o o o o X X X . . . . . . . . . . . . . . . X X X X X o o o o o o o O O O O O + @ @ # f -.-.H D O.O.S E +.( 1 = = # # # S L # @ @ @ + + O O O O O O O O O O + + + + + @ @ @ @ @ ",
"1 > > > > > > : ; ; : : : @ O 8 g + + + @ Q 8 > Q @ + + + + + O O O o o o o o o o X X X X X . . X X X X o o o X X . . . . . X X X o o + + + + @ @ @ @ @ # # # = - 1 2 U ;.H X.X.D X.O.0.H >.0 1 > - # # - I / - @ @ + + O O O O O O O + # w 1 : : : : > > > 1 1 > > > > > > > : : : : ; ; @ O 8 K + + + @ ^ 5 > ^ @ + + + + + O O O o o o o o o o o X X X . . . . . . . . . . . . . . . . . X X X o o + + + + @ @ @ @ @ @ @ # # = - 1 H ;.E O.O.H o.+.-.H r.0 2 2 1 = # = S L = @ @ @ + + O O O O O O O @ 2 > : > > 1 1 1 1 1 1 ",
"( / / / / ^ ^ Q Q Q Q T ( l O 8 g + + + @ Q 8 > Q @ @ + + + + O O O o o o o X X X X X X X . . . X X X o ; f ; o X . . . . X X X o O t / ^ ^ / / / / / / / ( ( X.X.+.;.t.u.:.( ( =.y.O.y.;.r.D ( X.X.y = = - ^ / = @ + + O O O O O O O + - o./ L T Q ^ ^ / / / / ( / / / / / ^ ^ Q ! ! ! ^ z + 8 K + + + @ ^ 5 > ^ @ + + + + + O O O o o o o o X X X X X . . . . . . . .           . . . . . X X o O t / Q ^ ^ ^ / / / / / / ( X.X.o.;.t.u.0.X.+.4.u.+.y.=.y.H O.O.#.w # # = L Q = @ @ + + + O O O O O O ; o./ R R ^ / / / ( / / ",
"= # # # # # @ @ @ @ @ @ > ! + 8 g + + + @ Q 8 > ^ @ @ @ @ @ + O O O o o o X X X X X X X X . . . X X X o S o.g o X . . . . X X X o t ^ ; @ @ # # # # = = = : : > 1 2 9 E =.d e 0 S S s Z S f 2 1 1 f -.d = = = ! ^ = + + + + + + O + + + @ = # @ # # # # = = = = = = = # # @ @ @ + + + + : Q @ 8 K + + + @ ^ 5 > ^ @ + @ @ # @ + O O o o o o X X X X X . . . . . . . . . .         .   . . . X X o q Q ; @ @ @ # # = = = ; ; : > 1 1 9 E O.d 0 y S S f S S f 2 2 2 y X.w # # = D ^ = @ @ + + + O O O + + + = # # # # = = = = = - ",
"# # # # @ @ @ + + + + + ; W + 8 g + + + @ ^ 8 1 ^ # @ @ 1 X.> + O O o o o X X X X X X X X X X X X X o o 4 +.2 o X . . . . X X X O ! ; o O O O O + + @ @ @ @ # # # = - D t.d y f s s f r e q q e 9 1 f -.g = = = S ^ = @ @ + + + + + + + + + @ @ @ # # # = = = = = = # # @ @ + + + + + + : ^ @ 8 K + + + @ ^ 8 > ^ @ @ @ - J 9 + O O o o o o X X X X X X X . . . . . . . .           . . . X X X O ! ; o o O O + + @ @ @ @ @ # # # = - D r.d w y y y y y w t t e 2 = t +.f - = - H ^ = @ @ + + + + + + + + @ @ @ # # # = = = = = ",
"= = = # # @ @ @ + + + + ; W + 8 g + + + @ ^ q 3 / # @ @ 2 :.1 + + O O o o o o o X X X X X X X X X X o o + L + X X X . . . X X X O K @ o O O O + + @ @ @ @ # # # # = - 2 H ;.O.;.;.=.O.+.X.X.+.=.3.S 1 y *.g - = = S / - @ @ @ @ @ @ + + + @ @ @ # # = = - - - - - = = # @ @ @ + + + + + > / @ 8 L @ @ @ @ ^ 8 > / # @ # 1 >.w + + O O o o o o X X X X X X X X . . . . . . .         . . . X X o O K @ o o O O + + @ # # # # # # = = - 2 H =.O.O.=.=.=.=.=.=.O.%.$.g = w 3.Z - - - D ^ = @ @ + + + + + + @ @ @ # # = = = = - - - ",
"E E E E E 1 @ @ @ + + + : ! + q K + + @ @ ^ q 1 / # @ @ : ( ; + + O O O o o o o o o o o X X X X X o o o + L + X X X . . . X X o O K @ o o O O + # f y 1 2 2 2 = = = = - - 1 2 2 2 2 2 1 1 1 2 2 f -.S - t O.S - = - D ( - # # # # @ @ + @ @ @ # f D E J E E E E E E R R D 1 @ @ + + @ @ 1 / # q L @ @ @ @ ^ 8 1 / # # # = ( 1 + + + O O o o o o o o o X X X X X X X . . . . . .     . . . X X o O K @ o o O O + # d f 1 1 2 2 = = = = - - 1 2 2 2 2 2 2 2 2 2 1 t +.S 1 f :.S - - 1 D ^ = @ @ @ @ @ @ @ @ @ # = d H H H H E E E ",
"y y y y X.g # # @ @ + + : Q @ q K + @ @ @ ^ q 1 / # # # : ( ; @ + + + O O O O O o o o o o o o o o o o o @ L + X X X X . . X X o O K @ o o O O + = =.:.X.X.X.O.S = = = - - - 1 1 1 1 1 1 1 1 1 1 1 w O.g = e =.D 2 1 1 D o.P L P L L f @ @ @ # - +.D y.J Z a a d f f y y X.g # @ @ @ @ @ 1 ( # t L @ @ @ @ ^ 8 3 / = # # = ( 1 @ + + + O O O O O o o o o o o o o X X X X . . . . . . . . . X X o O K @ o o O O + = -.>.X.X.X.=.S = = = = - - - - 1 1 1 1 1 1 1 > - e -.L 1 f :.D 1 - - S / S S S D L f # @ # # 1 =.H r.H d f d d ",
"e e e 1 E g = # # @ @ + > Q @ t K + @ @ # / t 5 / = # # > X.: @ @ @ @ + + + O O O O O O O O O o O O O O @ P + X X X . . . X X o O K @ o o O O + @ - - = = = 1 ( X.E E E E X.X.X.X.X.X.X.X.X.o.O.( 2 9 +.S - s y.+.V 2 1 y f y w t t Q K # @ # - O.D y.a 9 u p y r 0 r 2 D S # # # # @ @ 1 ( # t L @ @ @ # / q 5 / = # # = ( 2 @ @ @ @ + + + O O O O O O O o o o o o X X X . . . . . . . . X X o O K @ o o O O + @ - > = = = 1 / X.E / / E E ( ( ( X.X.X.X.X.X.X.( e s :.P 2 d y.o.i 1 - q t t t t t / L = # = 1 O.D :.f 1 0 s s ",
"O.%.4./ E S - = # # @ @ y D @ t K @ @ @ # / t 8 / = # # 1 X.> # # # @ # = # # # # # # # @ @ @ @ @ @ @ + @ ^ + X X X X X X X X o O L @ o o o O O + + @ @ @ @ @ - r y y f f f f d d d d d a Z Z a ( X.2 9 O.H 9 S K.V.u - = # # @ @ @ # S Q - # - J -.=.u D u.=.+.+.O.4./ I D - = # # # # f ^ # t Q @ @ @ # / q 1 ( = = # = ( 9 # # # # # = # # # # # # # @ @ @ @ @ + + o X X . . . . . . . X X o O K # o o O O O + + @ @ @ @ # = w f f f f f f d d d g a g a a g X.-.r s >.E 0 S K.V.0 = # # @ @ @ @ # K / 1 = - D X.X.e f y.O.=.",
"0 0 E X.( D - - = # # w ( 1 @ y Q @ # # # / w 8 ( = = = 1 #.1 = = = 1 ( X./ / / / / / / / / / / / E X.4 @ ^ + X X X X . . X X o O L # o o o O O O + + + @ @ @ @ @ @ # # = = = = = = - - - 1 - - 1 H o.2 0 y._ 0 } a.J - = # @ @ @ @ @ @ g / 2 - 2 0 V u H =.e e e 0 H +.( I 1 - = = # t ( > @ t / # # # # / w 8 X.- = = = X.q = = = 1 / X.( / ( ( / / / / / / / ^ ^ ( ; o X X . . . . . . X X o O L # o o o O O O + + @ @ @ @ @ @ # # # = = = = = = - - - - - 1 2 ( 3.s a u.X.9 ( a.H = # # # @ @ @ @ # S ( 1 = - 2 u 0 S -.0 0 ",
"0 0 E O.X.H 1 1 - = y X.1 @ @ > ( w # # = / y 8 ( : = - 2 3.2 - 1 0 3.U 1 > : : ; ; : ; ; ; ; = = = S y # ^ + o X X X . X X X o O L # o o o o O O O O + + + @ @ @ @ # # # = = = = = = - - - - - - 1 H O.0 s i 2 2 0 o.D - # @ @ + + @ @ # g +.a i V a.O.H =.u i u 0 E =.o.X.2 1 - = t ( 1 @ @ : ( w # # = X.y q X.- = = - X.w - - 9 X.I 1 > > > : : : : = = = # # # ^ > o o X . . . . . . X X o O L # o o o O O O O + + + + @ @ @ # # # # = = = = = = - - - - 1 1 2 ( y.f d s 1 1 e X.S = # @ @ + + @ @ # g X.e e 0 y.;.D :.u u ",
"_ A J } o.H 2 1 - f +.6 # # @ @ 5 ( f = - X.w 8 ( - - 1 D 3.2 2 W F.#.2 - = # # # # # # @ @ @ @ + + g y # ^ @ o o X X . X X X o O L # o o o o o O O O O + + + + @ @ @ @ # # # # # # = = = - 1 - - - 1 } 0.0 1 - - = 1 o.o.= + + + + + @ @ = a y.h.V y.D S u.u.s.>._ y.:.O.X.9 2 1 f X.2 @ @ @ @ 5 X.g = - +.f q X.- - - y =.9 1 0 :.X.1 = = = = = # # # @ @ + + + + D 1 o o X X . . . . . X X o O ! # o o o o O O O O O + + + + @ @ @ @ # # # # # = = = = - 2 1 1 1 9 O.u.e - - = = 1 o.X.= + + + + + @ @ # f -.y.u 2.E S a.y.u.",
"/.0.Z u X.E S D H O.t # # # @ # # 2 O.9 D o.1 f X.- 1 D 3.d 2 L ^.D.f 2 1 - = = # # # = = # @ @ @ @ g y # ^ @ o o X X . . X X o O ^ g t y y y y y f f f f f g g g g S S S S S S S S S D D / :.f = - - 9 >.p - = = # # 2 H = + + + + + + @ # - f 3.0 X.0 9 D | p.I.f.>.H =.o.A H H +.q # # @ @ # # 2 =.q S =.2 f X.- - f O.f 1 f y.3.0 2 1 - - - - = = = # @ + + + + L 1 o o X X . . . . . X X X O ^ g t y y y y y y f f f f f g g g g g g S S S S S S D D E 4.Z - - 1 9 -.f = = # # # 2 D = + O O O + + @ # # w 3.0 O.a 0 H | N.",
"K.>.d 0 X.( 2.X./ y = # # # @ # # = X.X.X.2 w %.f 1 8.m.a 2 u y.5.Z =.-.X.S E D D D D o.J = @ @ @ @ S y # ^ @ o o X X X . X X X o t y 8 q t q t t t t y y y y y f f f f f f g g g g g g g D O.r = = - 1 O.0 = # @ @ @ + + + O O O O O + @ # # 1 X.2 ( 0 1 9 d [ G.t.F d =.+.y.=.( y # # # # # # # - o.X.o.e r =.f 1 Q 4.d - e 3.X.0 X.O.X.Z H H H H H +.f @ @ + + @ L 1 o o o X X . . . . . X X o y f t t t y y y y y y y f f f f f f g g g g g g g g g S D -.f = = - - X.y # # # @ @ @ + + O O O O O + + @ # - +.0 +.f 9 0 i _ ",
"' J D Z ;.O.2.r - - = # # # # # # 1 :.E > y 1.f - S F.~ 1 s =.D 2 0 >.J -.D X.E E D g E D = @ @ @ @ g y # ^ @ o o X X . . . X X X o X X X o o o o o o o o o O O O O O O + + + + + + + + @ @ # # # # = - o.9 # @ @ + + O O O O o o O O O + @ # : ( 2 X.f 9 0 d G ' G A A -.:.0.s - = = # # # # # # 2 :.( 1 w O.f - g Z.^ 1 r O.S 1 2 =.H :.D J D S S g E e @ @ + + @ L 1 O o o X X . . . . . . X X o o o o o o o o o o o O O O O O O O + + + + + + + + @ @ # = # # # # = ( w # @ @ + + + O O o o o o O O + @ @ : X.e +.Z 0 u d Z ",
"r.r.r.2.r.2.o.2 - = # # # # # # > X.D = t O.f - g y.S 1 y =.S 1 - 2 =.<.O.o.o.D H 1.t = = # @ @ @ @ g y # ^ @ o o X X . . . . . X X X X X X X o o o o o o o o o o O O O O O O O + + + + + + + @ @ @ # = ( 2 @ @ + + O O O O o o o o O O + + @ # W 1 P O.o.;.>.0.0.0.0.>.r.r.O.9 - = = # # # # # > X.D - t +.f = f y.D 1 f -.g - - 1 X.-.-.} } 9 - = # # # @ @ @ @ @ H 1 O O o X X . . . . . . . X X X X o o o o o o o o o o o O O O O O O O O O + + + + + @ @ @ @ @ @ # / t @ @ + + O O O o o o o o o O O + @ = Q 2 E :.;.-.-.-.",
"0 0 0 9 9 2 1 - = # # # # # # 1 ( S # t +.y = f 4.S - w O.d - - - - 2 r X.O.9 - 1 S =.6 # # @ @ @ + S f # ^ @ o o X X . . . . . . . X X X X X X X X X X X X o o o o o o o o o o O O O O O O + + + @ @ # ( 1 + + + O O O O o o o o o o O O + + @ # # = 1 2 9 e 0 s s r 0 9 2 1 - = = = # # # # > / S # t +.y = w 4.T 1 r -.S - - = - 1 e _ >.d } d = # # # @ @ @ @ @ H 1 O O o o X X . . . . . . . X X X X X X X X X X X o o o o o o o o o o o o O O O O O O + + + + @ @ / 9 @ @ + + O O o o o o o o o O O + + @ = = 1 2 9 e 0 0 ",
"1 1 1 1 1 - - = = # # # # # 1 X.g # t +.w # y :.g - y =.f = = = - - 2 J X.9 - - - - S O.2 @ @ @ @ @ S f # / @ O o X X . . . . . . . . . . . X X X X X X X X X X X X X X X X o o o o o o o o O O O + + @ / 1 + + + O O O o o o o o o o O O O + @ @ # # = = - 1 1 1 2 2 1 1 - - = = = = # # # > / g # q X.y = e 3.S - y =.g - - - = = 1 E -.s 1 a =.y # # # # # @ @ @ ^ 1 O O o o X X . . . . . . . . . . . X X X X X X X X X X X X X X X o o o o o o o o o o O O O + + @ ^ 4 @ + + O O O o o o o o o o o O O + @ @ # = - - 1 1 2 ",
"- - 1 - - - = = # # # # # 1 X.g # t +.t # q -.g - y =.d - = = = = = f X.1 = 1 2 - = = g X.1 @ @ @ @ S f # / @ O o o X . . . . . . . . . . . . . . . . . . . . . X X X X X X X X X X X X X o o o O O O + ^ > + + + O O O O O o o o o O O O O + + @ @ # # = = - - 1 1 1 - - - = = # # # # = 1 ( g # 8 X.w # q =.S - w O.f - - - - = = w O.Z 2 1 - t X.y # # # # # @ @ ^ 2 O O O o o X . . . . . . . . . . . . . . . . . . . . . X X X X X X X X X X X X X X o o o O O + + ^ 4 + + + O O O O o o o o o o o O O + + @ # # = = - - 1 ",
"- - - - - = = = # # # # 1 X.g # w O.t # q =.g = w =.d - - = = e f 2 - r 2 = f -.9 = = = d X.1 @ @ @ S f ; ( # O o o X . . . . . . . . . . . . . . . . . . . . . . . . . . . . . . . X X X X X o o o O + Q > + + + + O O O O O O O O O O O O + + @ @ # # = = = - - - - - - = = # # # # # 1 X.S = q o.w # 6 O.S - w O.y = = = - e f 2 = 2 O.H - = = q o.d = = # # # # ^ 2 + + O o o X . . . . . . . . . . . . . . . . . . . . . . . . . . . . . . . . . X X X X o o O O + L 4 + + + + O O O O O o o o o o O O + + @ @ # # = = - - ",
"1 1 1 2 2 2 1 1 > > : 1 ( g # w O.w # 9 +.g = t +.f - - = = - H :.X.= S =.6 > I o.9 = = = g X.1 @ @ S f ; ( # O o o X . . . . . . . . .         . . . . . . . . . . . . . . . . . . . . . X X X o o O + Q : + @ 2 1 # @ @ @ @ @ @ @ @ @ @ @ # # ; = = : - - 1 1 1 1 2 2 2 1 > > : : : 2 ( S : w O.y # 2 +.S - f -.f = = = = - D :.+.1 = w o.f = = = e ;.Z = = 1 # # / 2 + + O O o X X . . . . . .       . . . . . . . . . . . . . . . . . . . . . . . . . . X X o o O + L 4 + + 1 > # # @ @ @ @ @ @ @ @ @ @ # # # = ; : > 1 1 1 ",
"X.+.O.;.r.-.o.o.X.X.X.X.f # t ;.f = e ;.S - w O.f = : > > 1 1 1 g +.= ; g X.q = S +.q = = = g ( # @ S f ; / # O o o X . . . . . .                                 . .       . . . . . . . . . X X o o O ! : + # ;.-.E E / / / / / / / / / / / / / / ( ( X.X.X.X.X.o.O.;.r.-.X.X.( ( X.o.S = y =.f = 2 o.S > y :.g - - ; = = - 1 f -.X.f = q +.f = = - r :.w 2 X.1 = / q @ + + O o o X . . . . . .                                         . . . . .   . . . X X X o o O Q 5 O @ X.-./ / / ^ ^ ^ ^ ^ ^ ^ ^ / / / / / ( X.X.X.X.X.",
"1 1 1 2 O.S 1 1 1 > > : # q o.y - 0 -.D 1 f =.d : S o.X.X.X.X.X.;.( = # # f +.8 = S ;.4 = = 1 o.: @ S f ; ( # O O o X X . . . . . .                                             .   . . . . . X X o o O Q > + @ 1 > # # # # # # # # # # # # # # # # ; ; ; ; ; : : > 1 2 =.S 1 > : : : : # t O.f - e =.D > w -.g - d X./ / / / / o.o.a =.y = w O.f - - - X.g w y.2 = / q @ @ + + O o X X . . . . . .                                             . . . . . . . X X o o O ! 3 O + : > # # # # # # # # # # # # # # # = ; ; ; : - > ",
"# # = = ( y = = = = = = w +.w = 0 >.H 1 f :.S > 1 o.g 2 2 2 2 2 2 > # # # # f O.4 = o.g = = 1 o.> # D f ; ( # O O o o X . . . . . . .                                           .     . . . . . X o o O K g @ + + + + + + + + O O O O O O O + + + + + + @ @ @ @ # # # = X.f = = # # # # t X.y - e -.H 1 f -.S > : / S 2 2 1 1 1 1 1 = y O.f - S ( - - - ( d 2 -.2 = ( t # 2 9 1 + O o X X X . . . . .                                                 .   . . . X X o O k g + + + + + + + + + + O O O O O O O + + + + @ @ @ # # ",
"# # # = ( w # # = = = - X.f = q ;.H 2 e :.D 2 S g +.t = = # # # # # # @ # # # g #.q / g = = 1 o.> # D f ; ( # + O o o X X X X X . . . . .                                         . .   . . . . X X o O # Q f + + + + + + + + + + O O O O + + + + + + + + @ @ @ # # # = X.w # # # # # = ( f = e :.( 2 2 :.L 1 g f / f = = # # # # # = = y -.f d ( - - - / d 2 =.1 = ( w 1 O.( +.; O O o X X X X . . . . .                                                 . . . X X o o @ W f + + + + + + + + + + O O O O O O + + + + + @ @ @ # ",
"# # # # / w # # = = = 1 +.2 1 O.J 0 u u w.y 9 1./ X.t = # # @ @ @ @ @ @ # # ; = ^ Q / f = = 1 X.1 # D f ; X.# + O o o o X X X X X X X . . .                                           .   . . . X X o o O # W f @ + @ @ @ @ + + + + + + + + + + + @ @ @ @ @ # # # # # = X.w # # # = = - X.2 1 o.o.f f r w.y 1 +.( / f = = # # # # # = - - S X.g ( - : - / d 2 =.1 - X.f 1 O.w X.1 + O o o o o X X X . . .                                                 . . . X X o o o + k g @ @ @ @ @ @ + + + + + + + + + + + + @ @ @ @ # # ",
"f # # # / t # # = = - 2 +.e 2 -.f X.-.d <.p 9 O.T X.t # # @ @ + + + @ @ # # = : K Q ^ f = = 1 X.1 # D f : X.; + O O o o o o o o o o X X . . .                                         .   . . . X X o o O O @ S P D L L L L Q L L L L L ! ! L L Q Q ^ ^ ^ ^ / ( g # # # ( q # # # = - 1 o.9 2 =.d o.<.f <.f 1 ( Q / f = = # # # # # = - 1 f X.g ( - : - / d 2 O.2 - X.f > / X.o.- + + O O O O O o o X . . . .                                               . . X X X o o o @ S / D L D L L L L D D D D ! ! Q Q Q Q Q R R / ( ( ",
"> @ @ # / t # # = - 1 9 :.r 2 -.f / X.r <.p e O.R +.w # # @ + + + + + @ # = - 1 ^ ^ / g = = 1 X.1 = D g : X.; + O O o o O O @ = @ O o X . . .                                               . . . X X o o O O @ 1 1 1 1 5 5 5 5 1 3 > > > > : : > > 1 1 1 5 / S > @ @ # / q # # = = - 2 =.r 2 ;.f ^ *.s <.f 2 ( ^ ( f = # # @ @ # # = - 1 f X.g ( - : - / d 2 O.2 - X.f = - 1 - # @ + + + + # = @ O o X . .                                                 . . . X X X o o O @ > 1 1 1 1 3 3 3 1 1 > > : : : : : : > > 1 1 E / ",
"@ @ @ @ ^ q @ # = - 1 u t.Z 0 -.f / / r y.S 0 O.R +.w # # @ + + O + + @ # = Z X.y.( ( g - - 1 X.1 = D g : X.= + + O O O O = X.u.a ; @ + + O O O O O O O O O O O O O O O O O O O O O O O O O O O + + + @ @ # # # # ; ; ; ; = = # # ; 1 @ O o o o o o O O + + S t + @ @ @ I q # # = - 1 u r.d 9 ;.f ^ X.f y.H 0 X./ X.f = # # @ @ # # = f ( +.O.S ( - - - / d 2 O.2 - X.y > D X.I - @ + + + = O.M.g ; # @ + O O O O O O O O O O O O O O O O O O O O O O O O O O O O + + + @ @ # # # # # # # # # # # ; 1 @ o o o o o o o O O + g g ",
"+ + @ @ ^ q @ # = - 9 ] L.' u -.f / / H u.u.D O.R +.w # @ + + O O O + @ # - X.X.4.X.X.g - - 1 X.1 = ^ g > X.; + + O O O O 1 N.`.u.( ^ ! W W W W W W W W W W W W W z z z z z z z z z z z z z W W W W ! ! Q ^ / / / ( ( ( / / / / / X.:.1 o o o o o o o O O + S w + @ @ @ I q # # = - 9 ' J.` 0 ;.f ^ ( R a.u.D X./ X.f = # @ @ @ # # = / +.X.3.S ( - - - / a 2 =.2 - X.y 1 =.D :.2 @ @ + + 2 G.).u.( / Q ! ! W W W W W W W W W W W W W W z z z z W W W W W W W W W W W ! Q ^ ^ / / / / / / / / / / X.>.1 o o o o o o o o O O f f ",
"+ + + @ ^ q @ # = 1 u p.[.>.i -.f E E ( y.u.H O.R o.w # @ + + O O O + @ # = X.-.u.X.X.g - - 1 X.1 = ^ g > o.; + + O O O O # D o.0 # + O O o o o o o o o o o o o o o o X X X X X X X X X X X X X o o o O O + + @ @ @ @ @ @ @ @ @ @ # : + o o X X X o o o O + S w + + + @ P 2 @ # = 1 0 q.[.0.u =.f T ( E u.u./ +./ X.f = # # @ @ @ # = ^ 3.3.3.S ( - - - / a 2 =.2 - X.f 1 1.O.:.1 @ + + + # D o.e # + O O O o o o o o o o o o o o o X X X X X X X X X X X X X X X o o O O O + + @ @ @ @ @ @ @ @ @ # > + o o X X X X o o o O f f ",
"O + + @ Q 8 @ # = - S a.>.A u -.f / / S =.o.d +.T o.w # @ + + O O O + + # = r D -.( ( S - - 1 +.1 = ^ S 1 o.; + + O O o O + @ # @ O o X X X . . . . . . . . . . . . . . . . .           .     . . . . X X X o o o O O O O O o o o o o o X X X X X X X o o O S w + + + @ L 2 @ # = 1 S d.-.A 0 =.f T X.S =.=.Z +./ X.f = # # @ @ @ # = e D X.O.S ( - - - / g 2 =.2 - X.f : g 4.f # @ + + + + @ @ + O o X X X X . . . . . . . . . . . . . . . . . . .     . . . . . . . . X X o o o o o o o o o o o o X X X X X X X X X X o o f y ",
"O O + + Q 8 @ # = f -.S 0 9 e 1.f / X.1.1.3.( X.T o.w # @ + + O O O O + @ # - 1 E E ( S - - 1 O.9 = R S 1 o.; + + O o o o o O O O o X X X X X X X X X X X X X . . . . . . . . . . . . . . . . . . . . . X X X o o o o o o o o o o o X X X X X . X X X X o O g t O + + @ L 2 @ # = f -.S 9 9 9 =.y T +.=.1.3.X.+./ X.f = # # @ @ @ # = - 1 f +.S ( - - - / g 2 =.2 - X.f = 2 X.- @ + + O O O O O O o o X X X X X X X X X X X . . . . . . . . . . . . . . . . . . . . . . X X X X X o o o o o o o X X X X X X . . . X X X X o y w ",
"o O O + Q 4 @ # w X.e - 1 1 2 1.f / O.y.S E 1.X.D +.w # @ + O O O O O + @ # - 1 E / ( S - - - Q O.f E S 1 o.: + + O o o o o o o o X X X X X X X X X X X X X X X X X . . . . . . . . . . . . . . . . . . . X X X X X X X X X X X X X X X . . . . . . X X X o g q O O + + D 2 @ # e X.y 1 1 1 2 O.f Q O.4.d S :.+./ X.f = # # @ @ @ # = - 1 s O.S X.- - - T X.f =.2 - ( f = 2 X.= @ + + O o o o o o o X X X X X X X X X X X X X X X . . . . . . . . . . . . . . . . . . . . . X X X X X X X X X X X X . . . . . . . . . X X X w t ",
"o o O + D 2 @ t / 1 # = - - 2 =.f / =.y.s D =.X.Y +.t # @ + O O O O O + @ # = - ( E ( S - = = = y O.r.g 1 o.: @ + O o o X X X X X X X X X X X X o o o o o o o X X X X X . . . . . . . . . . . . . . . . . . X X X X X X X X X X . . . . . . . . . . . X X o f 8 o O O + H 2 @ 8 / 2 = = - - 1 O.f ^ =.4.f g 1.+.^ X.f = # @ @ @ @ # # = - S o.S ( - - = 1 T >.y.1 = ( y = 1 X.= @ + O o o o o X X X X X X o o o o o o o o o o X X X X X . . . . . . . . . . . . . . . . . . . . . X X X X X . . . . . . . . . . . . . . X X w t ",
"o o O O D 2 # ( 1 @ # # = = 1 O.y ( =.y.d H =.X.Y X.t # @ + O O O O + + @ # = g O.r / S = = = = # 1 X.d > X.: @ + O o o X X X X X X X X o o o o o O O O O O o o o o X X X X . . . . . . . . . . . . . . . . . . . . . . . . . . . . . . . . . . . . . X X X y 5 o O O + H 2 # / 1 @ # # = - 1 O.y ^ =.y.d S 1.X.^ X.f = # # @ @ @ # # = r O.f a ( - = = = = f 3.1 = ( w # 1 X.= + + O o o X X X X X X o o o o o o O O O O O o o o o X X X X . . . . . . . . . . . . . . . . . . . . . . . . . . . . . . . . . . . . . X X X t t ",
"X o o O D 4 # ( = @ @ # # = 1 O.w ( O.u.3.y.=.X.Y X.e # @ + O O O O + @ # # y X.r - / g = # # # # # S a - X.: + + O o X X X X X X X X o o O O O O + + + + + O O O o o o X X X X X . . . . . . . . . . . . . . . . . . . . . . . . . . .     . . . . X X X X y 5 X o O + H 2 = / = @ @ # = = - +.y Q =.y.3.4.-.X.^ X.f = # # @ @ # # = t X.y - d / = = = = = 1 +.1 = / t # 1 ( # + O O o o X X X X X o o o O O O + + + + + + O O O o o o X X X X X . . . X . . . . . . . . . . . . . . . . . . . . . .       . . . . . X X X t q ",
"X o o O K 4 # ( # + @ @ # # - +.w ( X.D +.X.i +.T X.q # @ + O O O O + @ # t o.e = = ^ g # # # # # # D g > X.; + + O o X X X X X X o o o O + + @ @ @ @ @ @ @ @ + + O O O o o o X X X X X X X X X X X X X X X X . . . . . . . . . . .       . . . . o O o X X T y X o o O H 4 = / = + @ @ # = - +.w Q X.D +.o.Z X.^ X.f = # # @ @ # # 2 o.w - - f / = = # # # - o.1 = / t # 1 ( # + O O o X X X X X o o O O + + @ @ @ @ @ @ @ @ + + O O O o o o X X X X X X X X X X X X X X X X . . . . . . . . . . . . .   . . . . o O o X X g g ",
"X X o o K 5 # ^ # + + @ @ # - X.t / / S N.h.i O.D X.q @ @ + O O O O + @ - / / - = = Q d # # @ @ @ # D g > X.= + + O o X X X X X o o O O + @ @ # = = = = = = = # @ + + O O o o o o o o o o o X X X X X X X X X X X X X . . . . . .           . . o g ^ g o X : # X X o O P 2 # ( # + + @ # # - X.t ! ( a N.M.Z o./ X.f # # @ @ @ # - S X.- - = f / # # # # # > o.1 = / t @ 1 ( # + O O o X X X X o o O + + @ # # = = = = = = # # @ @ + O O O o o o o o o o X X X X X X X X X X X X X . . . . . .       .   . . . X k ^ g o X # # ",
"X X o o K 5 # ^ # + + + @ # - X.q ^ H 0 ( ( u =.D X.8 @ + O O O O O + # / :.:.e = # L f @ @ @ @ @ @ S g > X.; + + O o o X X X X o O O + @ # r ( } ( E ( E / E ( S = @ + + O O O O O O o o o o o o o o X X X X X o X X . . . . .             . . O Q f Q o X X X X X o O L 4 = / # + + + @ # = X.q S / 0 X.X.u =./ X.y # # @ @ @ # D o.;.w = # y P # # # # # > +.1 = / t @ > ( # + O O o o X X o o O + + @ # q ( X.X.( ( E E E E g = @ @ + + O O O O o o o o o o o o o X X X X X o o X . . . . . .           . . o ! f ! o X . . ",
"X X X o ! / L Q @ O O + @ @ = X.2 T / 2 0 0 J 3.f #.2 @ + O O o O O + # X.S X.f # # K f @ @ @ @ @ @ S g : X.; + O O o o X X X o O O + @ # y O.Z f f f f p f f f O.w # # @ + + + # q ; # # @ @ @ @ @ @ + + + + @ f w O . . . . .               . X f O.w X X X X X X o o L U P I @ O O + @ @ = X.8 S ( 9 0 s H 4.a O.w # @ @ @ @ # ( D ( y # # w H # @ @ # # - o.1 # / t @ > ( # + O O o o X o o O + + @ # w O.D f f f f p r y f =.t = # @ @ + + # 8 ; # # # @ @ @ @ @ @ + + + @ f f O . . . . .   . .       . . X t o.t X . . . ",
"X X X o W q # @ o O O O + @ = X.1 w O.+.O.=.3.a X.^ = @ + O o o O O + # D y.o.2 # # K f + @ @ @ @ @ S g = X.; + O O o o o o o o O + @ # y -.Z 0 f d a a a 0 1 1 +.d - = # @ @ @ 1 3.X./ / / ^ Q Q ! ! W W W S R X.J # . . .     .         . . . . @ K o . . . . X X X o K q ; # O O O + + @ = X.2 9 X.X.O.:.3.S X.( > # @ + + + @ w -.( 1 # @ w P @ @ @ @ @ = o.1 # / q @ > ( @ + O O o o o o O O + @ # w -.A 0 f f f f u e 1 1 =.d - = # # @ @ 1 3.X./ / / ^ ^ ! Q ! ! W W S / o.( ; . . . .     & &   .   . . . + K o . . . . ",
". X X o K ; X o o o o O + + # X.1 = 1 2 e e r X./ - @ + O o o o o O + @ = o.9 = # @ S y + + + + @ @ S g = X.; + O O o o o o O O + @ # 2 y.y.-.+.a.k.>.-.y.3.u 0 =.H 2 1 = = # # # 1 = = = # # @ @ + + + O O O + w w o . . . .     . . . . . . . . + K o . . . . . X X o K ; o o o o O O + + # ( 2 = 1 1 2 e u o.( 1 # @ + + + + + @ D q @ # @ t P @ @ @ @ @ = X.1 # / q @ > / @ + O O o o o O O + @ # 2 y.w.-.+.a.s.0.=.:.O.a s -.F 2 1 = = # # # 1 - = = = # @ @ + + + O O O + t w O . . . .   . b n . . . . . . + k o . . . . ",
". X X o K ; o o o o o o O + # ( 1 # - 1 2 0 ( / - # @ O O o o o o o O + # X.2 # # @ g y + + + + + @ S g = ( ; + + O o o o O O + @ # = f :./ X.:.:.N._ V J y.>.+.h.Y.X.0 1 - = = # # # # @ @ + + O O o o o X X X X X X . . . . . . . . . . . . . . @ K o . . . . . . X o K ; X o o o o O O + # ( 1 # = - 9 u o.( 1 = @ + + O O + + + D 4 + @ @ f X.# + + + @ = X.> # / q @ > / @ + O O O O O O + @ # = f >.E o.>.>.a._ V H >.0.:.u.V.| 0 - = = # # # # # # # @ + O O o o o X X X X X X . . . . . & XXXX& . . . . . + k o . .   . ",
". . X X g ; X X X X o o O O # ( > # = 1 D y.J - # @ + O o o X X o o O O ; ( : @ @ # L w O + + + + + S g = ( ; + + O O O O O + @ # = = d X.9 0 :.G.L.s. ._ w.;.0.u.J.u.-.e - - = > 2 6 1 > 2 1 # + O o o o o X X X X X X . . . . . . X X X X X X X + k o . . . . . . X X K # X X X X o o O O @ ( 1 # = 1 X.M.X.1 = # + + O O O O + ; / > + + + = 1 + O + + + # ( > # / q @ > / # + O O O O O + @ # = = f o.9 u -.G.H.a. ._ >.-.d.u.N.0.-.e - - = : 2 9 1 1 9 2 # + O o o o X X X X X X . . . . $ N @X@XN $ X X X X + k o . . .   ",
". . . X g # X X X X X o o O @ ^ : # = - O.a.9 = @ + O o o X X X X o o # L y @ @ @ f / ; O O O + + + g g = ( ; + + + O O O + + @ # = - a o.9 0 J t.f.`.K.>.y.Z >.u.G d X.+.e - - g 3.O./ / =.3.w + O O o o o X X X X X X X X X X X X X o o o X X X + k o . . . . . . . X K # X X X X o o O O @ ^ > @ # - 4.K.0 = # @ + O O o O O # I f + O O O O O O O O + + # ( : # / q @ > / # + + + + + + @ @ # = - d +.0 0 H >.p.`.!.>.y.A r.d.G u J ;.e - - f 3.*.X./ -.-.y + O O o o X X X X X X X . X * N @X@X@X@XB * o X X + K o . .     ",
". . . X k # X X X X X o o O @ ^ ; @ # = S / = # + O o o X X X X X o o t g + + + w I ; O O O O O + + g g = ( ; + + + + + + @ @ # 1 f f / >.D H J ` i.I.P.q.>.J _ a.u.a 9 D =./ H =.X.g X.X.S ( f + O O o o o X X X X X X X X X X o o o O O O o o o @ k o . . . . . . . X k # . X X X X o o O + ^ : @ # = S X.- # @ + O o o o o o y S O O O o o o o o o O O + # ( : # / q @ > ( # + + + + + @ @ # 1 f f E 0.A D H _ q.I.I.q.>.G _ a.u.a 2 D ;./ H O.+.g X.( S / g + + O o o o X X X X X X * n XX@X@X@X@X@X#XoXm x o + K o . .     ",
". . . X k # . X X X X X o o + ^ ; + @ @ f D @ @ O O o X X . . . X X X y y O O + ^ 3 O O O o O O O + g g = X.; @ + + + + @ @ # 5 X.( ( X.O.+.+.+.-.0.0.0.:.+.+.+.o.-.4.f 1 S u.+.( 4.*.^ / 3.3.t + + O o o o o X X X X X X o o o O O + + + + O O o @ K o . . . . . . . X k # . X . X X o o O + ^ ; + @ @ f P @ @ + O o o o X o o y t o o o o o o o o o o O O # ( : # / q @ 1 ( # @ @ @ @ @ # # 1 ( X.X.X.+.o.| o. .>.0.0.>.-.| | o.=.4.f 1 a u.=.( 4.O.^ ^ #.#.w @ + O O o o X X X X X o * m oX@X@X#X#X#X#XoXM x o @ K o . . . . ",
". . . X k # . X X X X X o o + ! # + + + y S + + O o o X . . . . . X X t y O O + Q ; o o o o o O O + g g = X.: @ @ @ @ @ # # 6 #.S - 1 1 2 9 e 0 0 u i u 0 0 0 e 9 9 D -.r - f 3.S 2 2 - - 1 1 # + O O o o o o o o o o o o o o O O + @ # = # @ + O # K o . . . . . . . X k # . X . X X o o o + ! ; + + + t L + + O o o X X X X X y t X o o X X X X X o o O O # ( : # / q @ 1 ( # @ @ @ @ # # 2 +.S - 1 1 2 2 9 9 0 u i i u u 0 9 2 2 D -.r 1 f 3.L 2 1 - 1 1 > # + + O O o o o o o o o o o O x B #X#X$X$X.Xc @ O o @ K o . . . . ",
". . . X k # . X X X X X X o + ! # O + + w g O O o o X X . . . . . X X t t o o O Q ; o o o o o O O + g g = X.: # # # # # # 1 X.3.f - - 1 1 2 2 9 e 0 0 0 9 9 9 2 2 1 1 S =.q = q X.g = = # # @ @ + O O O o o o o o o o o o o O O + # 1 A ` Z - # @ g y X . . . . . . . X g # . X X X X X o o + ! # O + + q K O O o o X X X X X . t q X X X X X X X X X o o O # ( : @ / t @ 1 X.; # # # # # 1 X.:.f - - 1 1 2 2 2 9 9 0 0 0 9 9 2 1 1 1 g =.r - t O.S = = # # @ @ + + O O o o o o o o o o o o o %  X$X%X+X9.u = + + f f o . . . . ",
". . . X k # . X X X X X X o + ! # O O O t g O o o X X . . . . . . . X t t o o O ! # X o o o o o O + g f = +.t = - = # # = w o.+.f - - - 1 1 2 2 2 9 9 9 9 2 2 1 1 1 - - g X.1 @ 1 ( / Q Q ! W K S g g g g f f f f f f f g g g S D H ] L.OXf.+.J U L + X X . . . . . X X g # . X X X X X o o + ! # O O O 8 g O o o X X . . . . . t 8 . X X X . X X X X o o O @ ( : @ / t # 1 o.1 = = # = = e +.o.f - - - 1 1 2 2 2 2 9 9 2 2 2 1 1 1 - - g +.q = 1 ( / ! L ! ! K S g g g g g f f f f f f f g g g 7.&X*XOX].s._ S D g O X X . . . ",
". . X X k # . X X X X X X o + ! # O O O q f o o X X . . .   . . . . X 8 t o o O ! # X X o o o o O + g f @ y X.X.o.w = = = w y.*.9 - - - - 1 1 2 9 9 9 9 2 2 2 1 1 - - = = y X.1 @ ; w w t t t q q 8 8 8 8 8 8 8 8 8 8 8 8 8 q t w f F s.(.0.S f q # o X X X . . . . X X S # . X X X X X o o O ! # O O O 8 g o o X X X . . . . . t 8 . . . . . . . X X o o O @ ( ; @ / t # : R ;.X.f = = = e y.O.9 - - - - 1 1 2 2 2 2 2 2 2 2 1 - - - = = y X.4 @ ; t w t t t q 8 8 8 8 8 8 8 8 8 8 8 8 8 8 8 q t }.|.s.E.0.Z q 5 + o X X . . . ",
". . X X k # X X X X X X X o + ! @ o O o q f o o X X . .     . . . . . 8 t X o O W # X X X o o o O + g f @ # w y.-.( - - 1 P =.0 - - - - - 1 2 E +.+.+.o.o.o.o./ 2 = = # # # w ( 1 + + + + + O O O O O o o o o o o o o o O O O + @ # - u C 0 - # @ + O o X X X . . X X o S # . X X X X X o o O ! # o O O 8 g o o X X . . . . . . 8 8 . . . . . . . . X X o O @ ( ; @ / t # = 1 :.=.o.- - - H =.0 1 - - - 1 1 2 H +.o.o.o.X.X.X./ 2 - = = # # q ( 1 @ + + + + O O O O O o o o o o o o o o o o O O + c v u C 0 - # + O o o X . . . ",
"X X X o k # X X X X X X o o + ! @ o O o 8 f o o X X . . . . . . . . . 8 8 X o O W # X X X o o o O + g g # = - D +.f - - g +.e 1 1 - - - 1 2 ( o.a a a d f f f ^ X.1 # # # @ @ t ( > + + + + O O O O O O O O o o o o o O O O O + @ @ # = - - = # # + O o X X X X X X X o S # X X X X X X o o O W # o O o 8 g o o X X . . . . .   8 5 . . . . . . . . X X o O @ ( ; @ / y = = - S o.d - - d +.e 1 1 1 1 1 1 9 ( +.Z a a d d f f ^ +.2 = = # @ @ 8 / 1 + + + + O O O O O O o o o o o o o o o O O O + @ # = - = = # @ + O o X . . . ",
"X X X o S ; X X X X X o o o + ! @ o o o 8 f o o X X . .       . . . . 8 8 X o O W # X X X o o o O O y / - = = - - = - - H H 1 1 1 1 1 1 2 X.X.e 9 9 2 2 2 1 1 1 S ( 1 # @ @ @ @ q / > O O O O O O O o o o o o o o o o o o O O + + + @ # # # = - = @ + o X X X X X X X o S # X X X X X o o o O ! @ o o o 8 g o X X . . . . . .   8 7   . . . . . . . X X o O @ ( : @ f ( 2 = - - 1 - - - D H 1 1 1 1 1 2 e o.O.0 9 e 9 2 2 2 1 1 D X.1 # # @ @ + 8 / 1 + O O O O O O O o o o o o o o o o o o O O O + @ @ # # = = = @ O o X . . . ",
"o o o o S ; X X o o o o o O t k + o o o 8 f o o X . . .         . . . 8 8 X o O W # X X X o o o O + # L P > = = = - - - E D 1 1 1 1 2 e o.X.e 9 9 e 9 9 2 1 1 > : g ( > @ @ @ + + 8 / : O O O O O O O O O O O O O O O O O O O + + + @ # # = u +.J 1 + O o X X X X X X o S ; X o o o o o o o q K O o o o 5 g o X X . . . . .     8 7   . . . . . . . X X o O @ ^ g # # g X.9 - - - - - - D H 1 2 2 2 2 r O.=.0 e 0 0 e 9 2 1 1 1 > W ( : @ @ @ + + 5 / > + O O O O O O O O O O O O O O O O O O O + + + @ @ # 9 _ H - + o X . . . ",
"8 t + o g ; X o o o o o O t k + o o o o 8 y o X X . . .         . . . 8 8 X o O W # X X X o o o O + @ = Q / 1 = - - - - / D 1 1 2 2 r O.o.e 2 0 H ( D s D D f > ; ; f / : @ + + + O 7 ^ S S S S K K K K K K K K K S S L L S K L L L P I J X.d.{.T.u + O o X X o 1 w @ o d # o o o o o o O t K + o o o o 5 f o X X . . . .       8 7   . . . . . . . X X o O + ; / g # = g X.e - - - - - D I 1 2 2 2 s =.-.0 9 0 X.+.J d D D d 1 : ; g / ; + + + + O 1 ^ D K S S K K K K K S S S S S S D D S S S S D D D H J 0.].R.u + o X . . . ",
"X./ ! 8 y 7 y f f f f f K g + o o o o + K L + X X . . .         . . . 8 8 X o O W # X X X o o o O + @ @ = D ( r 9 1 1 1 E D 1 2 2 0 y.-.0 9 e a N.N.M.H y.o.-.1 = # # f / ; + O O O O @ ; ; ; ; ; ; ; ; ; ; # # ; ; ; S w ; ; ; ; : : > 1 9 J J.u.2 + O o X X # ( E / 2 y 1 f g g g g g K S + o o o o + K / + X X . . . . .     8 7   . . . . . . X X o o O + + ; ( / 1 : S +.f e 1 1 1 D I 2 2 2 0 y.y.u e e a A.J.V.( y.O.-.1 = # # f ^ ; + + O O O @ ; ; ; ; ; ; ; ; ; ; ; ; ; ; ; g d : : : : > > 1 1 9 F k.w.2 O o X . . . ",
"%.X.g : g 8 , : > > : > : O X o o o o 8 ( I q X X . .             . . 8 8 X o o W 8 o o o o o o O + + @ # - J e.:.d 1 1 / o.S D D H t.X.H H H _ -.:.a.J :.E =.1 = # @ @ y ( 4 O O o o o o X X X X X X X X X X X X o o y > o o o o o O O O + = 9 1 @ O o o X X @ ( X.S : f 1 ; : : : : > : O X o o o o 8 X.H t X X . . . . .     8 7   . . . . . . X X o o O + + @ 2 o.t ; > D u.>.S 1 1 H +.S S D H u.o.H H H J :.>.x.X.4.E =.> # # @ @ y X.q O O o o o o X X X X X X X X X X X X o o t 4 o o o o o o O O + # 2 1 + O o X . . . ",
"> > O X o X X X X X X X X X X o o o o 7 X./ > X X . .           . . . 8 t X o o ; L 8 o o o o O O + + @ # = r 0.:.( 1 1 f X.X.X.X.X.X.X.X.X.o.o.o.o.( a +.X.D : # @ @ + + y t O o o o o X X X X X X X X X X X X X o o f > o o o o o o o O O + + + O o o X X X o # : O X o X . . X X X . X X X X X o o : X./ 5 X X . . . .       8 7   . . . . . X X o o O O + @ @ # : - - - r t.:.X.1 1 f X.X.X.X.X.X.X.X.X.X.o.o.O.X.S =.+.D = # @ @ + + y f O o o o X X X X X X X X X X X X X X X X t 4 o o o o o o o O O + + O O o X . . . . ",
"X X X X X X X X X X X X X X X X o o o O g y o X . . .             . . 8 t X o o o ; / 1 o o O O O + @ @ # = 1 o.>.f - > 1 1 1 1 1 1 1 1 2 2 2 9 9 9 9 2 1 1 : # # @ + + O O O o o X X X X X X X X X X X X X X X X X o y : X o o o o o o o o O O o o o X X X X X X X X X X X X X X X X X X X X X X X X o f f o X . . . . . .     t 5   . . . . X X o o O O + + @ @ # = = - - 2 X.0.d 1 1 1 1 1 1 1 1 1 1 2 2 2 2 9 9 9 2 2 1 : # @ @ + + O + O o o X X X X X X X X X X X X X X X X X X t 5 X o o o o o o o o O O o o X X . . . . "
};
