/* XPM */
static const char *south_bonus[] = {
/* columns rows colors chars-per-pixel */
"256 256 232 2 ",
"   c #000107",
".  c #00020B",
"X  c #000414",
"o  c #030816",
"O  c #01061B",
"+  c #02091E",
"@  c #000721",
"#  c #010924",
"$  c #010B2B",
"%  c #061024",
"&  c #06112D",
"*  c #09152D",
"=  c #010D33",
"-  c #010E3B",
";  c #051234",
":  c #091633",
">  c #02113D",
",  c #08173A",
"<  c #091A3D",
"1  c #09183A",
"2  c #1D2334",
"3  c #2C2F3A",
"4  c #010F41",
"5  c #021244",
"6  c #061945",
"7  c #091C44",
"8  c #02144B",
"9  c #06194C",
"0  c #091E4B",
"q  c #031653",
"w  c #041955",
"e  c #081E54",
"r  c #031758",
"t  c #041A5B",
"y  c #081E5A",
"u  c #0C214D",
"i  c #0D2046",
"p  c #11254B",
"a  c #122447",
"s  c #0C2354",
"d  c #07205D",
"f  c #0A235C",
"g  c #0E295C",
"h  c #0A2256",
"j  c #122A56",
"k  c #122B5B",
"l  c #102753",
"z  c #15305D",
"x  c #2C344D",
"c  c #041D63",
"v  c #041F69",
"b  c #081F61",
"n  c #051F72",
"m  c #062164",
"M  c #092463",
"N  c #0D2964",
"B  c #06226C",
"V  c #09256B",
"C  c #0C2B6C",
"Z  c #112D63",
"A  c #102F6B",
"S  c #0F316D",
"D  c #0E3066",
"F  c #143165",
"G  c #13336C",
"H  c #1B386C",
"J  c #193669",
"K  c #062473",
"L  c #082672",
"P  c #062875",
"I  c #0B2B73",
"U  c #06267A",
"Y  c #06297B",
"T  c #0A2C7B",
"R  c #082779",
"E  c #102F72",
"W  c #0E3175",
"Q  c #0E327C",
"!  c #0E397D",
"~  c #123474",
"^  c #163975",
"/  c #1B3C74",
"(  c #11357B",
")  c #153A7C",
"_  c #1A3D7B",
"`  c #2D3D6D",
"'  c #1D417C",
"]  c #1C4079",
"[  c #20447D",
"{  c #2D437B",
"}  c #5B5C64",
"|  c #5A6073",
" . c #6D717D",
".. c #072B82",
"X. c #092E82",
"o. c #082E89",
"O. c #072E89",
"+. c #0D3483",
"@. c #0F3886",
"#. c #0C358A",
"$. c #0E398C",
"%. c #07318C",
"&. c #113682",
"*. c #133B84",
"=. c #193E83",
"-. c #103789",
";. c #133C8B",
":. c #0E3B92",
">. c #0C3894",
",. c #123E92",
"<. c #113E99",
"1. c #164085",
"2. c #1C4384",
"3. c #16428C",
"4. c #1A458B",
"5. c #1D498D",
"6. c #1C4888",
"7. c #0F429C",
"8. c #154393",
"9. c #194693",
"0. c #174896",
"q. c #1C4B94",
"w. c #15459B",
"e. c #184799",
"r. c #16499C",
"t. c #1B4C9B",
"y. c #1E519D",
"u. c #1E5196",
"i. c #204582",
"p. c #214886",
"a. c #214A8C",
"s. c #204789",
"d. c #214D93",
"f. c #204F9A",
"g. c #215096",
"h. c #21529D",
"j. c #295497",
"k. c #1245A2",
"l. c #164BA2",
"z. c #1B4EA2",
"x. c #144CAA",
"c. c #164BA8",
"v. c #1D53A4",
"b. c #1E58A6",
"n. c #1D55AA",
"m. c #1E59AC",
"M. c #1651AC",
"N. c #1B56B3",
"B. c #1E5BB2",
"V. c #1C5CBB",
"C. c #1651B5",
"Z. c #154FB5",
"A. c #2255A4",
"S. c #2359A6",
"D. c #2156A9",
"F. c #235BAC",
"G. c #285DAC",
"H. c #295BA6",
"J. c #235EB2",
"K. c #245EB5",
"L. c #1F62B9",
"P. c #2560AE",
"I. c #2A61AF",
"U. c #2562B4",
"Y. c #2964B5",
"T. c #2A69B6",
"R. c #2564BA",
"E. c #2966BA",
"W. c #2669BD",
"Q. c #2A6ABD",
"!. c #2668B7",
"~. c #2D70BE",
"^. c #3470BC",
"/. c #747989",
"(. c #5C729D",
"). c #1E5EC1",
"_. c #1E63C3",
"`. c #2466C1",
"'. c #266BC3",
"]. c #2B6DC3",
"[. c #256DCA",
"{. c #2A6EC9",
"}. c #2967C0",
"|. c #306EC5",
" X c #2D72C5",
".X c #2D73CA",
"XX c #2E79CD",
"oX c #2871CA",
"OX c #3173C5",
"+X c #3175CB",
"@X c #327ACC",
"#X c #377CCB",
"$X c #2A75D2",
"%X c #2E7BD2",
"&X c #2977D6",
"*X c #337CD2",
"=X c #3479D1",
"-X c #205FC0",
";X c #7B8295",
":X c #3880CE",
">X c #2F81D6",
",X c #3482D4",
"<X c #3B8AD6",
"1X c #3484DA",
"2X c #3985DA",
"3X c #368BDC",
"4X c #3A8BDC",
"5X c #3985D4",
"6X c #3D91DC",
"7X c #3B8CE2",
"8X c #3488E1",
"9X c #3D92E2",
"0X c #3D99E6",
"qX c #418CD9",
"wX c #4392DD",
"eX c #4894DC",
"rX c #439BE5",
"tX c #4699E6",
"yX c #438FE3",
"uX c #45A3EB",
"iX c #4AA5EB",
"pX c #51AAED",
"aX c #4CABF1",
"sX c #53ADF1",
"dX c #58B7F4",
"fX c #67A6DE",
"gX c #5BC2F7",
"hX c #63C7F8",
"jX c #808697",
"kX c #81848E",
"lX c #818BA7",
"zX c #8BAAD5",
/* pixels */
"    . X O @ # $ = = = = $ $ # # # @ @ ; 4.& O O O O O O O O O O O O O G Z @ # $ $ = = = = = - > 5 q m B B L P Y Y Y Y Y Y Y Y Y P L B B B K 8..Xv.m t t q 8 5 > = = $ $ @ + O X X .         a F             . X X O < 5.< O O O O O O O O X X X X X X X X X X X X X X O O @ $ $ = = = $ $ $ # # @ @ @ ; 4.; O O O O O O O O O O F N @ @ @ @ @ # $ $ $ $ = = > 5 8 t m V m m L P Y Y Y P L L L L B V V B B B 8. Xv.m y w q 8 5 > - = $ $ # @ O X X X .       a J             . X X O < 5.7 O O O O O O O O X X X X X X X X O O O ",
"    . X O # = - 5 5 > - = = $ $ $ $ # ; 4.; @ @ O O O O O O O + + @ @ 2._ # $ $ = s 6.6 = - > 5 8 t.R.].r.E.'.].].].].].].].].].'.W.].t.B K !.!. XI t t q 8 5 - = = $ $ # @ O X X . .       p F             . X X & 5.h.^ @ O O O O O O O X X X X X O X X O $ $ O X O O @ $ = - > > - = = $ $ $ $ $ # ; 9.; @ @ O O O O O O @ @ 1.1.# # # # # $ $ 9 2.6 = - 5 5 8 t.].].8.J.'.'.].].].].Q.Q.].].W.E.W.v.B L E.R. XI t w 8 8 5 > - = $ $ # @ O O X X .       a H           . X X O & 5.h./ @ O O O O O O O O X X X X X X X O $ 1 ",
"  . X O @ $ 5 V @.B 8 - - = $ $ $ $ $ > 9.; @ @ @ O O O O O @ @ @ @ @ g g $ $ = = 0 u.5.8 - 5 8 w F.8.U.B.%XL.R.r.,.,.,.k.XXz.,.;.@.v.U.B B 8. X*X;.t t q 8 5 - - = $ $ # @ O O X X .       p J           . X X O 1 q.=.' # @ O O O @ ; : : : : : : 1 z , u 5.q.< X O O # = 5 V +.m 5 - = = = $ $ $ $ ; 9.; @ @ @ @ @ @ @ @ @ @ g N # # $ $ $ $ = 9 q.9.8 > 5 8 w F.r.J.B.%XR.R.l.,.,.,.w..Xz.;.$.#.t.E.B B 8. X%X3.t w 8 8 5 > - = $ $ # @ O O X X . . .   a H           . X X O : q.) 2.# @ + O O @ ; : : : : : : : k 1 7 5.g.",
"  . X O # = t oXaXoX,.&.( ~ G G G G A ~ D.G k k k k k k k k k k k k Z Z s = = = - - 5 =.q.w 8 q t F.W..Xz.%X7XwX$.P L Y T..X+.K B B ;.U.B v B T ;.E.*.t q 8 5 - - = $ $ # @ O O X X . .     p J           . X X O @ Z S.0 # @ @ @ @ l d.2.2.2.2.2.2._ a.^ 6.5.q.s X O @ $ = t oXaX'.-.( ~ A A Z Z Z Z G D.G g k k l j k h k k k j k k k s = = = = = > ) t.w 5 8 q v.Q..Xn.*X9XwX:.L L Y U.+XX.B B v -.U.B v v L *.E.*.w q 8 5 > - = = $ $ # O O X X . . .   p H           . X X O @ Z S.u # @ @ @ O s d.2.2.2.2.2.2.) s.^ 6.5.2.",
"  . X O $ = m >XgX1Xn.t.0.9.4.4.2.2.2.2.2._ _ _ _ _ _ _ _ _ _ _ _ _ 2.6.h.G = - - - > 5 2.h.y q t L +.+.P +.,.;.R L T J.Q.X.K B B v ;.Y.B v v c c T U.*.q 8 5 - - = > e = # @ O X X . . .   p J         . X X O O O 7 2.$ # # # # k 5.7 $ $ $ $ $ $ ; _ 1 ; / ^ $ X O @ $ = m 1XgX1Xn.t.t.0.9.5.1.2.2.2.2.' _ _ _ _ _ _ _ _ _ _ _ =.2.2.h.~ - - - - - 5 2.A.y 8 q V Q @.Y #.w.,.Y L P F. XX.B v v v -.Y.B v c c c T U.*.q 8 5 > - = > 0 = # @ O X X . . .   a H           . X O O O 7 6.$ $ # @ @ s 5.0 $ $ $ $ $ # $ / , $ G 2.",
"  . X O $ = 8 +.x.+.q 8 5 5 - - = $ $ $ $ $ # # # # # # # # # $ $ $ = = 0 f.^ - - > 5 5 8 4.F.V t c v v B B B K K P G.Y.R B B v v v ;.Y.B c c y c t I U.*.8 5 5 - = N Y.6 # @ O O X X . .   p J       . . X X O O @ 7 6.$ $ # # l 5.< @ # @ @ @ @ @ $ i., O O O X X O O $ = 8 #.M.+.w 8 5 4 - - = $ $ $ $ $ # # # # # # # # $ $ $ $ $ $ 9 t.~ 5 - 5 5 5 8 3.F.M t t v v B K K K K L D.Q.T v v v v v -.T.B v c c c c I U.*.8 5 5 - = N Y.6 # # O O X X . .   p H .     . . X X O O @ 7 5.= $ $ # s 5.6 @ # @ @ @ + + # ' , + @ # ",
"  X X O # = 5 8 t w w q 8 8 5 > = = $ $ $ $ $ # # # # # $ $ $ $ $ = = - - e h.^ > 5 5 8 8 w 0.J.L c c c v v B B P G.Y.T v v v v v v ;.Y.B c c v t t t Q Y.w 5 4 - = e A.> $ # + O X X . . . p H . . . . X X X O @ @ 7 6.= $ $ $ 6.s @ # @ @ @ + + O # i.: O O O X X X O # = 5 8 t w q q 8 5 5 - = = $ $ $ $ # # # # # # $ $ $ $ $ = = = = 9 y.) 5 5 5 5 8 q 9.F.V c v v v B B B K v.Y.T v v v c c c *.Y.B v v B v c t I U.w 5 5 - = e A., $ # O O X X X X . p H . . . . . X X O @ @ 7 5.= $ $ $ 6.g @ # @ @ @ O O O # i., O O O ",
"  X X O # $ - 5 8 w t c t w 8 5 - = = $ $ $ $ $ # # $ $ $ $ $ $ = = = - > - e h.) 5 8 8 q w t t.U.8.8.8.8.8.r.t.Y.T.P v v v c v v B F.F.v m t.Y.*.t t V G.w 5 5 - - 0 h.> $ # @ O O X X X . l H . . . X X X O O # # 0 q.= $ $ $ 6.u # # @ @ O O O O # i.: O O X X X X O # $ - 5 8 w t t t q 5 > - = $ $ $ $ $ $ $ $ $ $ $ $ $ $ = = = = - - 9 A.*.8 8 8 8 q w 0.U.8.8.8.8.0.e.e.J.U.L v v c c c v v D.S.v B t.Q.;.c t M G.w 5 5 - - 9 h.> $ # @ O O X X X X p H . . . . X X O O @ # 0 d.= $ $ $ 6.u @ @ @ O O O O O @ i., O O O ",
"  . X O @ $ = - 8 t T c.k.P q 5 - = $ $ $ $ $ # # # $ $ $ $ $ $ = = - - 4 5 > e A.=.q q q t t v 8.n.n.D.F.F.J.J.D.R v v c c c c K G.Q.T c I  XQ.U.c q M G.w 5 5 - - 0 h.> $ $ @ O O O X X X l H X X X X X O O @ # $ 0 q.= = $ = s.u # # @ @ O O O O # i.; O X X X X X O @ $ = 5 8 t P w.7.K q 5 - = $ $ $ $ # # # # # $ $ $ $ $ = = = - - - - e D.1.q q q w t c 8.F.F.F.F.J.J.J.D.T v v c c c c V D.Q.T c T +X].U.t q M G.w 5 5 > - 0 h.> $ $ @ O O X X X X p / X X X X X X O @ # # 0 d.- = = $ 6.s # @ @ O O O O O @ 2.: O O X ",
"  . X O @ $ = M W ;.'.sXaX_.8.*.( ~ G G G G G F F G G G G G G ^ ^ ^ ) _ =.&.f 5 f G.9.t t t c v v v B B B K B B v v v v c c c V G.@Xy.c t v v.+XU.v q m S.w 5 5 - - 0 h.> $ $ # @ O O O O X l H X X X X O O @ # $ $ s q.- = = = 5.u # # @ O O O O O @ [ ; X X X . X X O @ $ - N Q ;.`.sXiXL.8.*.( ~ G G G G Z Z Z F F G G G G ^ ^ ^ ( ) ) ) e 5 e S.9.t t t t c v v v B B B K B v v v v c c c B D.=Xt.c t m v.@XU.c q m G.w 5 5 5 - 0 h.> $ $ # @ O O O O O l / X X X X X O @ # $ $ e d.- = = = 6.s # @ @ O O O O O @ 2.: X X X ",
"  . X O O $ G v.8.v.oXsXsX`.t.8.3.=.) ) ^ ^ ^ ^ ^ ^ ^ ^ ) ) _ =.=.=.1.3.9.f.G.C q V U.t.c c v v B B K K P L L K B B v v v c c T U.v.t.c t t y L F.*.q m S.w 5 5 - - e h.> = $ $ # @ @ O O O k / O O O O O @ # $ = = f t.5 - = - 5.s $ # @ @ O O O O @ [ & X X X . . X O O # A n.r.v..XdXsX`.t.8.3.=.) ) ) ^ ^ ^ ^ ^ ^ ^ ) ) =.=.1.3.3.9.9.f.G.M 5 f G.t.v c v v v B B K K K K K B B v v v c c I R.v.t.t t t c L m.*.q M G.t 8 5 5 - e h.> = $ # # @ O O O O l / O O X O O O # $ $ = h h.5 - = = 5.s # # @ O O O O O @ ' : X X X ",
"  . X X O k t.w 5 q P k.w.B 8 5 - = $ $ # # # # # # # $ $ $ = - - 4 5 8 8 q &.T.( t V U.v.v v B B K P R R R R P K K B v v v c L R.T.;.t t w w q 0.3.q m F.w 5 5 5 - e h.5 = $ $ # # # # # @ k / O O O O @ # $ = - - f A.5 - - - q.s $ $ # @ O O O O # i.& X X X . . X X O g 0.e 8 q Y c.7.B 8 5 - = $ $ # # # # # # # $ $ $ = - - 5 5 8 8 q &.J.I 8 M U.v.B v B B K P P U U U P L K B v v v c V R.T.;.t t w w q 8.3.8 M F.t 8 5 5 - e h.5 = $ $ # # @ # # @ k _ O O O O O @ $ = = - f A.8 4 - - 5.h $ # @ O O O O O @ ' : X X X ",
"  . X X O =.N = - 5 8 q q 8 5 - = = $ $ # # # @ # # # $ $ = - > 5 9 e t w m m 8.OX;.c I E.D.P K P R ..o.o.o.o...Y U K K v v c T ].9.t q q q q q 0.3.q m F.w 8 5 5 - e h.5 = = $ $ $ $ $ $ $ Z _ # @ @ @ # $ = - - 5 C D.8 5 - 4 d.h $ $ # @ @ O O O # [ & X X X . . X X O ' N = - 5 8 w w 8 5 - = = $ $ # # @ # # # # $ $ = = - 5 w y y t m m 3.].&.t I Y.F.P K P U U ..o.o.o...Y U K K B v c T ].0.t w q q q q 0.3.q M G.t 8 5 5 - e h.5 = = $ $ $ $ $ $ $ Z _ # @ @ @ # $ $ = - 5 M D.8 5 4 - q.h $ $ # @ O O O O @ ' : X X X ",
"  . X X O _ s $ = - > > 5 > - = $ $ $ # @ @ @ @ @ @ # $ $ = - - e S.S.S.*.U.Q.J.J.4Xt.B T E.].J.J.R.R.'.oXoX'.'.R.E.U.U.K.G.S.Q.3.w q q 8 8 8 8 0.3.8 M F.w 8 5 5 5 e A.5 = = = = = = = = = A _ $ # # # $ = = - 5 8 I F.t 8 5 5 f.f = $ $ # @ @ O O # i.& X X X . . X X O _ s $ = - > 5 5 > - = $ $ # # @ @ @ @ @ @ # $ $ = = > e S.G.G.;.U.Q.J.F.2X8.v T T.].J.J.R.R.R.'.'.`.R.R.U.U.J.J.G.F.Q.9.t q q 8 8 8 8 9.3.8 M G.y 8 8 5 5 e A.5 = = = = = = = = $ Z 2.$ # # # $ $ = - 5 8 I G.t 8 5 4 q.g $ $ # @ @ O O O @ ' : X X X ",
"    . X O _ s $ $ $ = = = = $ $ # # @ @ @ + @ @ @ @ # $ $ = - > f S.Q J.t.t.t.+Xn.J..Xz.B T ].2XB.c.R.[.0XuX$XV.M.z.r.Q.Q.8.3.( t q 8 8 8 8 8 8 9.3.8 M F.w 8 8 5 5 f A.5 - = = = = = = - - ^ 2.$ $ $ $ = = - 5 8 t ;.'.B q 8 8 h.f = = $ $ # @ @ @ $ i.& X X X . . . X O _ s $ $ $ = = = = $ $ # # @ @ + O + @ @ @ # # $ = = - h F.W F.t.t.t.*XB.R..Xt.B T ].3XV.l.V.[.0XuX&XV.M.z.r.Y.W.8.3.&.t q 8 8 8 8 8 8 9.3.8 M G.y 8 8 5 5 e A.5 - = = = = = = - = ^ 2.$ $ $ $ $ = - 5 q t >.].B q 8 5 t.M = $ $ # # @ @ @ # 2.: X X X ",
"    . X O / u @ # # # # $ # # @ @ O O O O O O @ @ @ # $ $ = = > d Y.Y.U.r.Q.Q.D.c c T ].m.Y #.].+X<.E.`.3XsX8XoXx.o.U v.v.c t r q 8 8 5 5 5 5 5 9.3.8 M G.t 8 8 8 8 f S.8 - - - - - - - 5 C D.N = = = = = - 5 8 t B .XrX%.t q 8 A.M - = $ $ $ # # # $ 2.; X X X . . . X O / s @ # # # # # # # @ @ O O O O O O + @ @ # # $ $ = - e F.D.F.3.E.].J.B v +.'.v.T #.R. X;.U.`.3XsX8XoXx.o.P t.v.c t w q 8 8 5 5 5 8 8 9.3.8 M G.y 8 8 8 5 f S.8 - - - - - - - 4 N A.N = = = = = - 5 8 r K .XiX$.t q 8 y.N = = $ $ $ # # # $ 2.: O X X ",
"    . X O / u O O O O O O O O O O O O O O O + @ @ @ # $ $ = = > 5 M V V m I I V t y t T R.].OX+X{.+XW.n.c.[.tXrX*X>.Y v.v.c t q 8 5 5 > 5 5 5 5 9.1.8 M F.y q q 8 8 M S.9 5 > - - 5 5 5 C Y.W 5 - = = = - 5 8 q c ,.3X,XX.t q q A.N - = = $ $ $ = > , 6.; X X X . . . X O / u O O O O O O O O O O O O O O O O + + @ @ # $ $ = - 5 d M M y V Q V t y c I R.`. X.X'. XW.J.x.[.iXrX*X%.P t.v.c t q 8 5 5 5 5 5 5 5 4.3.8 M G.y q q q 8 f S.8 5 5 - 5 5 5 5 C Y.W > - = = = - 4 8 q c ,.3X5X%.t q q v.N - = = $ $ $ $ = > 6.1 O O X ",
"  . . X O / u X X X X X O O O X X X X X O O @ @ @ # # $ $ $ = - > 5 8 8 8 8 8 q w w t t I J.yXtX].@XR.v.%.w.,X`.@XR.Y. Xv.t q 8 5 5 - - - - 5 4 4.1.8 M G.y q q q q M F.w 5 5 5 5 5 8 C T.OXy 5 5 - - - 4 5 8 t &.+Xz.o.B c t q S.C - - = = = = G d.d.H.; O O X . . X X O / u O O X X X X X X X X X X X O O + @ O @ @ # $ $ = = - > 5 5 8 8 w w w w t c L B.9XtXR.+XQ.F.%.k.,X`.XXm.m.Q.v.t w 8 5 5 - - - 5 5 5 4.3.8 M G.y q w w q M S.9 5 5 5 5 8 8 C T.OXy 5 - - - - 4 5 q t +.+Xn...L c t q v.C - - = = = $ Z f.q.H.1 O O X ",
". . X X O / 7 X X X X X X X X X X X X X O @ F _ 6 $ $ = = ; > > 5 8 9 w e d M 9 8 8 w t c B <.@X,.$.m.XXW. X2X,X].Q.+X,X3.w 8 5 5 - = = - - 4 4 4.1.8 M F.y w t *.I V P.w 8 5 5 8 8 W Y.8.Y.m 8 5 5 5 5 5 8 q &.].r.X.Y P B t t F.C 5 > - = = = 4.~ N G.; O O X X X X X O / u X X X X X X X X X X X X X O @ g _ < $ $ $ = = > > 5 5 8 9 w d C w 9 q w t t v >.@X,.$.J.@X]..X3X%X'.!..X,X8.w 8 5 5 - - - - - 5 4 4.3.8 m P.m t c *.I V F.w 8 8 8 8 8 I Y.9.Y.m 8 5 5 5 5 5 8 q Q ].w.X.Y Y B c t n.C 5 - - = = = 2.~ f G.1 @ O O ",
"X X X X & s.k O X . . . . . . . . . X X O 1 q.h.h.2.6.5.a.d.d.d.h.h.A.S.S.Y.].f 5 8 8 q t c R Q.T v I &.*.-.@.@.T +.R.y.t q 8 5 - = = = = - - - 5.1.8 m F.c t L ,XU.V P.w 8 8 8 8 W U.) 9.#X0.y 8 5 5 5 8 q Q Q.k.J.+X X].].8.t F.C 5 5 - - - - q.h.9.I.> @ O O X X X X & 5.F O X . . . . . . . . . X X X : q.q.h.2.6.6.5.5.d.d.h.h.h.A.A.U.].f 5 8 8 q w t L R.I v T -.-.-.@.+.I T U.v.c q 8 5 - = = = = - - 4 4.3.8 M P.m t L 5XY.I P.w 8 8 8 8 I U.*.0.#X0.t 8 5 5 5 8 q I R.l.J.+X.X].].8.t F.I 5 5 - - - - 1.h.1.I.1 @ @ O ",
"X X X O H d.a.& . . . .       .   . X X O # G _ 0 , < 6 6 6 6 6 9 9 0 0 0 f S 5 > 5 5 8 8 w V E.&.T ( ( &.&.*.*.*.F.y.t q 8 5 - = = = = = = - - 5.1.8 m G.c t c U.t.V P.t 8 q q t P.&.M Q.z.U.I 8 8 8 8 8 w J.w.J.Q.,.>.@.t.U.c F.I 8 5 5 - - - d.h.*.S.> # @ O X X X O ^ d.d.; . .         . .   . X X X @ G ) 0 , < < 6 6 6 6 9 9 0 0 e f S 5 > 5 5 8 8 q m R.&.Q Q ( &.&.&.&.&.m.v.y q 8 5 - = = = = = - - - 4.3.8 M P.c t c U.t.V P.t q q q t G.&.V  Xt.U.W 8 8 8 8 8 q F.r.J.].:.>.#.r.U.c F.W 8 5 5 - - - 5.f.) S., # @ O ",
"O O O O ^ 6.d.: . .               . X X X O + @ @ @ @ # # # $ $ $ $ = = = = = = - - > 5 5 8 q 3.F.G.Y.Y.Y.Q.Q.Q.Q.t.t 8 8 5 - = $ $ $ $ = = - - 5.1.8 M P.c w t v.;.V P.y q q q c Y.C m Q.U.Q.I q 8 8 8 8 t J.8..X#.J.@X8.8.U.c U.W 8 8 5 5 - - q.N 5 h., # # @ O O O O ^ 2.a.: . .               . . X X O + @ @ @ @ # # $ $ $ $ $ $ = = = = = - - - > 5 8 q ;.F.G.U.Y.Y.Y.Y.T.Q.t.y 8 8 5 - = $ $ $ $ = = - > 4.1.8 M G.c w t v.;.V P.y q w w m U.V B ].U.Q.W q 8 8 8 q t F.,. X#.F.+Xw.:.R.m F.W 8 8 5 5 - - 4.C 5 f.6 $ # @ ",
"Z Z + O 7 F k + . .               . X X X O O O + + @ @ @ # # # # $ $ $ $ $ $ $ $ = = - - 5 5 8 q w w t y y t t t q 8 5 > - = $ $ $ $ $ = = - - 5.1.8 M P.c w t v.;.I Y.y q w w m U.V c +.Q.t.t q 8 8 8 q t J.8.].#.].eXz.8.R.B U.Q q 8 8 5 5 4 q.N 8 A.6 $ $ # k G @ O 7 F l + . .           .   . X X X O O O O O @ @ @ # # # # $ $ $ $ $ $ $ = = = - - 5 5 8 q w w w t y y t t q 8 5 5 - = $ $ $ $ $ $ = - - 4.1.8 m G.c w t v.;.V Y.y w w t m U.V m &.T.0.t q q 8 q q t F.8.].#.Q.eXn.8.E.B J.Q q 8 8 5 5 4 4.C 5 h.6 $ # @ ",
"' _ + O O X X X .               . . X X X O O O O O O + O + @ @ @ @ @ @ # # # # $ $ $ = = - > 5 5 5 8 8 8 8 8 8 8 5 5 > = = $ $ # # $ $ = = - - 5.1.8 M P.c w t v.;.I Y.c w t t m U.I c Q T.I w q 8 8 q q c U.8.].#.n.J.n.r.E.B Y.Q q q 8 8 5 5 q.N 9 D.9 = $ # _ 2.# O X X X . . .         . . . . X X X O O O O O O O + O + @ @ @ @ @ # # # # $ $ $ $ = - > 5 5 5 5 8 8 8 8 8 8 5 5 - = = $ $ # # # $ $ = - - 4.1.8 M G.c w t v.;.V Y.c t t t V Y.I y W Y.I q q q 8 q q c G.8.].#.n.J.n.r.E.B U.Q q q 8 5 5 4 4.N 5 h.6 $ $ # ",
"~ F O O O X X X . .         . . . X X X O O O O O O O O O O O O O O O O O O + O @ @ # $ $ = = - - > 5 5 5 5 5 5 > - - = $ $ $ # # # # $ = = - - 5.1.8 M P.c t t v.;.I Y.c t t t B Y.I *.Q.;.t w q 8 8 q q c U.8.Q.z. Xv.@XJ.U.B E.Q t q q 8 8 8 q.N 9 D.9 = $ $ G G @ O O X X X . .   . . . . . . X X X X O O O O O O O O O O O O O O O O O O O @ @ # $ $ = = - - - > 5 5 5 5 5 > - - = $ $ $ # # # # $ $ = - - 4.*.8 M G.c t t D.;.I Y.c t t t B T.I Q T.*.t w q q q q q c J.8.W.z..Xn..XJ.E.B U.+.r q q 8 8 5 9.N 8 h.9 = $ # ",
"^ G @ O O X X X . . . . . . X X X X X O O O O O O O O O O X X X X X X X X X X O O O O @ # $ $ $ = = = = - - - = = = = $ $ # # # # # # $ = = - > 5.3.8 M P.c t t D.;.I T.c t t t B T.;.OX8.c t q q 8 q q w c Y.8.Q.v.n.P T.U.U.B T.&.t r q q q 8 y.N 9 D.9 = = $ G ^ @ O O X X X X . . . . . X X X X X O O O O O O O O O O O X X X X X X X X O O O O O @ # $ $ $ = = = = = = = = = = $ $ $ # # @ @ @ # $ $ = - - 4.;.8 M G.c t t D.;.I Y.v t c c L Q.-. X3.t t w q q q q q c J.8.Q.z.m.L U.U.Y.B U.&.t t q q 8 8 t.N 8 h.9 = $ $ ",
") G @ O O X X X X X X X X X X X O O O O + + O O O O O O O X X X X X X X X X X X X X O O O @ # $ $ $ $ $ $ = = $ $ $ $ $ # # # # # # # $ = = - - 4.*.8 M G.c t t D.;.I T.m t t c L Q.8.OXT c t q q q q q t v Y.8.Q.n.n.P T.U.U.B T.&.c c t r r ;.D.e 9 A.9 = = $ ^ ^ # @ O O X X X X X X X X X X O O O O O O O O O O O O O X X X X X X X X X X X X X O O O @ # # $ $ $ $ $ $ $ $ $ $ $ # # @ @ @ @ # # $ = = - - 4.;.8 M G.c t t D.;.T T.m c c v L Q.8. XT v t w q q q q t c U.r.].v.m.L U.U.Y.B R.*.c t t r q *.F.e 8 A.9 = = $ ",
") G # @ O O X X X X X X X O O O + @ @ # # # # @ @ O O O O X X X X X . . . . X X X X X X O O O @ # # # # # $ $ $ # # # @ @ @ # # # # $ $ = = - - 4.*.8 m P.c t t D.;.T Q.B c c c P Q.r. XT c t q q q q q t v Y.r.].n.E.8. XR.U.K W.-.v v v c 9.J.m 8 w A.9 - = = ^ ) $ @ O O O X X X X X X O O O O @ @ @ @ @ @ @ @ O O O O X X X X X X X X X X X X X X X O O O @ @ # # # # # # # # # @ @ @ @ @ @ # # $ $ = = - - 4.;.8 M G.c t t D.;.I T.B c v v P Q.8. XR v c t q q q q t c U.r.].m.].8.].R.U.L E.-.v v v c 3.F.m 8 q A.e - = = ",
"=.^ $ # @ O O O X X O O O + @ # # $ $ $ $ $ $ $ # @ + O O X X X X . . . . . . . . . X X X X O O O + @ @ @ @ @ @ @ @ @ @ @ @ # # $ $ $ $ = = - - 4.=.8 m U.c t t F.;.Q Q.B c c v P Q.r.OX#.L c t q q q q t v U.e. Xw.].].R.n.U.L R.-.K K K A.E.B q q w S.w - - = ) ) $ # @ O O O O O O O O + @ # # $ $ $ $ $ $ $ # # @ O O O X X X X . . . . . X . X X X X X O O O O + @ @ @ @ @ @ @ @ @ @ @ @ # # $ $ $ = = - - 4.=.8 M J.c t t F.3.Q Q.B v v v P Q.r. X#.P v t q q q q r c U.w. Xk.]. XR.v.U.L R.;.K K K t.E.V q 8 w D.e - - = ",
"2.) $ $ # @ + O O O O @ # # $ $ $ = = = = = = $ $ # @ O O O X X X . . . . . . . . . . X X X X O O O O O O O O O O O O @ @ # # $ $ $ $ = = - - - 4.*.8 M U.c t t D.;.Q Q.B v v v P Q.r.<X+XQ.L t w q q q t v U.t..X$.R.{.z.8.J.L E.-.Y >.R.].Y t r q y S.e - - = ) =.= $ # @ O O O O O @ # # $ $ $ = = = = = = = $ $ # @ O O X X X X . . . . . . . . . X X X X X O O O O O O O O O O O O @ @ # # $ $ $ = = - - - 4.=.8 M U.c t t F.3.Q Q.B v v c P Q.w.<X+XQ.T t q q q q q c U.t..X>.R.].z.:.U.K U.;.Y >.J.].T t q 8 w D.e 5 > - ",
"4.) = = $ # # @ @ @ # $ = 6 > > > > 5 5 5 5 5 > > = $ $ # @ + O X X X X X X X X X X X X X X X O O O O O + @ @ @ @ @ @ # # $ $ ; ~ 4.e = = - - - 4.=.8 m U.c t t D.;.8.,XT v v v P Q.r.,XM..XT t q q q q w c Y.t..X,.*X=XQ.w.J.L R.:.x.tX9X>.B c t q c G.e 5 4 - ) 2.= = $ # @ @ @ @ # # $ 9 > - > > 5 5 5 5 5 > > = = $ # @ + O O X X X X X X X X X X X X X X X O O O O O O O @ @ @ @ @ # $ $ = ~ 9.s = = = - - 1.=.8 M U.c t t F.8.8.5XT v v v P Q.r.5Xn.XXT t w q q q t c U.t..Xw.*X=XQ.:.J.K U.,.x.yX9X>.v c q q t S.y 5 5 > ",
"4.=.- = = $ $ $ $ $ $ $ 9 J.v.0.t.t.y.h.h.h.h.u.q.q.5.6.2.2.' ' ' / / / / / / / / / / / / / / / / / _ ' ' ' ' ' [ [ ' 2.2.6.6.t.U.F.4.= - - - - 5.=.8 M P.c t t D.;.t.3X@.c v v P Q.w.<X+X XI t w q q q w c U.8.t.#.R.7Xn.w.R.P E.,.V.dX*X..B c t q c K.y 5 5 - ) 2.- = = $ $ $ $ $ $ $ 9 U.v.9.q.t.u.h.h.h.h.h.u.q.5.5.6.2.2.' ' ' / / / / / / / / / / / / / / / ] ' ' ' ' ' ' ' ' ' 2.2.p.6.f.U.S.q.= = - - - 4.=.8 M P.c t t S.8.v.6X@.c v v P Q.r.qX+X.XT t t q q q t c U.8.t.#.R.7Xn.:.J.L R.8.V.gX,X..v c t q y G.f 5 5 5 ",
"5.1.- - = = $ $ $ $ $ $ > N f h f f f f f f f f h e 0 0 7 7 < 1 : : : * * * * * * * * * * * * * : : : : : : : 1 1 < < 7 7 7 0 h y.F.S = - - - - 5.=.5 f P.c t t D.;.B T B c c c L Q.r..X-.T c t w q q q t c R.-.B K #.oX#.w.R.U W.,.>.*Xk.L v c t q c K.y 8 5 - ) 2.- - = = $ $ $ $ $ $ > N f e e h f f f f f f h s 0 0 7 7 < 1 : : : : * * * * * * * * * * * * : : : : : : : : 1 1 < < 7 7 0 h y.F.~ = = - - - 1.=.8 f P.c w t D.;.K T B c c c L Q.w.+X,.T v t w q q q t c U.;.K L o. X#.8.U.L R.8.>.,Xl.L c t t q y G.M 8 8 8 ",
"t.4.8 5 5 > > > > > ; > > > 5 5 5 5 5 5 8 5 5 5 - = = $ $ @ O O X X .                                     . . . X X X O O O @ # > 6 = = = - - - 5.=.5 f G.y q w v.*.t t t t t c B Q.8.~.L v t t w q q q t c U.*.v B T  X#.R.*XX.'.,.P W.@.v v t t r m Y.b 8 5 5 1.1.5 5 5 > > > > ; ; > > > > 5 5 5 5 5 5 5 5 > - = $ $ # @ O O X X .                                     . . . X X X O O O @ # > 6 = = = - - - 4.=.5 f P.y q w A.;.t c c t c c L Q.r. XY B c t q q q q t c U.-.v B X.].#.R.*XT W.8.P W.#.v c t t q c U.M 8 8 w ",
"].E.v.A.A.h.h.f.t.t.t.t.t.t.f.f.f.A.A.A.A.h.h.h.) > = = $ # O O X X .                                       . . . X X X O O O @ @ # $ $ = = - f S.C 8 C Q.m 8 q A.&.q t t t t t B T.8. XP v t t w q w t t c U.+.v B T ].#.z.B.w..X+.B E.Q c y t t r m Y.m 8 5 C E.R.D.A.h.h.h.t.q.q.q.q.t.t.t.t.f.h.h.h.h.h.h.h.~ > = $ $ # O O X X .                                     . . . . X X X X O O @ # # $ $ = = - f D.C 8 C Q.m 8 q v.&.r t t t t t B Y.8..XT v y t w q w t t c J.&.v B R ].#.l.B.w..X+.B R.Q c t t t r c Y.M q q V ",
"M f f f f h e e e e e e e e e e e e e e e e e f 0.=.> = $ # @ O X X .                                             . . X X X O O O @ # $ $ = 9 A.~ 8 8 W ].C 8 8 v.3.q q q q q t m Y.+.T.t.v y t w w w t B B U.Q t c Q ].+.P ,..X8.B I ].I t t t t t m T.V q 8 w M M f f f e e e e 0 e e e e e e e e e h h h e h 9.) > = $ # @ O X X X .                                           . . X X X O O @ @ # $ $ = 9 A.~ 5 5 W ].M 8 8 t.3.q t r t t t B Y.#.Q.t.v t t w w w t B L U.Q c c T ].+.P ,. X8.m V R.T t t t t t m Y.V q q t ",
"8 8 5 5 5 5 - - - - - - - - - - - - > > > > > - 8 9.2.> $ $ @ O O X X .                                             . . X X X X O O @ # $ $ h d.5 5 5 8 d 8 8 8 I U.( q q q q q m Y.I I Q.0.t t t w w Q T.J.J.V t I E.t.P ;. X8.B I J.v.c t t t t t V Q.V w w q 8 8 8 5 5 - - - - - - - - - - - - - - - - - > - 5 9.1.> $ $ @ O O X X .                                             . . X X X O O + @ # $ $ h f.5 > 5 8 d 8 5 8 C U.( q q q w t B Q.T T Q.9.t t t t t T T.K.J.V t I U.r.L ;.].8.B V F.z.c t t t t t m T.V t t t ",
"8 8 8 8 5 5 5 5 > - - - - - - > > > > > > 5 5 5 > 5 q.2.= $ # O O X X .                                             . . . X X X O O + # $ $ h d.- - > > > 5 5 5 8 W Y.~ 8 q q q y J.9.t I Q.3.t t t t *.F.B m t V U.t.B ;. X8.m I T.v.c t t t t t t V Q.I t t w q 8 8 8 5 5 > - - - - - - - - - - > > > > > > > - 5 0.2.= $ # O O X X .                                               . . X X X O O @ # $ $ s d.- - > > - > 5 5 8 W U.( q q q w c U.0.t I Y.3.t t t t *.J.L B t I U.r.B -.].8.c I U.v.y t t t t t t B Q.I t t t ",
"q 8 8 8 5 5 5 5 4 - - - - - - - - - - - > 5 5 8 5 - h h.> $ # @ O O X .                                               . . . X X X O O @ $ $ s a.= = = = > > > 5 5 8 W Y.( 8 q q q I T.0.t I U.;.t t t *.A.t t I U.8.c -.].,.c T E.v.c t t t t t t t V ].T c t t w q 8 8 5 5 - - - - - - - - - - - - - - - - 5 8 5 - h A.> $ $ @ O X X .                                                 . . X X X O O # $ $ s d.= = = = - - > 5 5 8 W Y.( q q q w I Y.3.t I U.;.t t t *.F.c t I U.8.c &.].;.c I U.t.y w t t t q t t B ].T t t t ",
"A.A.h.h.u.u.q.q.q.q.q.q.5.5.5.5.5.5.9.9.9.9.S.t.8 > h h.> = $ # O O X X .                                               . . . X X O O @ # $ s a.= = = = = - > > 5 5 8 I E.( 8 q q w I T.9.t I E.F.D.D.Y.y.w V U.8.c -.].-.c I E.t.c y ;.n.v.v.v.v.b.U.1XE.J.F.F.S.A.y.u.q.q.q.5.5.5.4.4.4.4.4.4.4.4.4.4.4.4.S.t.8 - e h.> = $ # O O X X .                                                 . X X X O O @ # $ s a.= = = = = - - > 5 5 8 I T.( q q q q V U.0.t I E.v.t.y.U.D.c T R.r.c *.].;.t V U.t.t t ;.b.v.v.v.n.b.J.,XU.m.m.m.",
"8.3.3.3.1.*.=.) ) ) ( ~ ~ ~ ~ ~ ~ ~ ~ ~ ~ ~ 4.*.5 > h h.5 = $ # @ O O X X . . . . . . . .   . .             . .     . . . . . X X O O O # # s a.= $ $ = = = = - > 5 5 8 I U.( q q w t V U.r.c L +.&.&.( M V J.8.c -.].-.t V U.0.y y 0.R.&.Q Q Q &.&.*.;.8.8.8.8.3.;.;.*.*.&.) ) ) ( ~ ~ ~ G G G G G S S G ~ 4.3.8 - e A.5 = $ # @ O O X X . . . . . . . . .     .                       . . X X X O O @ # # s a.= $ $ = = = = - > 5 5 8 I U.( q q w w V Y.t.c L Q Q Q Q V L U.t.B -.].-.t V J.8.w t 8.E.*.Q Q Q Q +.@.@.*.-.;.-.",
"q q q q 8 8 5 5 4 - - = = = = = = = = = = - - 5 5 - f A.5 = = $ # @ O O X X X X X X X X X X X X X . . . . . . . . . . . . . . X X X O O # # s a.$ $ $ $ = = = = - > 5 5 8 I Y.( q w t t T W.J.t.8.8.8.8.0.U.8.c ;.].-.t C J.3.w w 0.U.V q q q q q t t c c c t t t q q q 8 8 8 5 4 - - = = = $ $ $ $ $ = = = - 5 5 - e A.5 = = $ # @ O O X X X X X X X X X X X X X X X X . . . . . . . . . . X X X O O + @ # s a.$ $ $ $ = = = = - > 5 5 8 C Y.( 8 q t t T Q.U.t.0.8.8.8.8.J.8.c ;.Q.*.t V U.3.8 q 3.U.V q q q q q t t t c c c c ",
"t t w w q q 8 8 5 5 - - = = = = = = = = = - - - - - f A.5 - = = $ # @ O O O O O O O O O X X X X X X X X X X X X X X X X X X X X X X O O @ # s s.$ $ $ $ $ = = = - - 5 5 8 8 W E.( q w c B w.7XR.r.t.0.r.t.;.c *.Q.@.t C F.*.8 8 3.J.M q q q q q t t t c c t t t t t q q q q 8 8 5 5 - - = = $ $ $ $ $ = = = - - > - e D.5 - = $ $ # @ O O O O O O O X X X X X X X X X X X X X X X X X X X X X X X O O O @ @ u a.$ $ $ $ $ = = = - - 5 5 5 8 I Y.( q t c B w.7X].z.t.t.0.t.&.t &.Q.+.t I U.;.8 9 3.J.M q q q q w t t t c c c v v ",
"t t t t t w q 8 8 5 > - = = = $ $ $ = = = = - - 4 4 f S.8 > - = = $ $ # @ @ @ O O O O O O O O O O O O O O O O O X X X X X X X X X X O O @ @ u s.$ $ $ $ $ $ = = = - > 5 5 8 8 W Y.( t c B J.pXr.c c t t c c ;.E.Q t I U.&.8 8 3.F.f 8 q q q q t t t c c c t t t t t t t t q q 8 8 5 - - = = $ $ $ $ $ $ = = - - - 5 f D.8 - - = $ $ $ # @ @ @ O O O O O O O O O O O O O O O O X X X X X X X X X X O O O @ @ u s.$ $ $ $ $ $ = = = - - 5 5 8 8 I U.( t v B n.pXn.v c c t t w &.Y.Q t I T.;.8 9 3.F.M 8 q q q q w t t c c v v v v ",
"c c y t c B V c q 5 5 - = = $ $ $ $ $ = = = - - 5 5 M S.8 5 5 > - = = $ $ $ $ # # # # # # # @ @ @ @ @ @ + + + O O O O O X X X X X X O O @ @ u p.$ $ $ $ $ $ = = = - > 5 5 8 8 8 W !.*.c B t.+XR v c t c v ;.Q.Q t I Y.&.8 9 3.F.f 8 8 8 q q q t c v v v c c c c c c c c c B V c q 5 > - = = $ $ $ $ $ $ = = - - 5 5 f S.9 5 > - = = $ $ $ $ $ # # # # # @ @ @ @ @ @ @ + + + + O O O O X X X X X X O O O + @ u s.$ $ $ $ $ $ = = = - - 5 5 8 8 8 W Q.-.v B 8.@Xo.B v c c c *.Y.I w I Y.;.q w 3.F.M 8 8 8 8 q q t t c v v v B B B ",
"v v v c L T.Q.U.y 8 5 > - = $ $ $ $ $ = = = - 5 5 5 M S.q 8 5 5 5 > - - = = = = = $ $ $ $ $ $ $ $ $ $ # # # # @ @ @ O O O O X X X X O O O @ u 6.$ $ $ $ $ $ $ = = = - 5 5 5 8 8 q ( 8.v v ;.E.B v c c v ,.].Q w W T.*.q 9 2.D.y 8 8 8 8 8 q q t c t.E.z.B v v v v v v v L T.Q.U.y 8 5 - = = $ $ $ $ $ = = = - 5 5 5 M G.w 5 5 5 > - - = = = = $ $ $ $ $ $ $ $ $ $ # # # # # @ @ @ + O O O O O X X O O O O O 0 p.$ # $ $ $ $ $ = = = - - 5 5 8 8 q &.8.v v *.Q.K B v c c ;.Q.Q 8 C U.*.w w 3.D.m 8 8 8 8 8 q q t v t.E.v.B B K L ",
"B B B v T ].,.Q.M 8 5 5 - = = = = = = = = - 5 5 8 8 C G.w q 8 8 8 5 5 5 > - - - - - = = = = = = = = $ $ $ $ $ $ # # @ @ O O O O O O O O O O 0 h._ _ _ _ _ _ _ _ =.=.1.5.9.q.q.t.v.Y.z.B y &.J.v c c v 8.].( w I U.&.;.I f G.m 8 8 8 8 8 8 q r t B ].R. XL B B K K B B v T  X8.Q.V 8 5 > - = = = = = = = = - - 5 5 8 V Y.t 8 8 8 5 5 5 > - - - - - = = = = = = = = = $ $ $ $ $ $ # @ @ + O O O O O O O O O O 7 A._ _ _ _ _ _ =.=.=.2.1.5.q.t.t.y.v.U.z.v c +.T.K v v v 8.].Q w C F.Q *.V f U.V 8 8 8 8 8 8 q q t B W.J. XR L Y Y ",
"w.P B B T ]. X@XV 8 8 5 > - = = = = = = - > 5 8 8 q I U.t w q q q 8 8 8 8 5 5 5 5 5 5 > > > - - - - = = = = = $ $ $ $ # @ + O O O O O O O O $ k k k Z Z Z Z Z Z A A G ~ ~ ( ) *.3.t.;.v t ( S.t t v 8.].+.q C G.W &.].I M G.y 8 8 8 8 8 8 q I ;.8.+Xz.Q.T L +.J.w.P K B T  X.X@XV q 8 5 > - = = = = = = - - 5 8 8 q V Y.y q q q 8 8 8 8 5 5 5 5 5 5 > > > > > > - - = = = = = $ $ $ # @ @ O O O O O O O O O $ h Z Z Z Z Z Z Z A A G ~ ~ ) ) &.*.;.0.;.c t Q Y.V v v 9.].+.t Q U.W ( T.C f S.y 8 8 8 8 8 8 q V *.8.].r.].T U #.R.",
"$X#.T L B T @. XI 8 8 5 5 - - - - - - - 5 5 8 q q t Q Y.v t t t t t q q 8 8 8 8 8 8 5 5 5 5 5 5 5 > > - - - = = = = $ $ # @ + O O O O O O O O O @ @ # # # # $ $ $ $ = = - - 4 5 8 q q w q ~ A.w c D.{.-.t ~ G.W W U.W q m J.V 5 8 5 5 5 8 C T.F.D.m.8.].R T l.uX%Xo.T P B T @..XQ q 8 5 5 > - - = - - - 5 5 8 q q t I Y.c t t t t t w q 8 8 8 8 8 5 5 5 5 5 5 5 5 > > - - = = = = $ $ # @ @ O O O O O O O O O O @ @ # # # # $ $ $ = = = - - 5 8 8 q q q q I J.v B S.].&.t ( T.Q Q J.C 8 e F.C 8 8 8 8 8 8 M U.n.v.n.,.].T +.l.tX",
"8X=X=XJ.B m L  XU.C 8 8 5 5 5 5 - - 4 5 5 8 8 w t c Q  XQ c c c Q @.B m m m m m y y y y y y e e e e w 9 9 9 5 5 6 > = $ # @ + + O O O O O O O O + @ @ @ # # # $ $ $ $ = = - - 5 5 8 8 8 8 W A.q m U.;.t &.Y.W M G.C 8 q q ( v.f 5 5 5 5 f G.;.v v B +.Q.-.+X*X9X7X=X=XU.L m T  XU.V 8 8 5 5 5 > - - 4 4 5 8 q t t t I Q.Q c c v @.@.B B m m m m y y y y y y e e e e e w 9 8 5 5 6 = $ $ # @ + O O X X X O O O O + O @ @ @ # # $ $ $ $ = = - - 5 5 8 8 q q I G.t V Y.;.t &.W.Q M U.I 8 8 5 C v.M 8 8 8 8 M G.3.y c B +.].;.@X*X7X",
"8.;.t.].B m m I ;.J.I 8 8 5 5 5 5 5 5 5 8 8 q v @.P P m. XT c K  X3XR.R.R.R.U.U.U.U.U.U.J.B.B.L.L.F.b.n.v.v.y.y.y.=.> = $ # @ + O X X X X X O O O O O O O @ @ @ # # $ $ $ = = - - 5 5 5 8 C A.q q t w V Y.W 8 C A.9 8 8 8 8 W A.f 5 5 e A.&.w t y c I T.8. X,.,.,.,.t.].L m B I ;.U.C 8 8 5 5 5 5 5 5 5 8 q t B ;.P m r.W.T B Y %X3XR.R.R.R.U.U.U.U.U.V.B.B.B.L.U.J.F.b.v.v.y.y.y.1.> $ $ @ + + O X X X X X O O O O O O O + @ @ # # $ $ $ = = - > 5 5 5 8 C S.q q c t V T.Q q I D.8 8 5 5 5 C D.M 5 5 y D.*.w w t c T Q.8.+X,.$.",
"B V ( E.V c t t t *.Y.W 8 8 8 5 5 5 5 8 8 q t P @XQ.X.U v.W.+.K $.,.Y P L L L B B V V V V B B L @.$.V M y e 9 9 e 9.^ = $ # @ + O X X X X X X X X O O O O O O O @ @ # # $ $ $ = = - - 5 5 C D.q 8 8 8 ~ A.8 8 I A.9 8 8 5 5 5 4.( 4 e t.&.8 8 w t t C Y.*.E.L P L L &.T.V c c t w ( U.W 8 8 5 5 5 5 5 8 8 q t T ,X!.L B r.'.#.U 7.:.P L V V B B B m m m m m m V +.@.M f y e 9 9 0 4._ = $ # @ + O X X X X X X X X O O O O O O O O @ # # $ $ $ = = - - 5 4 M D.q 8 q 8 ( D.q 8 C A.8 8 5 5 5 5 4.) 4 w t.=.8 q q w t T Q.;.].T T ",
"n.n.J.E.m V 8.8.*.c &.Y.&.M M M M M M M C V c B 8.5XQ.Y B t.].m.m.m.m.b.b.b.b.b.v.v.v.v.v.v.v.b.<X6XQ w q 8 5 5 - g 5.= $ # @ + O X X X X X X X X X X X X X O O O O O @ @ # $ $ $ = = - - N D.q 8 8 5 ~ t.8 8 W A.8 5 5 5 5 5 =.( 4 =.0.8 8 8 8 q q C K.&..XJ.J.G.F.U.T.m V 9.0.( y ( Y.&.M M M M M M M C V c m 8.,XU.P K z.oXJ.B.m.b.b.n.n.v.v.v.v.v.v.v.v.v.b.,X,XI w 8 8 5 > - h 5.= $ # @ + O X X X X X X X X X X X X X O O O O O O @ # $ $ $ = = - - f A.9 8 8 8 ~ h.8 8 C A.9 8 5 5 5 - ) ^ - ( 0.8 8 8 8 q w I W.-.+XJ.F.",
"t.t.t.*.c *.Q.b.Y.c t W F.F.D.D.S.D.F.F.F.Y.F.L B #..XJ.L B 8.v.z.v.v.v.v.v.v.y.y.y.t.t.y.t.t.t.~. XI t w 9 5 5 > h 6.= $ $ @ + O X X X X . . . . X X X X X X X X O O O O @ @ # $ $ = = - C A.8 5 5 > G t.8 8 I A.8 5 5 > 5 > =.( 4 2.;.8 8 8 8 8 8 V G.V 8.t.t.t.t.t.*.y *.Q.S.U.y w W G.G.S.S.S.S.S.G.G.U.v.m c @.XXJ.Y U r.v.z.z.z.z.t.t.t.t.t.t.t.t.t.t.t.z. X].V w 8 8 5 5 > s 6.; $ # @ + O X X X . . . . X X X X X X X X X X O O O O @ # $ $ = = - f h.8 5 5 5 G h.8 8 C A.8 5 5 5 - - ) ^ = ) =.5 5 5 8 8 q V R.I 3.0.0.",
"I I I I C 0.J.8.U.y w q w w q q q q w w t m D.J.P B T W.F.L m B B v v v v v v v v v v c c c c c B V y t w 9 8 5 > h 6.= $ # @ + O X X X . . .   . . . . . . X X X X X X O O O @ # $ $ = = ) U.w 5 5 - A q.5 5 C h.5 5 - > > > =.( - 1.*.5 5 5 5 5 8 M J.I I I I T T Q W I 9.G.3.F.t w q w w w w w w t t t y v.n.V B +..XJ.P B v v v v v v v c c c c c c c c c c B B t w 8 8 5 5 - s 5.= $ # @ + O X X X . .   . . . . . . . X X X X X X O O O @ # $ $ = = S Y.w > 5 > A f.8 8 C A.8 5 5 > - - _ ^ = ^ ) - 5 5 5 8 8 m R.Q C I I ",
"U.J.U.G.F.t.F.F.8.t q 8 8 8 8 8 8 8 8 q w w v v.F.B v R E.m.L B B B B B B B B m v v v v c t t t t t t w q 8 5 5 > ^ 2.= $ # @ + O X X X .                 . . . . X X X O O O O @ # $ = = ^ S.9 > > - G f.5 4 C f.5 - - - > > =.( - 1.*.5 5 5 5 5 5 w t.F.J.U.Y.Y.Y.Y.U.F.0.D.v.*.8 9 9 8 8 8 8 q q q w q q y v.m.L K #.].m.L B v B v v v v v v v c c c y y c c c t w q 8 5 5 > > ^ 6.= $ # @ + O X X X .                   . . . X X X X O O O @ @ $ $ = S F.e - > - N t.5 5 N h.5 > - - - = ^ ^ = ^ ) - 5 5 5 5 8 w t.F.F.F.J.",
"y y y y y t t t w q q 8 8 8 8 8 8 9 q q w w t c v.J.I B R R.W.U.J.J.U.J.J.J.J.J.J.J.m.b.b.v.v.v.v.v.y.t.t.0.9.5.q.u.9 $ $ # @ + O X X X .                   . . . . X X X O O O @ # $ $ = > 5 - - - - G h.5 5 N t.> - - - - - =.^ - =.=.- 4 5 4 5 5 5 9 w y y c m m m c y t w q q 8 9 8 8 8 8 q q q q q q q q y v.R.T K X.'.W.B.B.J.U.U.U.U.J.B.m.m.m.m.b.v.n.n.n.v.v.t.t.9.5.6.q.u.u $ $ @ + O X X X .                         . . X X X X O O @ @ # $ $ = 5 - - - - N q.5 5 N h.5 > - - = = ^ G = ^ ) - - > 5 5 5 8 9 w w y y ",
"w q q q q q q q q q 8 8 8 8 8 8 q q q q w q w t c v.U.T B R 8.r.r.r.r.r.8.8.8.8.8.8.r.r.8.3.3.;.*.*.*.*.) ) ^ ~ S 9 = $ $ @ + O O X X .             . .       . . . X X X O O O @ # $ $ $ = = = = - - ~ G.8 4 N q.> - - - - - =.~ = ) ) - - - - - 5 5 8 8 9 w w w w w w w w q 9 8 8 8 8 8 q q q q q w q q q q w m J.'.T B T 8.8.8.8.8.8.8.8.8.8.8.8.8.r.3.;.;.*.*.=.) ) ) ~ ~ G G 9 $ $ # @ + O X X X .                         . . X X X O O O @ @ # $ $ = = = = - - A S.8 5 N h.5 - - - = = ^ G = ^ ) - - - - 5 5 5 8 8 9 q w ",
"8 8 8 8 8 8 8 8 8 8 8 M 0.t.t.y.v.v.A.A.v.t.V r t v v.U.T B K P K B v v v v v v v v w.W.B q q 8 8 8 5 5 5 - - - = = = $ # @ O O O X X .                 . . . . X X X X O O O @ @ # # $ $ $ = = = - - ( =XC - N q.> > - - - - =.~ = ^ ^ = - - - - 4 5 5 8 8 8 9 8 8 8 9 9 8 8 8 8 8 8 y 9.t.v.v.A.A.h.h.h.t.V t t B b.E.T B B L B B v v c c c c c c r.oXB q 8 8 8 5 5 > - - = = $ $ $ # @ + O O X X X .                       . . X X X X O O O @ @ # $ $ $ = = = - - ~ @X~ 5 M t.5 - - = = = ) G = ^ ) = - - - - 4 5 5 8 8 8 q ",
"t.t.t.q.q.q.q.q.q.q.t.F.4.W ~ ~ ( ( ( ( ( 8.F.V t t c t.W.z.n.Y.R B B v v v c c v c l.%XL t q 8 8 5 5 5 > > > = = = $ $ # + O O X X X . .           . . . . X X X X O O O O @ @ # $ $ $ $ $ = = = - - w Y.N - N q.> > > - - - =.~ $ Z t.=.2.2.6.5.5.q.q.q.d.f.h.t.t.t.t.f.f.d.d.q.q.q.S.9.~ ~ ~ ~ ~ ~ ~ ( 0.F.I t t v t.W.z.J.R.Y B B c c t t t y c r.,XB q 8 8 5 5 > > ; = = $ $ $ # @ + O O X X X . .         .         . . X X X X X O O O @ # # $ $ $ $ = = = - - 8 F.C 5 N t.5 - - = = = _ ^ = A D.1.1.4.4.4.9.q.t.t.t.t.t.",
"( ( ~ ~ ~ ~ ~ ~ ~ ~ ~ N 5 4 5 5 8 8 8 8 w I 0.U.I t t c 8.,XuX6XT B v c c y y y y c *.R.v q 8 8 5 5 > - - = = = $ $ $ # @ + O X X X X . . . . . . . . X X X X X O O O O @ @ # $ $ $ $ $ $ $ = = = - > 5 h.f - N q.5 5 > - - = G 5.= = h g N N A A A ~ ~ ~ ~ ~ ~ ~ ~ ~ ~ ~ ~ ~ ~ ~ ~ ~ C 8 5 5 5 5 5 5 8 w I t.R.I t t y 8.1XuXrX#.B v t t t t t t t Q U.t 8 5 5 > - - = = = $ $ $ # @ @ O O X X X X .       . . .   . . . . X X X X O O @ @ # # $ $ $ $ $ $ = = = - - 5 y.C 5 N q.> = = = = = G q.5 5 f N N N N C N A A ~ ~ ~ ~ ",
"w 9 9 9 9 9 9 9 9 8 8 9 9 9 9 5 8 8 8 8 m OX*.3.v.q w t c +.m. XP B v c t t t w t t &.U.c q 8 5 > - - = = = $ $ $ # # @ + O O X X X X X X X X X X X X X X O O O O @ # # $ $ $ $ = = = = = = = = - - - 5 f.g 4 C F.&.C 5 - = = = ) 2.6 > > 5 5 5 8 8 9 9 9 9 9 9 9 9 9 9 9 9 9 9 q 9 9 w w 9 8 5 5 5 5 8 V +X;.8.F.q q w y +.J.%XY v c t t w w w w w Q J.t 8 5 > - = = $ $ $ $ # # @ + + O X X X X . .       . . . . . X X X X O O O + @ # $ $ $ $ = = = = = = = - - > 5 A.C 5 M F.) N > = = = > ) 9.9 5 5 5 5 5 5 8 8 8 9 9 w w ",
"F.F.F.F.D.D.D.D.D.D.D.D.S.S.F.C 5 5 8 8 t J.W C v.q q w t c +.E.V v c t t w w w w q ( F.q 8 5 - = = = = $ $ $ # # @ @ + O O O X X X X X X X X X X O O O O O @ @ # $ $ $ = = = - - - - - - - - - - - - 5 f.M 5 C U.t.D.5 - = = $ = ) f.q.f.h.A.A.D.D.D.D.D.S.F.F.D.D.D.D.D.S.S.S.S.S.S.S.S.A.D.N - 5 5 8 y T.( C v.q q w t c @.'.B c t t w w w q q 8 C F.q 5 > = = $ $ $ # # @ @ + + O O X X X X X . . . . . . X X X X X X X O O O @ # $ $ = = = = - - - - - - - - > 5 8 A.C 5 M F.4.v.5 = = = = - =.A.f.h.h.h.A.A.D.D.D.F.F.S.F.",
"y y e e e e e w w w w w w w C F.N 5 5 8 q A.I N v.q 8 q w t Q R.L V m M c y y y y w ( D.9 5 - = = $ $ $ $ # # @ @ + O O O O O X X X X X O O O O O O O @ @ # $ $ $ = = - - > 5 5 5 5 5 5 5 5 5 5 5 5 - 5 h.M 5 W G.3.D.5 - = = $ $ = 6 6 9 9 9 w e e e e e e e e e e e e e e w w w w w w 9 9 N A.N - 5 8 q D.W M v.q 9 q w t Q R.V c c m b b b y y w W D.5 > = = $ $ # # @ @ + O O O O X X X X X . . . . X X X X X X O O O O O @ # $ $ = - - > > 5 5 5 5 5 5 > 5 5 5 5 8 A.C 5 N v.) v.5 = = = = = - 5 5 9 9 9 9 9 w e e e e e e ",
"5 5 5 5 5 5 4 4 - - - - - - 4 &.5.4 5 5 8 A.I M v.q 8 q q w I W.R.U.J.J.F.F.F.D.D.D.F.0.5 - = $ $ $ $ # # @ @ + O O O O O O O O O O O O O + + @ @ # # $ $ $ = = - - 5 5 8 8 8 8 8 8 8 8 8 8 8 8 5 5 4 5 h.M 8 M t.y.&.5 = = = $ $ $ = = = - - - 5 5 5 5 5 5 5 5 5 5 5 5 5 5 4 4 - - - - - - = ~ 4.- 5 5 8 A.I M v.9 8 8 q q V U.F.F.J.K.K.K.J.G.F.D.F.9.> = $ $ # # @ + O O O O O X X X X X X X . X X X X X X X O O O O @ @ # $ $ = - > 5 5 5 8 8 8 8 8 8 8 8 8 8 8 8 8 A.N 5 e 4.9.) > = = = = = = = = = = - - - > 5 5 5 5 5 5 ",
"5 5 5 5 5 5 4 5 4 - - - - - - ~ 5.4 4 5 8 h.C M v.9 8 8 8 q t m M m M f f y y e w 9 9 5 = = $ $ $ # # # @ @ + + O O O O O X O O O O O @ @ # # # $ $ $ $ = = - > 5 8 8 w m m c t c y t t c t q q 8 8 8 8 D.I 8 9 8 8 5 > = = = = = = = = - - > 5 5 5 5 5 5 5 5 5 5 5 5 5 5 5 5 5 - - - - - - = N 4.- 5 5 8 f.I M v.8 8 8 8 8 9 y f f f f y y e e w 9 9 5 = $ $ # @ + O O O O X X X X X X X X X X X X X X X X O O O O @ @ # $ $ = = - 5 8 y y t t c y t t y t q q q 8 8 q D.N 5 5 5 5 - - - = = = = = = = = = - - > > 5 5 5 5 5 8 ",
"5 5 5 5 5 4 - - - - - - - - - ~ 5.- 5 5 8 f.C M v.9 8 8 8 8 8 8 8 8 5 5 5 5 - - - = = = $ $ # # @ @ @ @ @ @ + O O O X X X O O O + @ @ # # $ $ $ $ = = = = - 5 5 8 q q *.W.!.t.e.U.T.8.G.Y.G.m q q q 8 q t.F.y 8 8 5 5 - = = = = = = = = - - 5 - > - 5 5 5 5 5 5 5 5 5 4 5 4 4 - - - - - - - = N 4.4 5 5 8 t.C M v.8 8 8 8 5 5 5 5 5 5 5 5 - - - = = = = $ $ # @ + O O O X X X X X X X . . . X X X X X X O O O @ @ # # $ $ $ = = > 5 8 ) Q.Q.y.t.Y.Q.3.S.Y.Y.V t t q q q 3.u.w 5 5 5 5 - - = = = = = = = = = - - > > 5 5 5 5 5 8 ",
"M M M M M f f f f f f f f 8 - ~ 5.- 4 5 5 f.C M v.8 8 8 8 8 8 8 5 5 5 4 - - - = = = $ $ $ # @ @ @ @ @ # # # @ @ O O X X X O O + @ # $ ; > , , 6 6 5 5 5 8 9 w y y c B z.J.t.U.m.8.U.J.].8.].T m m c q q c v.F.y 8 5 5 > - = = = = = = - 8 ~ N f f f f f M M M M M M M M M M f f f f f e e 5 - A 9.4 5 5 8 t.C M v.8 8 8 5 5 5 5 5 5 - - - - = = = = $ $ # @ @ O O O X X X X X . . . . . . . X X X X O O O + @ # # $ $ $ = = - > 5 8 q 9.F.z.T.K.8.U.J.Y.8.+XX.P L V q q q 9.u.t 8 8 5 - - = = = = = = = 6 G M f f f f M M M M M ",
"F.D.D.D.D.A.v.v.v.v.z.A.D.9.4 ~ 4.- 4 5 5 f.C N v.9 8 8 8 8 8 5 5 > - - - = = = $ $ $ # # @ + O O @ @ # 0 ^ 7 @ O O X X O O O @ # $ G h.d.h.h.h.A.A.D.D.D.F.F.J.J.U.L..XXX].m.B.].=XJ..XR.].t.G.J.E.*.t t c t.v.w 5 5 - - - = = = = - - d U.v.t.t.y.v.D.D.F.F.F.G.G.F.F.D.D.A.v.t.t.t.q.A.4.- A 9.4 5 5 5 t.A f v.9 8 8 5 5 5 5 5 - - = = = = $ $ $ $ # # @ O O O X X X X . . . . . . . . X X X X X O O @ @ # $ $ $ = = = - > 5 8 q q 0..X XJ.U. X@XJ..XT.+Xz.U.U.E.&.q 8 w t.D.y 8 5 5 - - = = = = = = e U.v.t.y.v.v.A.D.D.D.D.",
"w w w 9 9 8 8 5 5 5 5 5 M A.5 ~ 9.4 4 5 5 f.C N v.q 8 8 q w 8 5 5 - - = = = $ $ $ $ # # @ @ + O @ @ # $ 2.h.2.$ O O X X O O O @ # G h.s 5 5 5 9 9 w e y y f M M V I T m.L.@.R +.,.,.X.;.;.+.V V B ;.].;.t q t 0.y.w 5 5 - - - - - - - > 5 w 8 5 8 9 9 q w w w w w w q q 9 8 5 5 5 5 5 - f h.5 A 9.4 5 5 5 t.A f v.9 8 8 8 q 8 5 5 - = = = $ $ $ $ $ # # @ + O O X X X X X . . .     . . . X X X X O + + @ # $ $ = = = - - > 5 5 8 q t r.B.#.Y +.8.8.%.,.8.-.L B B @.R.( q q t z.b.y 8 5 5 - - - - - - - > e 9 8 9 9 q w w w w t ",
"q 8 9 8 8 5 5 5 5 4 5 - f f.5 ~ 9.4 5 5 8 h.C N v.q 8 8 I Y.V 5 5 - - = = = $ $ $ $ # # @ @ @ @ @ @ # $ N S.N # O O O X O O @ @ $ d.h $ = = = - - 5 5 8 8 8 q w t y c 8.oX-.+.@.+.+.+.Q I I T Q T B @.].-.r q w 9.y.w 5 5 5 5 5 5 5 5 5 > > 5 5 8 8 9 q q w w w w q 9 9 8 5 5 5 5 4 4 - f A.5 G 9.4 5 5 5 t.C M v.q 8 8 d J.Q 8 5 - = = $ $ $ $ $ # # @ @ O O O O X X X X . . .     . . X X X X O O + @ # $ = = = - > 5 5 5 8 8 8 w t 8.oX-.Q +.-.;.;.-.+.Q Q Q I t W E.-.c t c t.n.y 8 5 5 > > > - > - 5 5 5 8 9 9 q q w w w w ",
"q q q 9 8 8 8 5 5 5 5 4 f f.5 ~ 9.4 5 5 8 y.C N v.w q q I  XC 5 5 - - = = = = $ $ $ $ # # # # # # # # $ > q.> @ O O O O O O @ # = s.7 $ = = = - > 5 8 8 8 q q w t y c B z.Q.T.T.E.U.U.U.U.U.W.]..Xt.v +.Q.-.w q w 9.v.y 8 8 5 5 5 5 5 5 5 5 5 8 8 8 q q t t t t w w q q 8 5 5 5 5 5 5 5 M S.8 ~ 9.5 5 5 5 t.A M v.q 8 8 d ].&.8 5 - - = = $ $ $ $ $ # # # @ + O O O O X X X . .     . . X X X O O + @ # $ $ = = - > > 5 8 8 8 q q w t m t.E.U.T.Q.Q.Q.Q.Q.T.T.Y.Q.3.t Q ].8.c t c t.n.y 8 5 5 5 5 5 5 5 5 5 8 9 q q q w w w t y ",
"z.v.v.v.t.m 8 8 8 5 5 5 f h.5 ~ 0.5 5 5 8 h.E C b.w w w y F.d 8 5 5 > - = = = = $ $ $ $ $ $ $ $ $ $ $ $ , q.> @ + O O O O O @ # = s.7 $ $ = = > 8 &.( M N V V t t t c v B K L V V V V V V L P P #.].8.t Q W.;.t w t 9.F.M q q 8 8 5 5 5 5 5 8 8 *.t.v.v.A.D.D.D.n.v.v.z.t.M 8 5 5 5 5 5 M G.9 ~ 0.5 5 5 5 t.C M b.w 8 8 w F.T 8 5 > - = = = = $ $ $ $ $ $ # # @ @ + + O X X X . . . . . X X X O O @ # $ $ = = > > y I M N V V t w t y c v B V V V L L V V V V B T Y.8.c @..Xr.c t y t.b.d 8 5 5 5 5 5 5 5 8 8 w ;.z.z.t.t.t.z.z.",
"Q Q Q Q F.;.q 8 8 8 5 5 f A.5 ~ 0.5 8 8 8 h.~ C b.t w w c G.m 8 8 5 5 > - - = = = = = = = $ $ $ $ $ $ = 6 d.: @ + O O O O + @ # = s.< $ $ = = > w W.Q.F.F.J.E.8.t t c c v v v v v v v B B B B B v Q E.3.t Q ].8.c t c t.T.F.S.S.A.y.=.8 5 8 8 y Y.t..Xt.;.-.*.*.&.( Q W b.;.8 8 8 8 8 8 M G.9 ~ 0.5 5 5 8 y.I M b.t q q t K.T 8 8 5 5 > - = = = = = = $ $ $ $ $ # @ @ + O X X X . . . X X X X O + @ # $ = > > > > l._.c.b.J.W.8.t t t c c v v v v v v B m m B v c Q Q.t.B @. X8.v c c 8.U.v.y.u.u.u.1.w 8 8 8 c R.t. X0.( ( &.&.",
"I I I y t.8.w q 8 8 8 5 f A.8 ~ 0.5 8 8 8 A.~ V b.t w w m J.m q q 8 8 5 5 > > > - - - = = = = = = = = = 6 d.; @ @ O O O O + @ # = s.< # $ $ = - 5 d y q w w M m.J.F.F.F.F.F.J.J.U.U.U.U.U.Y.T.Y.b.V I E.3.t Q ].F.;.B v Q &.) ) ( ~ v.0.w 8 8 y T.0.OX@.B Q Q Q Q W I d 0.8.q q q 8 8 8 V G.9 ~ 0.8 8 8 8 y.I M m.t w w y U.T q 8 8 5 5 > > > - - = = = = = = $ $ $ # @ + O X X X . X X X X X O + @ $ $ ; *.r.t.f M M w e y V m.J.F.F.J.J.J.J.J.U.U.U.U.U.U.U.U.m.T @. Xt.c Q  XJ.8.m t I ( ( Q W W v.t.y 8 q m R.8.'.Q y Q +.+.",
"J.J.'.v.v.0.t t q 8 8 8 &.t.5 ~ q.8 8 8 q A.( C F.t t t V Y.V t w w q w e e w 9 9 9 9 9 9 9 8 8 5 5 5 > 5 g.1 # @ + + O O + # # = s.< # $ $ = - > 5 5 5 8 8 8 y +.&.&.&.&.*.*.*.-.;.;.;.;.,.8.;.n.U.V I R.0.B *.rXrX$.c t q 8 8 5 5 8 8.v.y 8 y t.U.J.X.;. XJ.U.U.J.'.v.y.t.c t q 8 8 8 *.A.8 ~ 0.8 8 8 8 A.~ M F.y t t c T.Q q q q 8 w e e w 9 9 9 9 9 9 9 5 6 , , > $ @ O O X X X X X X X O O + @ $ $ > v.! b.) 5 8 8 8 9 8 d ) &.*.*.-.;.;.;.;.;.;.;.;.;.3.8.B.].+.+.Q.t.B ;.rX0X+.w q 8 8 8 5 5 9 0.v.m q y t.n.n.I +.oXR.U.",
"L L z.U.F.t.c t t q q &.F.M 5 ( y.8 8 8 w D.( C F.c t t B T.I t t t V G.J.F.v.v.v.v.v.A.v.A.A.A.v.y.F.N 6 g., # # @ + O O + @ # = s.< # $ $ = = - > 5 5 5 5 5 8 8 8 q q q q r r t t t c c v c c v t.U.V T .Xv.P m.3XJ.B t q 8 8 5 5 5 8 3.D.V t v P :.#.8.U.L B L L r.U.F.n.c y t q 8 ( D.M 5 W y.8 8 q q A.~ N F.c t t B W.Q t t w m F.U.F.F.D.D.D.D.D.A.A.h.f.f.h.A.0 # @ + O X X X X X X O O + @ $ $ > v.y.!.) 5 8 8 8 8 8 9 8 q q q r t t t t t t t c c v v K m.].T T .Xn.P v.>Xv.t w q 8 8 5 5 5 8 3.F.V w y m +.+.8.Q.T R ",
"..Y v.Y.J.v.B c t t &.Y.V 8 8 M F.( q q w F.( I J.v c v L Q.T c c T Q.D.I M m m y y y y y y y y e w 9.~ 6 h., $ # @ O O O O @ # = s.< # $ $ = = = - > > 5 5 5 8 8 8 8 q q q w t t t t y c c c c c v t.E.I *.-.B K +.R.v.c 8 5 5 5 5 5 5 8 ;.R.&.+.#.2X].8.U.T T T Y v.W.K.J.K v y t ( G.M 8 8 d D.( q q w D.( C J.v y c B T.Q t t V U.v.V m m m m m y e w 9 9 8 9 9 t.h # @ + O X X X X X X O O + @ # $ = N 1.3.v.f 5 5 5 5 5 8 9 q q w w w t t t t y y c c m B B B v.Q.T @.@.B v T U.t.c q 8 5 5 5 5 5 8 *.J.Q I T ,X+Xl.].#.#.",
"M.>.l.v.U.v.B v c *.T.I q 8 8 8 M D.*.w t F.( I U.B v B r.].I c +.@Xn.K v t t w w q 8 8 8 8 8 8 5 5 4.~ 5 h., $ # @ + O O O @ # = a.< # $ $ $ = = = = - - - 4 5 5 5 8 8 8 q q q q q t t t t V c y t v n..XR v v c c I U.U.y 5 5 5 5 5 5 8 q -..X=X#.+Xz.;.XX'.XXR.x.'.R.R.K.U B v *.Y.C 8 8 8 8 M n.*.t t J.&.V J.v c t *.].I t Q  Xv.v t t t t t q q 8 5 5 - - - - q.f $ # @ + O X X X X X O O + @ # $ $ = ; > S y.e - - 5 5 5 8 8 8 8 q q q q q t t t c v L B v c m F..XR v y t t V U.U.y 5 5 > > 5 5 8 8 ( ].XX+.+XJ.w.*X=X2X",
"sXV.#.X.U.D.8.t.z.W.I q q 8 8 8 8 M G.V 0.U.m ;.R.B L w.oX-.m ;.,XY.Y P L c c t t q q t t q 8 8 5 5 4.( 8 h.6 $ $ # @ O O O @ @ $ g.' G G ^ ^ ^ ^ ) _ ) =.2.1.3.3.4.4.9.9.0.0.t.t.t.t.t.t.D.+X&.t t y B ].&.t t t w q V t.e - > - > > 5 8 q t &.].T J.Q I 8.M.8XsX$Xx.>.R.K.w.z.n.Q.I 8 8 8 8 8 8 M J.I t.W.I -.J.v c -.'.-.c *.@XU.P L B c c c t t w w 8 5 5 > - - q.h $ $ # + O O X X X X X O O + @ # $ $ = ; > N y.=.) *.1.1.4.4.9.9.0.q.t.t.t.t.t.y.v.F.@X;.c t t B ].&.t t w q q C t.e > - - - > > 5 8 8 Q ].T U.;.R w.K.tX",
"tX).%.R J.F.XXU.v.T q q q 8 8 8 8 q D.F.F.V +.].-.B Y.,X;.B @.@XF.Y U.Q.J.w.n.v.z.z.z.T.D.t 8 8 8 5 4.) 8 h.6 $ $ # @ O O O O @ # G ^ G G G G G ~ ~ ~ ^ ) ) ) =.=.=.*.*.*.3.3.3.3.3.3.3.3.t..X&.q t t v Y.Q w w q 8 8 5 5 > - - = - - > 5 8 q c G.V b.Q B L o.V.9X`.%.Y J.J.@XQ.F.Q q q 8 8 8 8 8 q D.J.K.T @.'.&.c S.,X;.t Q .XF.P F.].U.8.D.D.A.z.z.T.3.8 5 5 5 - q.g $ $ # @ O O X X X X X O O O + @ # $ $ = = = N 1.=.=.1.1.1.3.3.4.4.4.4.4.4.4.4.9.0.y..X&.r t t c U.( q q 8 8 8 5 5 > - = = = - - 5 5 8 y J.T J.*.B T #.`.",
"C.k.,.#.T.E.oXT t w q q 8 8 8 8 8 f W.v.c Q '.-.t 8.6Xv.B Q ].r.B I  Xn.Q.r.J.J.N.l.;.D.t.q 8 8 8 5 5.) 9 h.5 = $ # @ O O O O O @ # # # # $ $ $ $ $ $ = = = = - - - - - - 4 5 5 5 5 5 8 8 8 t q q q w t J.I q 8 8 5 5 > - = = = = = = - > 5 9 y D.V b.*.I +.$.k.C.x.,.@.J.R..X#.c t w q 8 8 8 8 8 m W.v.B +.{.;.t *.wXv.c I W.r.m B ].z.OXl.R.z.0.3.;.D.*.8 8 5 5 > q.g = $ $ @ @ O O X X X X X O O + + @ # # $ $ $ = = = = = = - - - - - 4 4 5 5 5 5 8 8 8 t q q q q t G.~ 8 8 8 5 5 > - = = = = = = - > 5 8 y J.I J.8.T +.#.<.",
"oXoXoX]..X.XR.V t q q q 8 8 8 8 y F.0.w Q }.-.t -.].8.B Q W.r.v v L Q. XU.J.J.t.n.E.T t r q 8 8 8 5 5.) 9 A.5 = $ # @ O O O O O O @ @ # # # # $ $ $ $ $ $ = = = = = = - - - - > > > 5 5 5 5 5 8 8 8 8 q G.I 8 8 5 5 > - = = = = = = = = > 5 5 w 4.M t.R.R.]..X.X$XXX{.'.'.'.J.L c t w q 8 8 8 8 y G.0.w Q ].;.c &..X8.m Q R.3.c c m J. X].R.Q.+.t q q q q 8 8 8 5 5 q.N = = $ # @ O O X X X X X X X O O + + @ @ # $ $ $ $ $ = = = = = = - - - - - > > 5 5 5 5 8 8 8 8 q S.I 8 8 5 5 > - = = = = = = = = - > 5 w t.V t.'.R.'.'.'.",
"X.T T R T L B c t q q 8 8 8 8 y D.9.q I W.-.t &.].;.t Q '.3.v v c m L Q F.D.V t v e.Q.I q q 8 8 8 5 9.) 9 A.8 = $ $ @ O O O O O O O O + O @ @ @ # # # # $ $ $ $ $ $ $ $ = = = = = = = - - - - 5 5 5 5 8 S.C 5 5 5 > - = = = = = = = = = - > 5 5 9 q t m L Y X.o.+.X.Y T L B v c t t q q q 8 8 y D.9.q I W.;.t &.=X8.t I R.;.t y y c B T J.Y.Q U.3.q q q q q 8 8 5 5 q.N = = $ $ @ O O X X X X X X X O O O O O + @ @ # # # # $ $ $ $ $ $ $ = = = = = = = - - - 5 5 5 5 8 D.C 5 5 5 > - = = = = = $ = = = - > 5 8 w w y B V I T R ",
"B B B B B v c t t q q 8 8 8 y F.3.q I W.*.t Q ].;.t I R.;.t c c c v I F.D.m t t t v e.E.V 8 8 8 8 5 9.&.w A.9 = = $ @ O O X X X O O O O O O O O O O @ @ @ @ @ # # # # # $ $ $ $ $ $ $ $ = = = = - - 5 5 D.C 5 5 > - - = = = = = = = = = = - 5 5 8 9 q t c m B B B B B v v c y t t q q q q q y D.1.8 I R.&.q Q .Xr.v Q W.;.t t t t c L F.R.C t T Y.*.w q q q q 8 5 5 u.N - = = $ # @ O O X X X X X X X X X O O O O O O @ @ @ @ @ @ # # # $ $ $ $ $ $ $ $ $ = = = - - 5 5 A.C 5 5 > > - = = = = = = = = = = > 5 5 8 9 q t y c m B ",
"v v v v c c y t t q q q 8 y F.3.q T R.&.w I ].;.t Q R.;.y t y c c c &.D.m t V V c c t 3.J.V 8 8 8 8 9.&.w D.9 = = $ # O O X X X X X X X X X O O O O O O O O O O O O O O @ @ @ @ @ @ # # # $ $ $ = = - 5 A.N 5 5 > > - = = = = = = = = = = - > 5 5 9 q w t c v v v v v c c t t t w w q q q m F.3.8 C K.( 8 I }.8.c +.].8.y y t t t t T J.&.c t t I Y.3.t t w q 8 8 8 h.N - - = $ # @ O O X X X X X X X X X X X X O O O O O O O O O O O + @ @ @ @ @ @ @ # # $ $ $ = = - > h.N - > > - - = = = = = = = = = = > > 5 8 8 q w t y c c ",
"c c c c y t t t t q q 8 M J.3.8 I R.&.w I W.;.t Q R.;.c y t y ( 8.Q v &.I t &.W.T t t t ;.J.M 8 8 8 0.=.w D.9 - = $ # O O O X X X X X X X X X X X X X X X X X X X X O O O O O O O O O O @ @ # $ $ = = > A.N 5 5 - - - - = = = = = = = = = - > 5 5 8 8 q w t t c c c c t t t t w q q q q V U.0.w I K.( 8 C R.3.w I ].8.c c y c Q ;.I t M F.9.t t t I T.9.t w q 8 8 8 A.C 4 - = = $ @ O O X X X X X . X X X X X X X X X X X X X X X X O O O O O O O O O O O @ # $ $ = = - f.N - > > - - = = = = = = = = = = - > 5 5 8 8 q w t t y ",
"L V V V V V V V V m m V F.3.q W R.( w I R.3.t I E.;.v c y y y v..XU.t 8.W.I c t.E.I w w w *.F.V q 8 0.=.w S.9 - = $ # O O O X X X X . . . . . . . . X X X X X X X X X X X X X X X X X X O O O @ # $ = > h.M 5 5 M f 9 8 5 5 5 6 6 6 6 5 5 9 9 w w e y y M m V V V V V V V V V M M m c V K.0.t ( W.( 8 V R.3.w I R.;.c y y t c v.@XU.m w I U.*.t t t I W.8.t t V w q D.I 5 5 - = $ # @ O X X X . . . . . X . X X . X X X X X X X X X X X X X X X X X X X O O O @ # $ = = q.N - 5 M M 9 8 5 5 5 6 6 6 6 5 5 9 9 9 e e y y m M m V ",
"R.R.'.'.@X XR.R.E.E.U.E.3.q I E.Q w I W.8.t Q R.;.c B m m m m B -.U.t t ;.E.T c 0.U.V q w w *.F.y q q.*.w S.w - = $ # @ O O X X X . . . . . . . . . . .     . . . . . . . . . . . X X X X X O O @ $ $ ; t.f > 8 P.Q.D.A.A.A.h.h.h.h.h.A.A.D.S.S.G.G.J.U.U.U.R.T.T.W.].].*X.XW.E.U.U.J.U.8.t ( }.*.w C R.8.w I E.;.y m m B B B P &.R.v.*.q Q R.&.t t t T Q.W V E.V t F.W 5 5 > = = $ # O O X X X X . . . . . . .   . . . . . . . . . . . . . . . . X X X X X O O @ $ $ = q.M - 8 F.Q.D.A.A.h.h.h.h.h.h.h.h.A.D.S.S.G.G.J.J.Y.Y.Y.",
"V V V V Q.9.V V V V m m q ( E.( w I R.0.y ( ].3.c 9.Y.U.U.U.U.J.W.F.t q q ;.R.I w 3.U.V w t m U.m q t.*.t F.w > = $ $ @ O O X X X X . . .                                     . . . . . X X X O + # $ = q.f - 5 M M w 9 9 9 9 9 9 6 6 9 9 9 9 9 w w e y y y y M M V V R  Xt.L V M f y y q &.].&.t T W.0.t I E.;.t 3.E.U.E.E.E.R.T.F.&.Q.;.t W U.( t t t v.*.I  XT c F.~ 8 5 5 - = = $ @ O O X X X X . . .                               . . . . . . . . . X X O + # $ = q.g - 5 f f 9 9 9 9 9 9 6 6 6 6 9 9 9 9 w w e y y f f M ",
"w t t t Y.&.q t t t t t &.`.&.t I R.e.c &.].8.v B U.8.I I I I V V m q q q w ;.E.I t G.*.t t B U.m q t.3.y F.w > = = $ # + O O X X X . . .                                           . . . X X O O @ $ $ 2.=.5 5 5 4 5 > - - - - - = - - - - - - - 4 5 5 8 8 8 8 q q t c T.;.t t w q q q Q R.+.t T ].z.m Q W.3.t t m.r.T Q Q T T I m t Q Q.*.q *.v.t y y n.*.T Q.L c F.~ 8 M N f 5 = $ # + O O X X X X . . .                                           . . X X O + @ $ $ 2.1.5 > - - - - - - - - - - - - - - - - > 5 5 5 8 8 9 q ",
"w w t t U.&.q w r t t c R.;.c T R.8.c V Q.r.B 8.$.Y.+.t t w q 8 8 8 8 8 q w w ;.E.T F.3.t t V U.m q t.3.y F.e > - = $ # @ + O O O X X . .                                                 . X X O @ # $ 6 q.) 5 5 5 5 5 > > > > - - - - - - - - - - 5 5 5 8 8 8 q w t y Y.*.t t t w w y J.@.t I ].v.L R  Xt.v *.Q m.@.t t t t q q w t t T E.) ! v.t y c F.;.I Q.L c F.( y P.y.U.d - = $ # @ + O O X X X . .                                             . . X X O + # $ 6 9.) 5 - > > > > > > > > > - - - - - - - 5 5 5 8 8 9 8 ",
"t w w t J.( q q w t t B R.T B W.v.I I T  XQ B Q.v.Y.+.t w q 8 8 8 8 8 8 8 q w t v.z.F.8.c t V Y.V w y.3.c G.y 5 > = $ $ # @ @ + O O X X . .                                               . X X O + # $ $ 6 9.*.8 5 5 5 5 5 5 > > - - - - - - > > 5 5 5 8 8 8 q w q q t U.&.w t t t t c J.V c U.v.Q #.#.@X*.L E.v.F.&.t w q q q q w t t t *.F.*.v.c c c F.;.L Q.V c F.( m U.Q U.N 5 - $ $ # @ @ + O O X X . .                                             . X X O + @ $ $ 6 4.=.5 5 5 5 5 5 5 > > > > > > > > > 5 5 5 5 8 8 8 w ",
";.w q w G.( q q w t t B R.+.T ].@.b.E.T Q.Q B U.t.U.Q t w 8 8 5 5 5 5 8 8 q t t 0.v.J.e.c c V Y.V t y.3.m P.y 5 > = $ $ $ # # # # @ O X X . .                                             . X X O + @ $ $ = 6 9.A.y.h.h.h.u.u.q.q.q.q.q.q.t.q.q.f.h.h.h.A.S.G.Y.3.q q q G.( q t t t c B U.T B R.Q b..X#.+X-.L J.t.F.&.t w q 8 8 q q t t y Q U.8.b.c c v F.;.B E.V c P.&.m F.U.U.m 5 > = $ $ $ # # @ O O X X .   . . .                                     . X X X + @ # $ = 6 4.A.t.u.h.u.u.u.u.q.q.q.q.q.q.q.q.d.h.h.h.A.A.S.G.",
"M 8 9 q F.( q q w t c L ].@.R ].@.b.J.I Q.Q V U.t.U.Q t q 8 5 5 5 5 5 8 8 w t t 8.v.F.0.v c V Y.V t v.8.m U.d 5 > = = $ $ $ = = $ # @ O X X .                                               . X X O @ # $ = = 5 f N N N N N g g g g f f g f f g g g M N N C Y.A.C 8 8 8 F.( q w t c v U W.Q B R.Q v.E.+.+X;.P U.z.F.&.t w q 8 8 8 q t t c +.E.r.F.v v v F.;.B E.V c U.-.c B B B w 8 > - = = = ; $ # @ O X X X .                                             . X X O @ # $ = = 6 f M M N N N g g g f f g g f f f h f g N N C A.A.",
"8 8 8 8 S.( q q q t v X.XX>.T ].@.v.v.Q .X8.L J.t.Y.Q t q 8 5 5 5 5 5 8 8 w ;.v.].v.F.0.v v V T.V t v.8.B Y.d 5 5 - = = = > 4.q.g 6 1 : ; & & % # # # # % % + + + + + + + + + + + + # # % % % & & ; : 1 , 6 9 9 9 9 9 9 9 9 9 9 9 9 M 5 = = = = = = = = - 4 t.( 5 5 5 8 S.( q q t c B %.XX$.P E.Q t.B.#.*Xl.T U.v.J.&.t w 8 8 8 8 q t &.F.Q.Q.r.U.v v v F.;.V E.V c U.;.B S.U.v.y 8 5 > - 5 3.y.N 6 1 : : & & % % % % # # # # # + + + + + + + + + + + + + # % % & & : 1 , 6 6 9 9 9 9 9 9 9 9 9 9 9 g 6 = = $ $ $ = = = - - 1.=.",
"5 5 5 8 S.~ 8 q w t K N.tXV.%.].@.v.v.v.*X%X8.G.t.T.+.t q 8 5 > > > 5 5 9 t U.n.R.v.F.0.v v L T.V t v.0.B Y.m 8 5 - = = = h v.t.J.0.q.5.5.5.5.5.6.6.6.p.p.p.i.2.i.i.i.i.[ ' ' ' [ [ [ [ i.i.i.p.p.s.a.d.d.h.A.A.D.S.S.S.D.A.A.A.A.S.Q.f $ $ $ $ $ $ = = = > q.~ - 5 5 8 S.( 8 q r c U V.iXN...R.Q t.F.v.2X1Xl.K.n.U.*.t q 8 8 8 8 q w v.m.U.].l.U.B v v F.;.V T.V c U.;.T .Xz.].V 8 5 > - d m.0.U.0.9.q.5.5.5.5.5.6.6.6.6.6.i.i.i.2.2.' ' ' ' [ [ [ [ ' ' [ i.p.p.s.a.d.d.h.h.A.D.D.D.D.D.D.A.v.y.D.T.g = $ $ $ $ $ $ = = - 2.) ",
"- > 5 8 S.~ 8 q q t U ,XdX'.%.].@.v.v.n.+X@Xr.J.t.T.&.t q 8 5 - - > > 5 8 t Y.Q..Xn.F.9.v v L T.I t D.0.B Y.m 8 5 - = = = > ) 0.h ; ; $ $ $ $ # # # # # @ @ @ @ + + + o o O O O o o o o O O O + @ # # $ ; ; > , 6 5 5 6 6 5 5 5 5 9 f > $ $ # # # $ $ $ = = 5.G = - 5 8 S.( 8 q r c ..,XgX'.#.R.Q t.F.m.*X,Xv.J.n.R.*.t q 8 8 8 8 8 q v.Q. X].z.Y.B v v F.;.V T.V c P.;.T +X].+XV 8 5 > - 5 1.y.f ; ; $ $ $ # # # # # # # # # + + + + o O O O o o O o o O o + + @ # $ $ ; ; > 6 6 5 6 9 9 9 8 5 5 6 h > $ $ # # # # $ $ $ = =.) ",
"- - > 5 A.~ 8 q q t 8.XXR.<.X.].+.v.D.w.].R.#.U.t.T.+.t q 5 5 - - - > 5 8 t &.z.].v.S.9.v v I Q.I c A.0.B Y.m 8 5 - = = $ $ = = $ $ # @ + O O O O O O X X X X X X X X . . .               . . . X X X O @ # $ $ $ $ = = = = $ $ $ $ $ # # @ @ @ @ @ # $ $ $ 2.Z = - - 5 S.~ 8 q t c 8.*XR.w.T !.Q t.J.w.].R.:.J.n.R.*.t q 8 8 8 8 q w I 8.G.].z.Y.v v v F.*.V T.V c U.*.c 0.#X8.t 8 5 - = = = = $ $ # O + O O O O O X X X X X X X X X . . .               . . X X X X O @ # $ $ $ = = = = = = = = $ $ # # @ @ @ + @ @ # $ $ ) ^ ",
"= = - 5 A.A 5 9 q ;.Q.-.L P R Q.+.v.J.].]..XF.U.t.T.Q t 8 5 > - - - > 5 8 w c v v.v.D.9.c c L ].Q c A.9.m Y.m 8 5 - = = $ $ $ $ $ # @ @ O O O O O O O O O O O O X X X X X . . . . . . . . . . . X X X O O + @ # # $ $ $ $ $ $ # # # @ @ O O O O O O + @ # # ' Z $ = - 4 A.E 8 q t ;.Q.;.P L P Q.+.t.R.].oXoXJ.U.v.U.*.t q 8 8 8 8 8 w t c -.Q.z.U.v c v F.*.V Y.V c Y.*.t I U.v q 8 5 - = $ $ $ $ # @ @ + O O O O O O O O O O O X X X X X . . . . . . . . . . X X X X O O + @ # $ $ $ $ $ $ $ $ $ # @ @ O O O O O O + @ # $ ^ ^ ",
"$ = = - h.A 5 9 &.U.Q c v B P Q.Q v.R.+X>.v.Q.U.t.T.Q w 8 5 > - - - > 5 8 q t v A.v.F.9.c c v v.!.*.A.9.m Y.m 8 5 - = $ $ $ # # # @ @ @ @ @ @ @ @ @ @ @ @ @ @ O O O O X X X X X . . . . . . . X X X X X O O O O @ @ @ @ @ @ @ @ + O O O X X X X X O O O @ @ _ k $ = = - h.C 5 q &.U.Q c v B L T.@.t.R..X@.r.].R.v.U.*.t w 8 8 8 8 8 w t c *.Q.t.G.c y c v.F.Q Y.V v Y.&.t V P.y 8 5 - = $ $ $ # # @ @ @ @ @ @ @ @ @ @ @ @ @ + O O O O X X X X X . . . . . . . X X X X X O O O @ @ @ # # # # @ @ @ + O O O O X X X X O O @ @ ^ G ",
"$ $ = - h.C 5 &.F.I t t c c L Q.Q v.R.OX+.t.Q.T.t.Y.Q w 8 5 > - - - > 5 8 q t v K.v.F.9.t t t t &.Q.#X9.m Y.m 8 5 - = $ $ # # @ @ @ @ @ # # $ $ $ $ $ $ $ $ $ # # @ O O O X X X X X X X X X X X X X X X O O O O O O O O O O O O O X X X X X X X X X O O O @ ' Z $ $ = - h.N 5 ( J.I w t t c B T.@.t.R.].+.8.].U.v.U.*.t w 8 8 8 8 q w t v 0.G.3.F.t t t V t. XOXV v P.&.q C G.w 8 5 - = $ $ # # @ @ @ @ # # $ $ $ $ $ $ $ $ # # @ @ O O O X X X X X X X X X X X X X X X O O O O O + + + O O O O O O X X X X X X X X X O + + G G ",
"# $ $ = d.N 8 S.V 8 q q t t B T.T v.R.OX#.l.].T.t.Y.Q q 8 5 > - - - 5 5 8 q t 9.].+.F.9.t t t t q V T.9.B Y.m 8 5 - = $ # # @ @ @ @ # # $ $ = = = = = = = = = $ $ $ # @ @ O O O X X X X X X X X X X X X X O O O O O O O O X X X X X X . . . . X X X X O O @ 2.Z # $ $ = d.N 5 S.C 8 q w t t v Y.Q t.R.].+.8.Q.K.z.U.*.t w 8 8 8 8 q t c -.T.Q *.D.t t t t c ;. XV c F.( q C G.w 5 - = = $ # # @ @ @ # # $ $ $ = = = = = = = = $ $ $ # @ @ O O O X X X X X X X X X X X X O O O O O O O O O O X X X X X X X X X X X X X O + + G G ",
"# $ $ = d.g 5 h.w 8 8 q q t B Y.T y.J.#X].+XR.U.t.Y.Q q 8 5 > - - - 5 8 q q *.Y.T v S.9.t t q q w q u.9.B Y.m 8 5 - = $ # # @ @ # # $ $ = = - - > > 5 > - - - - = = $ $ $ # @ + O O O O O O O O O O X X O O O O O O X X X X X X . . . . . . . X X X X X O @ ' Z # $ $ = d.N 6 h.9 5 8 q w t v U.T t.J..XQ..XW.J.z.U.*.t w 8 8 8 8 q t *.T.&.t *.v.q q w t t V T.V c F.( q V G.w 5 - = $ $ # @ @ # # $ $ = = - - - - 5 - > - - - = = $ $ # @ @ O O O O O O O O O O O O O O O O O O O O X X X X X X . . . . . . X X X X X O O G G ",
"@ # $ $ a.h 6 d.9 5 8 8 q q v Y.I y.n.8.R.B.#.U.t.U.Q q 8 5 > - - - 5 8 q =.T.T t t D.3.q q q q w q y.9.B Y.m 8 5 - = $ # @ @ # $ $ = = - 5 5 5 8 8 8 8 8 8 5 5 5 - - = = $ $ # # @ @ @ @ + + O O O O O O O O O O O X X X X . . . . . . . . . . X @ & # + # d.^ # $ $ $ 5.h 6 h.9 5 5 8 q w v U.I 0.m.8.K.V.>.J.t.F.*.t q 8 8 8 8 q I Q.&.t t &.v.q q q w t V Y.V t F.( q V G.q 5 - = $ $ # # # $ $ = = - - 5 5 8 8 8 8 8 8 5 5 5 > - = = $ $ # # @ @ @ @ @ O O O O O O O O O O O O O X X X . . . . . . . . . X X @ & # O @ ' ] ",
"O @ # $ a.h , d.5 > 5 5 8 q c U.I t.v.,.yX<X+.Y.t.U.Q q 8 5 - = - - 5 8 m G.D.v t t h.;.q q q q q q y.9.B Y.m 8 4 - = $ # # # # $ = - - 5 8 8 q t t t t w w w q 8 8 5 > - = = $ $ $ $ $ # # # # @ @ O + O O O O O O X X X . . . .   . .     . . O ' a._ # @ u 7 @ # $ $ 5.s , h.9 - 5 5 8 q c P.I 8.v.$.yXeX:.J.t.F.&.w q 8 8 8 8 y 0.J.v t t ) y.q 8 q q w m Y.V t F.( 8 M F.8 4 - = $ $ # # $ $ = - - 5 5 8 q t t t t t t w q 8 5 5 > - = = $ $ $ $ $ # # # @ @ @ @ @ + + O O O O X X X . . . .   . . . . . . O ] s./ @ + 7 < ",
"O O @ $ s.g 6 d.5 - 5 5 8 8 y U.I t.t.T F.v.T Q.t.U.W 8 8 5 - = - - 5 w S.Y.].( w q q.*.q q q q q q y.9.m U.m 8 4 = = $ $ # $ $ = - 5 5 8 q Q F.F.F.F.m.b.b.n.b.8.t q 8 5 > - - = = = $ $ $ $ $ # # @ @ @ @ + O + + O X X . . . .     .     . . + 6.G q.@ O O O O @ # $ 5.h , h.9 - - 5 8 8 t G.C 3.z.T J.J.#.Y.t.F.( q q 8 8 8 q y.G.T.( q w ( y.8 8 8 8 q M Y.M t S.~ 8 M F.8 - - = $ $ $ $ $ = - > 5 8 q I F.F.F.J.J.J.J.F.m.3.w 8 8 5 5 - - = = = $ $ $ $ $ # # # @ @ @ @ O @ @ O X X . . . . . . . . . . X + 6.G 5.@ O X X ",
"O O @ # a.h.q.q.> = - > 5 8 t P.C t.v.I T T t. X-.Q.I 8 5 - = = = - > 9 S.;.J.&.w 8 q.&.8 8 8 8 8 q t.9.c U.y 5 5 - = $ $ $ $ = - 5 8 q t -.E.,.+.+.+.Q Q Q Q @.'.+.t w q 8 5 > 8 ~ h 9 9 9 9 6 6 , , 1 1 1 : , ^ ^ $ X X . .   .     .     . . X G S.G O X X X O O @ $ d.h.5.q.> = - - 5 8 w F.C 8.n.I T T z.+X,.Y.W 8 8 8 8 8 q F.;.D.( 9 9 ( t.8 8 8 8 8 y G.m w S.~ 8 M F.8 - - = $ $ $ $ = = > 8 8 q &.E.;.+.+.#.@.@.@.+.Q U.I t w 8 8 5 5 8 S e 9 9 6 6 6 6 6 , , 1 1 : < ^ _ $ X X X . . . . . . . . . X X F S.G + X X X ",
"X O O @ 5.G 0 6 = = = - 5 5 w F.V &.W.U.Y.Q.Q.;.F.t.t 8 5 - = = = - > 5 &.OXD.m w 8 q.) 8 8 8 8 8 8 t.3.c P.y 5 5 - = $ $ $ = = > 5 q t ;. X,.R +.@.@.@.@.T B K R.8.v c t q 8 5 M W.F.v.v.y.h.f.q.q.5.5.6.2.2.5.h.q.7 X X . . . . . . . . . . X X : 6.$ O X X X X O O # d.G 0 , $ = = - - 5 q F.I Q W.R.U.Q.].w.U.v.t 8 5 5 5 5 8 &.Q.F.M 9 8 ~ t.5 5 5 8 8 y F.M q S.~ 8 M F.8 > - = $ $ $ = = > 5 q t &.'.,.P +.@.@.@.;.+.B B U.$.v c t q 8 8 M ].S.A.A.h.h.f.d.q.q.5.5.6.2.5.h.q.7 X X X . . . . . . . . X X X ; 6.# X X X . ",
"X X O @ 2.u # $ $ $ = = - 5 w S.M t V I T T T F.y.y 8 5 - = = = = = - > 8 S.I q 9 8 q.) 5 8 8 8 8 8 q.3.y G.y 5 5 - = = = = = > 5 8 q Q *XXX~.J.XX,XW.L.'.W.>.>.'.M.U B c t q 8 8 f y y e w 9 5 5 > > ; = $ $ ; F F # X X X . . . . . . . . X X X & 2.@ X X X X X X O @ 5.s # # $ $ = = - > 8 S.C t V I I T T U.F.m q 8 5 5 4 4 5 8 v.Q 8 8 5 ~ u.5 5 5 5 5 w S.f q S.~ 8 M F.8 5 - = = = = = - 5 8 r Q ,X@X XJ.XX,X'.R.'.W.$.$.'.M...K c t q 8 q V d e e w 9 8 5 , > ; ; $ $ & F G # X X X X . . X . X X X X X X & 2.@ X X . . ",
"X X X O ' i @ # $ $ $ = = - 9 S.f q y m P +.F.v.c q 8 5 = = $ $ $ = = > 5 h.M 8 8 8 q.) 4 5 5 5 5 8 q.3.y G.d 5 5 - = = = = > 5 8 q t 8.+Xn.J.R.B.XXr.X.r. X.X'.,XrXR.o.v t t q q 8 q q 8 8 5 > - = = $ $ # @ O O O O X X X X X X X X X X X X X X : 2.+ X X . . X X X + 6.u @ # # # $ $ = - 8 S.V q t m Y #.U.b.m w 8 5 > - - - - 5 y.I 5 5 5 1.U.8 > 5 5 5 w S.y 8 S.~ 8 M F.8 5 > = = = = - 5 8 q t 8.*XJ.R.W.U.XXl.+.8.]..X'.,XiXR.o.v t t w w q w q 8 8 5 5 > = = $ # # @ O O O O O X X X X X X X X X X X X X & 2.@ X . . . ",
". X X O ' 7 O @ # # $ $ = - 5 A.f 8 t B J.2XJ.B w 8 5 - = $ $ $ $ $ = = e A.f 5 8 9 A.( 4 5 5 5 5 5 q.1.y F.y 5 5 > > - - > 5 5 8 q t 8.K.U ..R.,X9X$XN.M..XE.*X@X<X'.R.X.v c t v I I V m C M 8 - = = $ $ # @ + O O O O O X X X O O O O O O O O O : 2.+ X . . . . X X + 2.7 O @ @ @ # $ = = 5 A.M q t B J.4XJ.B w 8 5 > - = = = = 9 A.f > 5 5 d N 5 > - > 5 w S.y 8 S.~ 8 M F.8 5 > > - - - 5 5 8 w c 8.W...O.R.,X9X&XV.c. XR.1X*XwX.XR.Y c c t c I I m m C C 9 > = = $ $ # @ @ O O O O O O O O O O O O + + O O O ; 2.@ X .     ",
". . X O ' 7 O O @ @ # $ $ = 5 h.e 8 w B #XtX+.t 8 5 - = $ $ # # # $ $ 9 q.~ 5 5 8 1.v.w 4 - - - 5 5 9.1.y F.d 5 5 5 > 5 5 5 8 8 q r c ;.J.P Y w.`.2XdXrX_.+X>.'.oX<.Y z.'.%.v c ;.].Y.A.y.Y.T.~ - = = $ $ $ # @ O O O O O O O O @ @ # # # # # @ @ 1 6.@ X . . . . X X O ' 7 O O + @ # $ $ = 5 h.f 8 q v OXrX@.t q 5 > - = = = = 6 q.~ > - = > - = - = = - > 9 S.y 8 A.W 8 M F.w 5 5 5 > 5 5 5 8 8 q c ,.W.....k.`.1XdXrX_..X<.].=Xk...n.R.#.v c -.].Y.S.v.Q.Q.) 5 - = $ $ # @ @ O O O O O + + + @ @ # # # # # # @ : 6.@ X . . . ",
"  . X O ' < O O O @ # # $ = > h.e 5 8 t t.J.v q 8 > = $ $ # @ @ # $ $ ^ 2.- - - ) h.w - - - - - > 5 5.1.y F.y 8 5 5 5 5 8 8 q q V &.*.v.W.8.w.z.N.&XaXrX[.].c.l.oX.X+.B r.oXJ.n.].F.*.S.v.*.h.) - - = = $ $ # @ + + O + + @ @ # $ $ = = = = $ $ # 1 5.# X X . . . X X O ' < O O O O @ # $ $ > h.f 5 8 q 8.F.c q 8 5 - = $ $ $ $ ^ 2.= = = = = = = = = = = - 9 S.y 8 A.W 8 M F.q 8 5 5 5 5 8 8 q m ( &.n..Xw.l.z.N.&XaXuXoX{.M.n.$X%X@.K l.{.J.n.R.F.&.Y.F.1.A.*.5 - = $ $ # # @ @ @ @ + @ @ # # $ $ $ = = = $ $ $ 1 5.# X . .   ",
"  . X O ' < X O O O @ # $ $ > h.e 5 8 8 3.t.q 8 > = $ $ # @ O O @ # # ^ ^ = = > h.h = - - = = - - 5 5.1.y F.d 8 8 8 8 8 8 q r T T.F.n.b.F.b.B.R.R.'.[.[.'.R.V.N.n.J.W.T v r.2XR.F.OXQ.t.0.Y.Y.C > - = = $ $ # @ @ @ @ @ @ # $ $ = = > 5 5 5 > = $ < s.# X X . . . X X O ' < X O O O O @ # $ > d.h 5 5 8 &.t.q 8 5 - = $ $ # # # / G $ $ $ $ $ $ $ $ $ = = - 8 S.y 8 S.~ 8 M F.w 8 8 8 8 8 q q V G.F.n.F.J.J.U.R.'.'.oXoXoX[.`.V.B.U.'.Q B r.2XQ.v.].U.y.t.Y.T.( 5 > = = $ # # @ @ @ @ @ # # $ $ = = - > 5 > - = $ , s.# X X     ",
"  . X O ' < X O O O O @ # $ > d.0 - 5 5 =.q.5 5 - = $ @ O O O O O @ @ G ^ = = = d.0 $ = = = = - - 5 5.1.y F.d 8 8 8 8 8 q t Q  Xt.c c c v v K U ....o.O.....U P K B 8.W.Q c @.'.r.T V y e y e 8 5 - = = $ $ # # # # # # # $ $ = - 5 8 w t w 8 5 = 0 a.# O X X . . X X O ' < X O O O O @ # $ = d.e - 5 5 ) q.5 5 - = $ # @ @ @ O / G # # # # # # # # $ $ = = 8 A.y 8 S.~ 8 M F.w 8 8 8 q q r I ].t.c c c v v K U ....o.o.o.O.U P K B r.'.Q c @.].8.V M e w d y 8 5 - = = $ $ # # # # # # # $ $ = - 5 8 q t q 8 > = 9 a.$ X X .   ",
". . X O ' < X O O O O @ # $ ; d.0 = - - ) 5.- - = $ # O O O O O O O O G G $ $ = a.0 $ $ $ $ = = - > 5.3.y F.d 8 8 8 q q r T T.@X;.c v c v v B B P U U U Y P L B B v c 8.W.Q t Q W.8.w 8 5 5 5 5 5 - = = $ $ # # # # # # $ $ = = 5 8 m l.V.:.c 8 8 4.^ @ O X X X X X X O ' < X O O O O @ @ # = d.0 = - - ~ q.4 - = $ # @ O O O O H F O + + O O O @ @ # $ = = 5 A.y 8 S.~ 8 C S.w q q q q t T E..X;.c v v v v B K P U Y Y Y U P K B B v 8.].Q t I R.3.w 8 8 5 5 5 4 - = = $ $ # # # # # # $ $ = - 5 8 c k.V.>.t 8 5 1.^ @ O X . . ",
". X X O ' < X O O O O @ # # ; a.6 = = = ^ 2.= = $ # O O X X X X X O O F G $ $ $ a.7 # $ $ $ $ = - > 5.3.t P.I w t q q q t &.E.T.8.c c c v v v B B K P P P K B B v v c c ;.R.I q C F.y.9.4.4.q.q.9.4.1.2.2.' _ ' ' ' ' ' 2.2.2.4.0.y.R.iXhX8XB.t.v.4.= @ O X X X X X X O ' < X O O O O O @ # = a.0 = = = ~ 5.- = $ # @ O O O X X G F O O O O O O O O @ $ $ = 5 A.e 8 S.( q M F.m y q q t c -.Q.U.3.c v c v v v B K P P P P K B B v v c c ;.Q.W q V J.v.0.9.9.9.4.4.4.2.2.2._ _ _ _ _ _ _ 2.2.1.4.9.t.R.uXhX8XN.t.y.4.; @ O X . . ",
"X X X O ' < O O O O O @ # # = a.6 = = = G =.= $ # O O X X X X X X X O F G # $ $ 5.7 @ # # $ $ = - - 9.3.q ( v.y.F.( q t t &.*XW.T v v v v v v v B K P P L B B v v c c t t *.U.C 5 e ~ ~ ~ ~ ~ ~ A A N N N g g g g g g g N N N N W Q r.9XsX.X-.W C 5 = # O O X X X X X O ' < X O O O O O @ # = a.7 $ = = ~ 6.= $ $ @ O O X X X X F k X X X X X X O O @ # $ = 5 A.y 8 F.( q t 3.U.Y.;.t c v ;.2XQ.T v v v v v v v K U U P P K B v v c c t t ;.U.C 8 y ( ~ ~ ~ ~ G A N A N N N g g g g g g N N N C W @.l.8XaX[.;.Q C 5 $ # O X X . ",
"X X O O ' < O O O O O @ # # = a.6 $ = $ G _ $ $ @ O O X X . . . X X X Z F # # $ 5.7 @ @ # # $ = - - 4.3.q q I Q.U.A.t t v D.T.T v v v v v v B v.U.U.R.R.U.U.U.F.T c t t t q ( D.f - - - - - - - = = $ $ $ $ $ # # # # $ $ = = - - 5 t #.k.X.t 8 5 > = $ O O X X X X O O ' < X O O O O @ @ # = 5.7 $ $ $ G 4.$ $ @ O O X X X X X F k X X X X X X X O O # $ = 5 A.y q F.( q q y Y.U.Y.c c K F.].X.v c c c v v B v.R.R.R.R.R.R.R.F.T c t t t q ( G.N - - - - - - = = = = $ $ $ $ # # # $ $ $ $ = - 4 8 t #.<.Y t 8 5 > = $ O O X . ",
"X O O O ' 7 O O O O @ @ # # ; a.6 $ $ $ A _ $ # + O X X . . . . . X X k F @ # $ 6.7 O @ # # $ $ = - 4.3.q w t 0.U.&.t t ;.U.I v v v v v B P F.U.&.@.@.&.+.@.#.v.T.T t t q 8 5 C A.f - - - - - = = $ $ $ $ $ $ $ $ $ $ $ $ = = - > 5 8 t c y w q 8 5 = $ @ O O X O O O + ' < O O O O O @ @ # = d.7 $ $ $ Z 2.$ # @ O X X . . . . F k . . . X X X X O O # $ = 5 A.y q S.) q w t 3.U.;.c c 8.Q.T v v v v v B K F.U.-.-.-.&.@.@.#.v.Q.T t t q q 8 ~ A.h - - - - = = = = = $ $ $ $ $ $ $ $ $ $ $ = - > 5 8 t t t w q 8 > = $ @ O X . ",
"O O O @ ' 7 O O @ @ @ # # $ ; d., $ $ # Z _ # @ O O X X .     . . . X k F @ # $ 6.7 O @ # # $ $ = - ) A.y w t c v c c t t.0.c v v v B K R Y.T.R B B B B v v v B t.T.I q 8 8 5 > N h.M - - - = = $ $ $ $ $ $ # # $ $ $ $ $ $ = = - - 5 8 q w t c t 5 - $ @ O O O O O O @ ' 7 O O O @ @ @ # @ = d.6 $ $ # Z _ $ @ O O X X . . .   F j   . . . . X X X O # $ = 5 S.y 8 &.D.M w t c v c c c t.z.v v v B B K Y U.U.R K K K B v v v B t.E.V q q 8 5 > N h.h = = = = = = = $ $ $ $ $ $ # # $ $ $ $ = = - 5 5 8 q q t y w 5 - $ @ O X . ",
"O O O @ ' 7 O @ @ @ # # $ $ ~ 2.= $ $ # Z _ # @ O O X . .         . . k F @ @ $ 6.7 O @ # # $ $ = - 8 9.t.v c v v v v c t.0.c v v B P o.W.].o.P L K B B v v v v c t.Y.M 5 5 5 > - C A.M - - = = = = = $ $ $ $ $ $ $ = $ $ $ = = > 5 5 8 8 t @.`.n.y > $ # O O O O O O # 2.7 O @ @ @ # # # $ G 2.= $ $ $ k _ # @ O X X . .       z j   . . . . X X O O # $ = 5 h.&.8 8 &.v.V v v v v v c t.t.v B B K P o.W.].X.P P L K K B v v v c 8.U.M 8 8 5 > - N f.s = - - - = = = = $ $ $ $ $ $ $ $ $ = = - > 5 5 8 q t +.L.n.c > $ @ O X . ",
"g k ; @ ^ 7 O @ @ @ # # $ G 4.1 $ $ # @ Z ^ @ O O X X . .         . . k Z @ @ $ 6.7 @ # # # $ $ = - 5 9 t.F.L v v v v c t.t.v B B K %.].].%.Y ..t.v.8.R 8.0.-.v t c 8.F.e - > - - - N A.q.6.6.6.5.5.5.5.6.6.6.6.5.5.5.d.d.5.5.q.d.h.h.A.D.J.1XgXuXQ > $ # @ O # s F > # ' 7 @ # # # # # $ ^ 2.; @ # $ $ Z / @ O O X X . .       z l   . . . . X X O O # $ = - e y.) 8 9 *.J.X.n v v v c t.t.v B K U #.'.].%.U Y t.v.e.T 8.r.;.B t t 3.F.f 5 5 - - = g h.d.d.d.d.d.5.5.6.6.6.6.6.6.6.6.d.d.d.q.q.q.t.y.A.F.U.*XgXuX+.> $ @ O X . ",
"h.5.2.s G Z ^ / / _ _ _ 6.2.; # $ $ # $ 2.d.; O O X X . . . . . . . . k F @ # $ 5.7 # # $ $ $ = = - 5 8 t v.R.,.#.K B v z.t.v B B Y OX.X%.....>.qX2X,Xt.].J.Q.B t w q ) t.0 - - - - = 6 0 0 u s 0 0 0 0 0 0 0 0 0 0 s q.) h h h h f M N C I l.3X].m - $ # @ O , d.5.6.h ^ G ) _ _ _ _ _ 6.4.; @ @ @ # ; 6.d.& O O X X . . .     z l   . . . . X X O O # $ = - - e v.t.y c l.].w.>.U v v t.t.v B K o.#X@X>...Y %.<X,X1Xt..XU. XB t q q ) y.e - - = = = 9 h h h h u 0 0 7 0 0 0 0 0 0 0 5.=.h h h h f f M N I c.3X XB - $ @ O X . ",
"h.d.G 7 ^ k s s s s s s s ; @ # # $ # N q.5.Z O O X X . . . . . . X X k F @ # $ 4.^ $ $ $ $ $ = - 5 8 q t B m.2X*Xw.K K n.Y.8.8.8.r..XB.l.z.n.N.'.`.,Xz.W.t.Q.c q 8 8 5 ~ A.G - = = $ $ $ # ^ 2.$ @ @ @ @ @ # # # # # ) N $ $ $ $ = = - > 5 8 B y > = $ @ @ O , h.h.^ 7 / k s s s s s s s ; @ @ @ @ @ k h.5.k O O X X . . . .   z l   . . . X X X O @ # $ = - > 5 M F.I v K n.4X*Xz.K v z.E.8.8.r.n.,X`.n.n.n.m.`.K.,Xz.W.r.Q.B w 8 8 5 ~ F.~ - = = $ $ $ $ ) 4.$ @ @ @ @ @ @ @ # # $ ) N $ $ $ $ = = = - 5 w B y 5 = # O X X . ",
"7 7 + X + O O O O O O O O @ @ # # # $ h S.q.s O O X X X X X X X X X X Z F @ $ $ 6 q.^ = $ $ = - > 5 8 w t c $.XXXXV.U U w.R.U.J.J.J.J.J.J.R.R.R.R.R.m.$.U.F.4.q 8 5 5 5 > ) ) - = $ # # # @ G 2.# + + + @ @ @ @ @ @ @ ) g $ $ $ $ $ = = = - - - = = $ # @ O O # 7 u # O + O O O @ O O O O @ @ # @ @ O i A.g.s O O X X X X X X . F j . X X X X X O + # $ = = - 5 5 8 t c v v $.,XXXR.U P ;.U.J.J.J.U.R.R.`.`.R.R.R.U.n.#.F.F.t.t q 8 5 - - ^ ) = $ $ $ $ $ $ ^ 5.@ O + O + O + + @ # $ ) A $ $ $ $ $ $ = = = > > - = $ @ O X X . ",
"X X X O O O @ # $ $ # # $ # # # # # $ > t.g # O O O X X X X X X X X O F G # $ $ $ 6 q.^ = = - > 5 8 q t c v L v.U.#.U Y Y ..U P L L L P P P U ..Y U U P B t q 8 5 5 > > - - - $ $ # @ O + O l ^ O O O O O O O O O @ @ ^ h # $ # # $ $ $ $ $ $ $ $ # # @ O O O O O O O O O O @ # # $ # # # # # # # # @ $ 5.s # O O O X X X X X X F k X X X X O + @ # $ $ = = - 5 8 q t c v B Y n.E.,.Y Y U P L L P P U U U Y Y ....U L B v t q 8 8 5 > - = = = $ $ # @ @ @ O l / O O O O O O O O O @ # ) Z $ # # # # # $ $ $ $ $ $ $ @ O O X X . ",
"X X X O O @ $ $ = = $ $ $ $ $ $ $ $ $ > 9., # @ + O O O O O O O O O O G G $ $ $ = = 6 q.G - > 5 8 t B B B B B P R Y X.X.o.%.O...Y P P L L L ;.!.n.R B B c t 8 8 5 > - = = = $ # @ O O O O X l H X X X X X X X O O @ 1 q.s @ # # # # @ # # # # # # @ O O O O O O + O O O O @ # $ = = = $ $ $ # # $ $ # & 6.: @ @ O O O O O O O O G k X O O O + @ # $ = = = - 5 5 q c V L B B P Y T X.o.o.o.o.Y R Y P R P P P ;.W.m.Y L B c t q 8 5 > - = = $ $ # @ O O O O X s / X X X X X X X O O @ , y.A $ # # @ @ # # # # # # # @ O O O X X X ",
". . X O @ $ = - 5 5 - = = = $ $ $ $ $ , q.6 $ # @ + O O O O O + @ @ # =.4.= $ = = 0 2.f 0 > 5 8 w t.].].8.F.!.!.Q.Q.]. X X+X+X.X].Q.Q.t.B K U.Q.+X#.B v t w 8 5 > - = = = $ $ @ O O X X X . p J . X X X X X X O O $ 4.A.^ @ @ @ # @ @ @ O O O @ @ O O O O O & ; @ O O O @ $ = = > > > - = $ $ $ $ $ $ ; 5.: @ @ @ @ O O O O @ # ' _ @ + + @ # $ $ e 5.9 - > 5 8 t z.].].8.F.!.Y.!. X.X.X.XOXOX XQ.Q.Q.v.K K U.'.@X@.B c t w 8 5 > - = = $ $ # + O O X X X . p H . X . X X X X O O $ 4.S.2.$ # @ @ @ @ @ @ @ @ O O O O O X O # & ",
". . X O # = 5 V +.B 8 > - = = = $ $ $ > q.6 $ # @ O O O O @ O @ @ # $ N G = = = = 9 q.q.9 > 8 8 t J.r.E.m.%XL.R.r.;.,.8.l.*XN.w.,.@.z.U.B B 8. X,Xr.B c t q 8 5 > = = $ $ $ # O O X X X .   p J . . . . . . X X O ; 5.1.) # @ @ # # # ; 1 1 1 1 , , , k : 7 4.q.i O + @ # = > M +.m 8 5 - = = $ $ $ $ > q.1 @ @ @ @ @ @ @ @ @ @ k Z @ @ # $ $ $ = 9 g.5.5 > 8 q t J.z.J.b.XXU.U.r.w.w.w.x.*XN.w.;.@.t.E.B B 8.XX2Xt.B c t q 8 5 - - = $ $ $ @ O O X X X X . p H . . . . . X X X O ; 5.) 2.$ # # @ @ @ ; 1 < 1 1 1 1 , F 1 7 6.q.",
". . X O $ = y .XaX'.-.Q W N N Z Z Z N G D.G g g s s s s s s s s k g Z Z s ; = = = = > =.y.y 8 q t F. X@Xz.XX6X6X;.L B Y Q.#X>.U P B -.J.v v m P 8.Q.;.t w q 8 5 - - = $ $ $ @ O O X X . .   p J   . . . . . X X O @ Z S.u $ # @ @ # k g.6.6.2.6.6.6._ a.^ 6.q.q.g O O @ $ = y  XaX'.;.( W ~ N N N Z Z ~ G.~ g g g g g g s s s s s s l k s = = = = = > ) q.w q w t F.].oXz.XX3X6X,.U Y o.].5X>.U K v @.U.B m B T r..X8.c t q 8 5 - - = $ $ # @ O O X X . .   p H   . . . . X X O O @ k h.i $ # # # # g d.2.2.2.2.2.2._ a.^ 2.5.1.",
". X X O $ = B 1XdX%Xn.t.0.9.9.4.4.2.2.2.2.2._ _ _ _ _ _ _ _ _ _ =.2.2.4.A.~ > = - - - 5 1.S.m q t I +.@.R +.8.,.R B L F.Q.#.U K K B ;.J.v v v v c Q Y.*.q q 8 5 5 - > 0 = # @ O O X X . .   p J   . . . . X X O O O 7 6.= $ # # @ k d.0 $ $ $ $ $ $ = _ , ; ^ ^ ; O O @ $ = m >XdX>Xn.t.t.t.0.4.1.2.2.2.4.4.2.2._ _ _ =.=.=._ _ _ _ 2.4.D.~ > - - - - > =.A.V t t L +.+.L +.8.;.R P Y R.+X>.U K K v *.U.B v v B B @.Q.3.t q 8 5 > = > s = $ @ O O X X . .   p J . . . . . X X O O O < 2.$ $ $ # $ k q.0 $ $ $ $ # $ $ _ < ; G ' ",
"  X X O $ = 8 #.x.T q 8 8 5 5 - = = = $ $ $ $ $ $ $ $ $ $ $ $ $ $ = = = e h.^ > - > 5 5 8 0.U.V t c v B B B B L L L D.Y.T B B B v v 8.Y.m c v c y t I U.*.q 8 8 5 - N G.6 # @ O O X X . .   p J . . . . . X X O O @ 7 6.= $ $ # l 6.6 # # # # @ O O $ p., + @ O O O O @ $ = 8 +.x.+.w 8 5 5 5 - = = $ $ $ $ $ $ $ # # # $ $ $ $ $ $ = = h A.^ > - > 5 5 8 q.Y.L c v v v B B B K K L D.].#.P K B B v *.U.v v v v v c I U.;.q 8 5 5 - N Y.6 # @ O O X X . .   p J . . . . X X X O O + 7 6.= $ $ $ k d.6 # # @ @ @ O O # 2.< @ @ @ ",
". X X O $ = 5 8 r q w q 8 8 5 > - = = $ $ $ $ $ $ $ $ $ $ $ $ $ = = = - - 0 h.^ 5 5 8 8 q t t.U.I c c v v B B B P D.U.L v v v v v v 8.T.B v v m t t q I G.t 8 8 5 4 f h.> $ # O O X X X . . p J . . . . X X X O @ @ 0 5.= $ $ $ 6.s @ # # @ @ @ O O # i., O O O X X O O # = - 8 q t w q 8 8 5 > - = = $ $ $ $ $ $ $ $ $ $ $ $ $ = = = - - e h.^ > 5 5 8 8 t t.U.T v c c v v v B B v.T.X.K B v v v v -.U.v c v B c t t I J.w 8 5 5 - f A.> $ # + O X X X X . p H . . . . X X X O O @ 7 5.= $ $ $ 6.g # # # @ @ O O O @ 2.1 O O O ",
"  X X O # = - 5 8 w t c t w 8 5 > = = = $ $ $ $ $ $ $ $ $ $ $ = = = = - > - 9 y.=.8 8 q q t y t.E.8.8.8.8.e.t.t.U.R.L v v c c v v P Y.J.B L v.Y.&.t q M S.t 8 8 5 - e h.> $ # @ O O X X X . l J . . . X X X O O # # u d.= $ $ $ 5.s @ @ @ @ @ O O O # i.: O O X X X O O # $ - 5 8 q t c t w 8 5 > - = = $ $ $ $ $ $ $ $ $ $ $ = = = > > > - 9 f.) 5 8 9 q t c t.R.8.8.8.8.8.8.8.F.U.T v v v v v v K F.G.B B v.Y.&.t w m S.w 8 5 5 - e h.> $ # @ O O X X X . p H . . X X X X O O @ @ 7 q.= $ $ $ 6.s # # @ @ O O O O @ i., O O O ",
"  . X O # $ - 5 8 t Y k.:.B q 5 - = = $ $ $ $ $ $ $ $ $ $ $ $ = = = - - - 4 5 y D.3.t q t t t c 8.n.n.n.F.K.U.Y.J.T v v c c c c K U.OXX.B +.+XE.F.t q M G.w 8 8 5 - e h.> $ $ @ O O X X X X l H X X X X X O O @ # $ s d.- = $ $ s.s # # @ O O O O O @ i.: X X X X X X O # $ - 4 8 r ..x.k.L q 5 > - = = $ $ $ $ $ $ $ $ $ $ $ = = = - - - - - e h.2.q q t t t c 3.n.n.n.F.J.J.J.D.T v v v v v v P J..XX.v Q XXE.F.t q m S.w 8 5 5 - e h.> $ $ @ O O O X X X p / X X X X X X O @ # # 0 d.= $ $ $ 6.s # # @ @ O O O O @ i.: O O X ",
"  . X O @ $ - C &.8.[.sXiXV.8.;.) ~ ~ G G G G F G G G G G G ~ ^ ^ ) ) ) ) ) M 8 M G.t.c t t c c c c v v B K K K K B v v c c c m G.*Xv.v v L n..XJ.c q m G.w 8 5 5 - e h.> $ $ # + O O O O O l H X X X X X O O # $ $ f h.> = = = a.s # # @ O O O O O @ i.& X X X X X X O @ $ - C Q ;.`.sXaX`.8.*.) ( ~ ~ G G A G G G G G G G ^ ^ ) ) ) ) ) ) f 5 y S.t.c t t t y t c v v B K K K v v v v c c c B F.*Xn.v v B n..XF.y q m F.w 8 5 5 - e A.> $ $ @ + O O O O X l / X X X X X O O # $ $ e f.- = = = 5.s # # @ O O O O O @ i.: X X X ",
"  . X O @ $ ~ n.r.v..XdXpXL.t.8.3.1.) ) ) ) ^ ^ ^ ^ ) ) ) ) =.2.1.3.3.9.9.f.Y.I q V U.z.v c v v v v B B K K L K K B B v v c c I U.v.t.c c c v B b.*.q M G.w 8 5 5 - e h.> = $ $ # @ O O @ O k / O O O O O O # $ = = f h.5 - = = a.s # # @ O O O O O @ i.& X X X . . X X O $ ~ n.r.l.[.sXsX'.z.0.3.1.=.) ) ) ^ ^ ^ ^ ) ) ) ) 2.2.1.1.1.3.9.t.G.C q V U.z.v c c c v v B B K K K K K B v v c c c I U.v.v.v c c v V v.=.q m F.t 8 5 5 - e A.> = $ $ # @ @ O O O l / O O O O O O # $ = = f h.5 - = = 5.s # # @ O O O O O @ i.: X X X ",
"  . X X O Z t.w 8 q Y l.7.B 8 5 - = $ $ $ # # # # # $ $ $ = = - 5 5 5 8 8 q *.T.Q t I T.D.B v B B K P U U U U P L K B v v v c V R.U.&.r t t t q t.3.q M G.w 8 5 5 - e h.5 = $ $ $ # # # # @ k / O O O O O # $ = = - M A.5 4 - - d.s $ # @ @ O O O O @ i.& X X X . . X X O k t.y 8 q P w.7.B q 5 - = $ $ $ $ # # # # # $ $ = - - 5 5 5 8 8 q &.T.&.c I U.v.v v v B B K P U U U U K K v v v c c V K.E.3.c t t t q 8.3.q M G.t 8 5 5 - e h.> = $ $ $ # # # # @ k _ O O O O @ # $ = - - M A.8 4 - - q.s $ # @ @ O O O O @ i.: X X X ",
"  . X X O 2.N = > 8 q w q 8 5 - = = $ $ # # # # # # # $ $ = - > 5 w y w w d m 8.].-.v T W.n.L B K U ..o.o.o.o...U P K B v v c T  X3.w q q q q q t.3.q M G.w 8 5 5 - e h.5 = = $ $ $ $ $ $ $ Z _ # @ @ @ # $ = - > 5 C A.8 5 5 5 d.h $ $ # @ O O O O # i.& X X X . . X X O ' Z = 5 8 q q q 8 5 > - = $ $ # # # # # # # $ $ = - > 5 9 w w w m V 0.+X,.c L J.v.B B K P U ..O.o.o...U U K v v c c T ].0.c t t t q q 0.4.q m G.y 8 5 5 - e A.5 = = $ $ $ $ $ $ $ k _ # @ @ @ # $ = - 4 5 C S.q 5 5 - q.f $ $ # @ @ O O O # i.: X X X ",
"  . X X O ' h = = - > 5 5 > - = = $ $ # # @ @ @ @ # # $ $ = - 5 y S.S.D.*.U.Q.J.K.4Xt.L R Y.!.m.J.R.].].oX[.'.R.R.U.J.J.K.J.S.Q.3.w q 8 8 8 q q t.4.q M G.t 8 5 5 5 f A.5 - = = = = = = = $ A _ $ $ # # $ = = > 5 8 I F.t 8 8 8 f.f $ $ # # @ @ O O # i.; X X X . . . X O ' s $ = - > 5 5 > - = = $ # # # @ @ # # # # $ $ = - > w A.S.A.&.U.Q.U.K.4Xt.B L J.W.m.m.J.R.'.{.oX'.'.R.R.J.F.D.D.D.Q.9.t q q q q q q q.4.q m G.y 8 8 5 5 f A.5 = = = = = = = = = Z 2.$ # # $ $ = = - 8 q I U.t 8 5 5 t.f $ $ # # @ @ @ O # i.: X X X ",
"  . X X O _ s $ $ $ = = = = $ $ $ # @ @ @ @ @ @ @ # # $ $ = - > f S.Q Y.v.t.0.=Xm.R.@Xv.B T E.*XN.n.`.$XtXuX[.N.l.t.w.Q.Q.0.3.&.t q 8 8 8 8 8 8 q.3.q M G.t 8 8 5 5 f A.5 - - = = = = - - = ^ _ $ $ $ $ = = - 5 q t ;.W.B q 8 8 h.f = $ $ # # # # @ $ 2.; X X X . . . X O ' s # $ $ = = = = $ $ $ # @ @ @ @ @ @ @ # $ $ $ = = - h S.Q G.t.t.0.*XJ.T.+Xv.L T E.1Xn.c.`.$XrXaX&XV.M.z.r.E.T.;.;.( t q 8 8 8 8 8 8 q.4.q m G.y 8 8 5 5 f A.5 - - = = = = - - - ^ 2.$ $ $ $ = = - 5 q t ,.].B q 8 8 t.f = $ $ # # # # # $ p.: X X X ",
"  . X X O / u @ # # $ $ $ $ # # @ @ O O O + @ @ @ # # $ $ = = > d Y.U.T.t.Q.Q.F.v B +.].n.P +.R..Xw.W.`.3XaX1X`.l...U n.n.c t t q 8 8 5 5 5 5 8 q.3.8 M G.y 8 8 8 8 f S.8 > - - - - - 5 5 N h.g = = = = = - 5 8 q B .XrX+.t q q A.M = = $ $ $ $ $ $ = 6.; X X X . . . X O _ s O @ # # # # # # @ @ O O O O O O @ @ # $ $ $ = = - e J.G.U.8.E.T.F.B v +.].B.Y X.R.].,.W.{.9XsX8X[.c.o.U n.D.c t q q 8 8 5 5 5 8 8 9.4.q M J.y 8 8 8 5 f S.8 - - - - - > 5 5 C D.N = = = = = - 5 8 t K @XiX>.t q 8 y.M = = $ $ $ $ $ $ $ p., O X X ",
"  . X X O / u O O O @ @ + O O O O O O O O + @ @ @ # # $ $ = = - 5 M V V m I W M t y c T R.`. X.X'.+XW.n.k.'.rX9X@X>...n.n.c t w 8 5 5 5 4 5 5 5 9.1.8 M G.y q q 8 8 M S.8 5 5 5 5 5 5 8 C U.W 5 - - - - > 5 8 q t ;.3X,XX.t q w D.M - = = $ $ $ = 6 6 5.; O X X . . . X X / u O O O O O O O O O O O O O O O + + @ # # $ $ = = - 5 d C V m I I V t y v R R.R.]..X'.@X].K.x.[.0X0X*X>...m.F.c t q 8 5 5 5 5 5 5 5 9.3.q M U.y q q 8 8 M S.8 5 5 5 5 5 5 8 C Q.Q 5 > - - - - 5 8 q c <.9X2X#.c t q v.N - = = $ $ $ = > 6 a., O O X ",
"  . X X O / u O O O O O O X X X X X X O O O @ # @ # # $ $ $ = - > 5 8 8 q w w w w w t y T V.yXtX`.#XW.v.X.,.XX'.*XR.E.].v.t w 8 5 5 - - - - 5 5 9.1.8 M G.y w w w q M F.9 5 5 5 5 8 8 I Q.OXm 8 5 > > > 5 8 q t +. Xz.X.B c t t F.C - - = = $ $ G D.D.G.; O O X X . X X O / i X X X X X X X X X X X X X O O + @ @ # # $ $ = = - > > 5 8 q w q q q w t t L m.7XtX'.,X{.J.o.,.%XR.%XR.R. XF.c t 8 5 5 - - - 4 5 5 4.1.q m G.y q q q q M F.9 5 5 5 5 8 8 I ~.OXm 8 5 > > > 5 5 q t -.@Xn.%.L c t w v.C - - = = = = G A.h.I.1 O O O ",
". . X X O / i X X X X X X X X X X X X X O # F ' 6 $ $ = = ; > 5 5 8 9 e y M I w 8 q w t v P w.*X,.,.F..XR.W.3X1X.X X+X,X3.w 8 8 5 - - - - - 4 4 4.1.8 M G.c t c *.T V F.w 8 5 5 8 8 I Y.t.T.B q 8 5 5 5 5 8 t &.].8.P P L B c t F.C 5 > > = = = 2.~ C Y.> @ O X X X X X O / i X X X X X X X X X X X X X O @ Z ) 6 $ $ = ; > > 6 5 8 w e y m C 9 8 8 q t c B <.*Xw.,.J.XXR.W.>X%X'. X*X2Xt.t q 8 5 - - - - - 5 5 4.1.8 M F.y w t &.T V P.w 8 8 8 8 8 I Y.0.T.V q 8 5 5 5 5 8 q &. Xw.X.Y Y L c t S.C 5 5 - - = = 2.( N Y., @ O O ",
". X X X & a.Z O X . . . . . . . . . X X O 1 q.u.u.2.6.5.5.q.q.g.h.h.A.S.F.Y. XM 5 8 8 w t v T ].R v L Q +.@.@.-.+.+.R.v.y q 8 5 - = = = = - - - 4.*.8 M G.c t L ,XY.T P.w 8 8 8 8 C G.;.t.:Xt.m 8 8 5 5 8 q Q ].l.J. X].'.].8.c F.I 8 5 > - - = 2.q.4.Y., # @ O X X X O ; s.k X X . . . . . . . . . X X X : q.t.h.2.6.6.5.5.d.h.h.h.A.S.F.Y. Xf 5 5 8 q t c R ].X.K T +.+.@.@.+.T +.R.v.B w 8 5 - = = = = - > 5 4.3.8 M F.c w B :XY.I P.t 8 8 8 8 I P.*.t.#Xy.m 8 8 5 5 8 q T ].r.B..X{.].].8.t F.I 5 5 5 - - - 4.f.4.T., @ @ O ",
"X X X O H g.d.& X . .             . X X O # G _ 7 , < 6 6 6 6 9 0 0 e e e f W 8 5 5 8 8 q w V E.&.I I ( ( ( &.&.&.F.y.t q 8 5 - = = = = = - > > 4.1.8 M P.c w c U.t.I Y.t q 8 8 w S.( V OXz.T.Q q 8 8 8 8 t J.r.U.Q.>.#.+.t.J.c F.I 8 5 5 > - - 6.5.) S.6 $ # O O X X O / g.a.& . .               . . X X @ G ) 0 1 , , 6 6 6 9 9 0 0 e e f S 5 > 5 5 8 q t B R.;.Q E E ( ( &.&.&.F.v.v w 8 5 - = = = = = - - - 4.3.8 M P.m t c U.t.I Y.y q q q t F.&.V  Xz.Y.Q q 8 8 8 8 r F.r.B.R.>.$.+.l.U.c F.I 8 5 5 > > - 5.q.) G.6 # @ @ ",
"O O O O ^ 6.d.: X .               . . X X O @ # @ @ # # # $ $ $ $ = = = = = = - - > 5 5 5 8 q *.F.F.G.Y.Y.Y.Y.Y.Y.0.t 8 8 5 - = $ $ $ $ = - > - 4.*.8 M P.m w t v.;.I Y.y q q q y F.V I  XU.Q.I q 8 8 8 q t J.8.+X>.F.OX8.;.F.t F.I 8 8 5 5 5 5 5.g > f.6 $ $ @ + O O + _ 5.a.: .                 . . X X O + @ + @ @ # # # $ $ $ $ = = = = = = = - > 5 5 8 w ;.F.G.G.J.U.U.Y.Y.Y.t.t q 8 5 - = = $ $ $ = = - - 4.3.8 M P.m t t v.;.I Y.y q q w c P.C B ].Y.Q.W q 8 8 8 q t J.8.].#.m.OX8.8.U.m F.W 8 8 5 5 5 - 4.N > h.6 $ # @ ",
"k Z + O < F k + X . .             . X X X O O O + @ @ @ @ # # # $ $ $ $ $ $ $ = = = - - > 5 5 8 q w w t t y y t t q 8 5 5 - = $ $ $ $ $ = = - - 4.*.8 M G.c w t v.;.I Y.c t w w y F.V B -.Q.t.t w q q q q t J.8.].#.Q.eXv.8.J.c J.Q q 8 8 5 5 5 q.N 6 f., $ $ # g F @ + 7 F k + . .               . . X X X O O O + + @ @ @ # # # $ $ $ $ $ $ $ $ = = - - 5 5 8 q w w t y y y t t q 8 5 5 - = $ $ $ $ $ = = - - 4.3.8 M U.c t t v.;.I Y.c t t t m U.V m @.T.t.t q q 8 q q t J.8.].+.Q.eXv.8.Y.m U.Q q 8 8 5 5 5 5.N 5 h.6 $ $ # ",
"' _ @ O X X X X . . . . .       . . X X X O O O O O O + + + @ @ @ @ # # # # # $ $ $ $ = = = - > 5 5 8 8 8 8 8 8 8 5 5 > - = $ $ # # $ $ = = - - 4.*.8 M P.c w t v.;.I Y.m t t t m G.V m *.W.I w q q q q q c U.8.].$.m.R.n.r.U.c U.Q r q 8 5 5 8 t.C 8 h., $ $ # / 2.# O O X X X . .             . . . X X X O O O O O O O + + @ @ @ @ @ @ # # # $ $ $ = = - > 5 5 5 8 8 8 8 8 8 8 8 5 > - = $ $ $ # $ $ = = - - 4.3.8 M U.m t t v.;.I Y.c t t y B Y.I m +.Y.I w q q 8 q q c J.8.].+.v.J.v.r.U.B U.Q q q 8 8 5 5 q.N 5 A.6 $ $ # ",
"G Z O O O X X X . .   .     . . . X X X X O O O O O O O O O O O O O + + + + + @ @ # # $ $ = = - - > 5 5 5 5 5 5 > > - = = $ $ $ # # # $ = = - - 4.*.8 M G.c w t v.;.I T.m t t t B U.I *.].8.c w q q q q q c Y.8.].v.@XJ.*XJ.U.c U.Q t r q 8 8 8 t.N 9 A.6 $ $ $ G ^ @ O O X X X . .         . . . X X X X O O O O O O O O O O O O O O O O + O O @ @ # $ $ = = - > > 5 5 5 5 5 5 5 > - = = $ $ # # # # $ $ = - - 4.1.8 M U.m t t v.;.I T.m t t c B Y.I &.Q.;.t t q q q q q c U.r.].z..Xn.+XJ.U.B U.Q t q q 8 8 8 q.N 8 A.9 = $ $ ",
"^ F @ O O X X X . . . . . . X X X X O O O O O O O O O O O O O O X X X X O O O O O O O @ # $ $ = = = = = - - - = = = = $ $ $ # # # # $ $ = = - - 4.*.8 M G.c t t D.;.T Q.B c c c L Y.&.Q.8.v y w q q q q r v Y.e.].n.F.U Q.U.U.B E.+.t t r q 8 8 A.N 9 D.6 = $ $ ^ ^ @ O O X X X . . . . . . . X X X X O O O O O O O O O O X X X X X X X X X X O O O O @ # $ $ $ = = = = > - - - = = = $ $ $ # # # # # $ = = - - 4.=.8 M U.v t c D.;.I T.m t c v L Q.;.OX8.c t w q q q q r c Y.e.].v.F.L U.U.U.B E.+.t t q q q q t.N 8 A.0 = = $ ",
") G @ @ O O X X X X X X X X X X O O O O O O O O O O O O O O X X X X X X X X X X X X O O @ @ # $ $ $ $ $ = = = $ $ $ $ $ # # # # # # $ $ = = - - 4.*.8 M G.c t t D.;.I Q.B c v v I Q.8. XT v t w q q q q t v T.t.OXm.n.L T.R.U.K E.@.c c t t r *.D.w 9 A.9 = = $ ^ ^ # @ O O X X X X . X X X X X O O O O O O O O O O O O X X X X X X X X X X X X X O O O O @ # $ $ $ $ = = = = $ $ $ $ $ # # # # # # $ $ = = - - 4.=.8 M U.c t c D.;.I Q.B c c v L Q.8. XR v t w q q q q t v U.r.].n.m.L U.R.U.B E.&.c t t t t 3.F.y q S.e - = = ",
") G # @ O O O X X X X X X O O O @ @ # # # # # @ @ @ O O O O X X X X X X X X X X X X X X O O O @ @ # # # # $ $ # # # # # # # # # $ $ $ $ = = - - 1.*.8 f G.c t t F.;.I Q.B c v B T Q.r.~.P v t w q q q q t v T.t.OXm.R.;.].T.R.P R.@.v v c v 0.J.m 5 w S.w - = $ ^ ^ # @ O O X X X X X X X X O O O @ @ @ @ @ @ @ O O O O X X X X X . . . . X X X X X X X O O O @ # # # # $ $ # # # # # @ @ # # # # # $ $ = = - - 4.=.8 M J.c t c F.;.T Q.B c c c P Q.8. XR B c t q q q q t c U.e.].m.Q.8.].R.U.L E.&.c v c c 8.J.V 8 w S.e - - = ",
"1.~ $ # @ O O O O O O O O + @ # $ $ $ $ $ $ $ $ # # @ O O O X X X X X X . . . . X X X X X X O O O O + @ @ @ @ @ @ @ @ @ @ # # $ $ $ $ = = = - - 1.=.8 M G.c t t F.;.T Q.B v v B R Q.w.OXX.B y w q q q q t m T.l.OXw.Q.].W.m.W.U R.#.B B K v.E.L q 8 w S.e - - = ^ ) $ # @ O O O O O X O O O @ # # $ $ $ $ $ $ # # @ O O O X X X X . . . . . . . . . X X X X O O O + @ @ @ @ @ @ @ @ @ @ @ @ # # # $ $ $ = = - - 3.=.8 M G.c t c F.8.Q ~.B c c v P Q.8.OX#.P v t q q q q t v U.r. Xw.].].].m.E.P E.-.B B B t.U.V q q w S.y - - - ",
"2.) = $ # @ + O O O O @ # # $ $ = = = = = = = = $ $ # @ + O O X X X X . . . . . . . X X X X X X O O O O O O O O O @ @ @ @ # $ $ $ = = = = - - - 1.=.8 M J.m t t F.;.Q Q.B c v B R Q.r.qX XY.V t q q q q t v T.l.OX#.U.].n.w.R.U R.;.Y %.J.'.R t t q y S.y 5 - - ) _ $ $ # @ O O O O O + @ # $ $ $ $ = = = = = $ $ # @ + O O X X X . . . . . . . . . . . X X X X O O O O O O O O O O @ @ @ @ # $ $ $ $ = = - - - 1.*.8 M G.c t t F.8.+. XL c v c P Q.r.<X+XQ.I t q q q q t c U.t.+X>.E.{.n.w.E.P E.,.Y #.B.W.T t t q t G.f 5 5 - ",
"4.) = = $ # # @ @ @ # # = 9 5 > > 5 5 5 5 5 5 5 > = = $ $ # @ + O X X X X X X X X X X X X X O O O O O + + @ @ @ @ # # # $ $ = > ) q.h = = - - - 1.=.8 M J.m t t F.;.8.,XT c v B R ].l.5XM. XI t q q q q t v T.l. X,.=X*X].w.R.P R.:.c.yX7X#.c t t q y G.y 5 5 - _ =.= $ $ # # @ @ @ # # $ 9 5 > > > 5 5 5 5 > > > = = $ # @ + O X X X X X X X X X X X X X X X O O O O O O @ @ @ @ @ @ # # $ $ ; ~ 4.s = = - - - 4.=.8 M G.c t t F.8.r.<XX.c c v P Q.w.5Xm.XXT t w q q q t c U.r. X,.*X=X].w.R.P E.8.x.9X7X$.c t t q y G.f 5 5 5 ",
"5.=.- = = $ $ $ $ $ $ $ 9 T.F.t.y.y.A.A.A.A.h.h.u.q.q.5.6.6.2.' ' ' ' _ _ / / / / / / / / / _ ' ' ' ' ' ' ' 2.2.i.p.6.p.6.5.q.D.W.U.q.- = - - - 1.=.8 f G.m t y F.3.v.3X+.c c v T Q.l.wX+X XV t q q q q t v T.8.t.X.R.yXJ.w.R.L U.:.V.dX,X..c t r q c K.y 5 5 - =.1.- = $ $ $ $ $ $ $ $ 6 J.D.t.y.y.h.A.A.h.h.h.h.q.q.5.6.6.2.' ' ' ' _ _ / ] ] / / _ _ ' ' ' ' ' ' ' ' ' 2.2.i.i.p.p.6.6.6.6.h.U.v.9.= = - - - 4.=.8 M G.y w t D.8.n.9X$.c c c P Q.w.<X+X XL t w q q q t c U.8.t.+.U.7XN.w.R.U !.w.V.dX*XY c t t q y K.M 8 8 5 ",
"q.1.- - = = $ $ $ $ $ = > N f y f f f f f f f f h h e 0 7 7 < 1 : : : : * * * * * * * * * * * * * * : : : : : 1 1 < < 7 7 0 u N F.Y.) - = = - - 4.=.5 f G.c t t F.3.L Q v c c c L Q.r.#X,.R c t w q q q t v T.;.B K %..X#.r.R.P U.$.#.,Xc.L c t t q c Y.M 8 5 4 2.1.- - = = $ $ $ $ $ $ > N f f f f f f f f f f h e 0 0 7 7 < 1 : : : * * * * * * * * * * * * * * * * : : : : : 1 < < 7 7 7 i h y.F.S = = = - - 4.=.8 M G.y w t D.8.P +.B v v c P Q.r. X-.T c t w q q q t c U.;.B L +..X>.l.`.Y W.8.>.*Xl.B c t t q y Y.m 8 8 8 ",
"t.9.8 5 5 > > > > - > > > > 5 5 5 5 5 8 8 5 5 5 - - = $ $ # O O X X .                                     . . . X X X O O @ # $ 6 0 > = = = - - 1.) 5 f G.y w t F.3.t t t c t t B T.r.OXR v c t w q q q t c U.-.B K +..X#.R.@XY !.;.P '.@.B c t t r v Y.M 8 5 5 4.4.5 5 > > > > > > > > > > 5 5 5 5 5 5 5 5 5 5 - = = $ # @ O X X X .                                       . . X X X X O O @ # > 6 = = = = - - 4.=.5 M G.y q w v.;.c c c c c v L Q.r.~.L c t t w w q q t c U.-.v B T ].$.Q.*XX.].8.P W.@.v c t t q c Y.V q q w ",
"].W.F.D.v.y.y.t.t.t.t.t.t.t.v.A.A.A.A.A.A.A.A.S.=.> = = $ # @ O X X X .                                     . . . X X X O O @ # # $ $ = = = - f A.M 5 M E.m q t S.;.t t t t t t m Y.;. XL m c t w w w w t t U.&.v B X..X#.r.n.8. XQ B R.Q c c t t t m Y.m 8 5 I Q.E.v.A.h.h.h.f.d.q.d.q.q.t.t.t.f.h.h.h.h.h.h.h.) > = $ $ # + O X X .                                         . . X X X O O + @ # # $ $ = = = f D.N 5 M T.m q w A.;.t t t t c c L Q.8.~.L c t t w w w t t c U.*.v B T ].@.z.B.r.XX@.L E.Q c c t t q c Y.V q w I ",
"V M M f f h e e e e e e e e e e e e h f f f f f t.=.> = $ $ @ O O X X .                                         . . . X X X O + @ # $ $ = = 9 A.A - - C Q.V 8 w D.0.q w w w q t m U.Q Y.t.B c t t w t t m V R.&.v v &.+X+.K ;.].;.m I R.I t t t t t V T.V q 8 w f f f f f e e e e 0 0 e e 0 e e e e h h e e e f 9.) = $ $ # @ O X X .                                             . . X X X O O @ @ # $ $ = 9 A.~ > 5 C ].V q q v.9.q q q r t c L T.@.Y.0.y t t t w t t B L R.&.c v T ].Q L ;. X8.B T ].T c t t t t m T.V t t c ",
"8 8 8 5 5 5 - - - - - - - - - - - - - - > - > - 5 9.*.> = $ # O O X X . .                                           . . X X X O O + @ $ $ = g f.- - > 5 d 9 8 q I E.( q q q q q c U.V V Q.0.c t t t t Q T.J.J.V c I T.t.B -.].8.B T K.t.y t t t t t V T.V w q 9 8 8 8 8 5 5 5 - - - - - - - - - - - - > > > > - 5 1.) ; $ $ @ O O X X .                                               . X X X O O + @ $ $ $ g h.> > > 5 f 9 8 8 I U.~ q q q t t B T.I I Y.8.c t t t t I T.K.K.V c T R.z.B -.].8.B T R.v.v t t t t t B Q.I t t t ",
"q 8 8 8 5 5 5 5 - - - - - - - - - - - > 5 5 5 > - 5 9.=.= $ # @ O O X X .                                           . . . X X X O O @ # $ $ h d.- = > > > 5 8 8 8 W Y.( 8 8 q q t F.3.w I Q.8.t t t t ;.Y.L m t V U.0.c &.Q.3.B T Q.v.c t t t t t t L Q.V t w w q q 8 8 8 5 5 5 > - - - - - - - - > > 5 5 5 5 > - > 4._ = $ # @ O X X .                                                 . X X X O O @ # $ $ h d.- - > > 5 5 5 8 8 W U.~ q q r t c J.8.t I T.8.t t t t *.F.B v t V U.t.B *.].3.c T E.v.v y t t t t t V Q.I t y y ",
"q q 8 8 8 5 4 4 - - - - - - - - - - - - > 5 5 5 5 - h h.> = $ @ O O X X . . .                                         . . . X X X O O @ $ $ s a.= = = > > > 5 5 5 5 I U.~ 8 8 q q I Y.3.t I Y.;.t t t ;.J.c c V F.3.t Q T.*.t T Q.v.m t t q q q q t V ].T c c t t q q 8 8 5 5 5 - - - - - - - - - - - - > > 5 5 > = e h.> $ $ @ O O X . .                                               . . X X X O + @ $ $ s d.= = = - > > 5 5 8 8 I U.( q q q q V Y.9.c I T.;.t t t *.D.t t V J.t.c &.].;.c V U.y.c t t t t t t t V  XI c c c ",
"v.v.y.u.t.t.q.q.q.q.5.4.4.4.4.4.4.4.9.9.9.0.S.t.5 > e h.> = $ # @ O O X X X . . . . . . . . . . . . . . . . . . . . . . . . X X X O O @ # $ s a.= = = = = - > > 5 5 5 C U.~ 8 8 q t I T.8.w V Y.S.A.D.T.G.v T K.8.w Q T.&.t V T.v.c c 3.F.v.v.v.v.v.B.,XY.U.J.G.F.S.v.y.u.u.q.q.q.9.9.5.4.4.4.4.4.4.4.4.4.4.F.h.5 - e h.> = $ # + O X X . . .                                             . . X X O O @ # $ s d.= = = = > > > > 5 5 8 I Y.( 8 q q q I T.t.c I E.F.D.D.T.v.t V K.0.c &.Q.;.t V U.t.y w *.n.n.n.n.b.m.U.1XE.F.m.m.",
"8.8.8.3.3.;.*.*.&.) ) ( ~ ~ ~ ~ ~ ~ ~ ~ ~ ( 4.1.5 - h A.5 = = $ # @ O O X X X X X X X X X X X X X X X X X X X . . . . . . . X X X O O @ # # s s.= = = = = = = - > 5 5 5 C U.~ q w t t I U.8.t V *.-.;.-.T T R.r.t Q U.( q M U.t.y y t.R.;.Q Q Q Q @.*.;.3.8.8.8.3.;.*.*.&.) ) ( ( ( ~ ~ ~ ~ G G G G G G S G 2.=.5 - e A.5 = $ # @ O O X . . . . . . . .   .   .   . .           . . . . . . . X X O O @ # # s a.= = = = = = - - > 5 8 8 I U.~ 8 q t t T Q.t.c L @.@.*.*.V V J.r.t ( Q.*.t I U.8.w q 3.U.&.Q Q +.+.*.*.-.-.;.*.*.",
"q q q 8 8 8 8 5 4 4 - - = = = = = = = = = - - 5 5 - f A.5 - = $ $ # @ + O O O O O X X X X X X X X X X X X X X X X X X X X X X X X O O + # # s s.= = = = = = = = - > 5 5 5 I Q.&.t t t t I E.F.8.8.t.t.t.t.U.e.c &.T.Q q M G.8.w w 0.U.V r q q q w t t t c c c t t w q q 8 8 8 5 4 - - - = = = = = = = = = = - - - - f D.5 = = $ # @ O O X X X X X X X X X X X X X X X X X . . . X X . . . . X X X X O + # # s a.= $ = = = = = - - 5 5 8 8 C Y.( q t t c T Q.U.t.r.t.t.0.0.J.8.t ( Q.&.t I E.8.w w 3.J.V q q q t t t t c c c c c ",
"t t w w q q 8 8 5 5 > - = = = = = = = = = - - > 5 5 f S.8 - - = = $ $ # # @ @ @ O O O O O O O O O O O O O O O O O O X X X X X X X O O O @ @ u s.= $ $ $ $ = = = = - > 5 8 8 Q Q.*.t t y c ;.1XU.t.t.z.t.t.;.t &.W.Q q V J.3.q 9 3.F.M q w t t t t t t c c c c t t t w w q q q 8 5 5 - - = = = = = = = = = = - - - - f S.8 - = $ $ # @ O O O O O O O O O O X X X X X X X X X X X X X X X X X X X X X O O @ # u s.$ $ $ = = = = = - - 5 5 8 8 W E.&.t t c v ,.3XR.z.z.t.t.t.;.c ( T.Q w V U.9.w w 3.F.M 8 q q w t t t c c v v v v ",
"t t t t t w q 8 8 5 5 - = = = = = = = = = - - 5 5 5 M S.9 5 5 - - = = $ $ $ $ $ $ # # # # # # # # @ @ @ @ @ @ + + O O O X X X X X X O O @ @ s s.= $ $ $ $ $ = = = - > 5 8 8 w Q W.&.t c v v.iXr.c c c c c t &.T.Q q I Y.3.q 9 3.D.y 8 q q q t t t t t c c c t t t t t t t t q q 8 5 - - = = $ $ $ $ = = = = - - - 4 f S.8 5 - = = $ $ # @ @ @ @ O O O O O O O O O O O O O O O X O X X X X X X X X X O O @ @ u s.$ $ $ = = = = = - - 5 5 8 8 q Q E.&.t c v z.iXz.v c c c t t &.Y.Q w V Y.3.w w 4.F.d 8 q q q w t t c c v v v v B ",
"c c c t c m m y 8 5 5 - = = = = $ = = = = = - 5 5 5 M S.q 8 5 5 5 > - - = = = = = = = $ $ $ $ $ $ $ $ $ $ $ # # @ @ O O O O X X X O O O @ @ s 6.$ $ $ $ $ $ $ = = - - 5 8 8 8 q Q !.*.v v t.+XR v c c c c -.T.Q t I T.8.w w 3.D.e 8 8 8 q q t t c c v v c c c c c c c c c B L v q 5 5 - = = = $ $ $ $ = = = - - 5 5 M G.q 5 > > = = = $ $ $ $ # # # # # # # # @ @ @ @ @ + + O O O O O O X X X X X O O O @ @ u s.$ $ $ $ $ = = = = - 5 5 8 8 q q Q Q.-.c c ;.+Xo.B v v v c *.U.W q V U.3.w w 9.F.M 8 8 8 8 q q t t c v v B B B B ",
"B c c c B Y.E.U.y 8 5 - - = = $ $ $ = = = - - 5 5 8 V G.w 8 8 8 8 8 5 5 5 > - > - - - - = = = = = = = = = = $ $ $ # @ @ O O O O X O O O @ @ u 6.$ $ $ $ $ $ $ $ = = - 5 5 8 8 8 q &.8.v c 3.Y.v c c t t ;.T.W q Q Q.8.t w 3.D.y 5 8 8 8 8 q r c B z.U.t.v v v v v v v v L Q.Q.U.y 8 5 - - = = $ $ $ $ = = - - 5 5 5 M G.w 8 5 5 > - - = = = = = = $ $ $ $ $ $ $ $ $ $ # # # @ @ @ O O O O O X X X O O O @ @ i 5.$ $ $ $ $ $ = = = - - 5 5 8 8 q w &.8.v c Q T.K v v v v ;.T.I 8 C U.;.w w 3.D.d 8 8 8 8 8 q q t c t.R.v.L B K L ",
"K B B v I Q.;.Q.m 8 5 5 - = = = = = = = - - 5 5 8 8 C Y.t q q q w y q 8 8 5 5 5 5 4 4 - - - - - - - = - = = = = $ $ $ # @ O O O O O O O @ @ 0 A._ _ _ _ _ _ _ =.=.1.4.9.q.q.t.y.D.Y.z.B c *.J.c t t t *.Y.I w W T.,.8.T m J.M 8 8 8 8 8 8 q t c K ].U.Q.B B B B B B B v T OX;.E.m 8 5 5 - = = = = = = = = - 4 5 8 8 V J.t 8 8 8 5 5 5 5 - - - - - = = = = = = = = = = $ $ $ $ $ # # @ @ O O O O O O O O O O 0 S.=._ _ =.=.=.=.2.2.4.5.q.t.f.y.D.F.Y.l.v t Q E.B v c v ,.Q.Q w I U.*.;.V e F.M 8 8 8 8 8 8 q q t c T.J. XR P Y Y ",
"w.U B B T  X X@XV q 8 5 > - = = = = = - - 5 5 8 q q I Y.c t t t +.@Xn.t.t.t.t.0.0.0.9.9.4.4.3.3.3.3.3.3.3.3.) 6 = $ $ $ # @ O O O O O O O @ $ s k k k Z Z Z Z A A G ~ ~ ( ) &.*.3.t.;.v t &.S.t t t *.U.C q W U.+.;.].I d S.y 8 8 8 8 8 8 q V ;.8.+Xl.Q.L B R v.w.U L B T ].]. XM 8 8 5 > - = = = = = = - 4 5 8 q q V U.y q q q 8 8 8 8 5 5 5 5 5 > > > - - - > - - = = = = $ $ $ $ # @ @ O O O O O O O O O $ g Z Z Z Z Z Z A A A G ~ ~ ( ) &.*.3.0.-.c t Q R.v c c ;.W.Q w ( T.Q &.].V e D.w 5 8 8 8 8 9 q V *.,.].l.].T Y #.V.",
"$X#.T P B T $..XI q 8 8 5 > - - - - - - 4 5 8 q q t Q T.B c t t +. Xz.8.8.8.8.3.3.3.;.;.*.*.*.&.) *.@.Q W C 3.9.6 = $ $ # @ + O O O O O O O O O O @ @ @ # # $ $ $ = = = - - 5 8 8 q q t q ( S.t c v.Y.I 8 W U.+.*.T.Q q y G.V 8 8 8 8 8 8 V T.F.F.m.8.T.T T ;.rX*X%.o.R B T Q W.I q 8 8 5 - - - - - - - 4 5 8 q q t I Y.v t t t t r q q q 8 8 8 8 5 5 5 5 5 5 5 5 5 > > - = = = = $ $ # # @ + O O O O O O O O @ @ @ # # $ $ $ $ $ = = - - 4 5 8 8 q q q t Q U.v v D.W.Q w ( ].*.*.Y.I 8 w A.M 5 8 8 8 8 8 C T.F.n.n.,.].X.+.l.yX",
"8X$X=XU.B B T XXE.I q 8 5 5 5 > - - 4 5 5 8 q t c c +. XQ c v v v B v c c t r r q q q q 8 8 8 8 8 8 M ^.^.T.f ~ 4.6 = $ $ # @ + O O O O O O O O O O @ @ @ # # $ $ $ = = = - > 5 5 8 8 q q ( S.q m F.( 8 ~ U.W V T.Q q q q W v.M 5 5 8 5 f G.;.c B K @.E.*..X=X7X7X=X*XU.B c B W.U.I q 8 8 5 5 - - - 4 5 5 8 q t c c T ].T c c c @.@.B B m m m y y y y y y e e e e e w w 9 9 5 5 6 = $ $ # @ + O O O O O O O O O @ @ @ # # # $ $ $ $ = = - - 5 5 5 8 8 q q I U.t M F.&.q ( W.&.V E.W 8 8 5 C v.M 5 5 8 8 M K.3.y c B Q Q.;.@X*X7X",
";.-.t.].L B L Q 8.U.I 8 8 5 5 5 5 5 5 8 8 q w v #.Y L v.Q.T v v v v v v v c t t t t t w w w w w w 8 ~ fXj.eXG = ~ 9.6 $ $ # @ + O O O X X X X X O O O O O + @ @ # # $ $ = = = - > 5 5 8 8 ~ S.q q w 8 C U.W 8 W S.q 8 8 8 8 I D.f 5 5 y A.&.q w c v T Y.3.OX,.,.,.;.8.T.m c c I 8.E.Q q 8 8 5 5 5 5 5 5 8 q t B ,.Y L z.R.R v U XX3XR.R.R.R.U.U.U.U.J.J.J.J.B.B.m.m.F.F.D.v.v.y.y.=.> $ $ # @ + O O O X X X X O O O O + + @ @ # # $ $ $ = = - - - 5 5 8 8 I G.w 8 w w V U.Q q W S.q 8 5 5 5 I D.M 4 5 y D.;.t t t y I W.;.+X,.$.",
"V V +.R.L B v v c *.U.I 8 8 5 5 5 5 8 8 8 q t R ,XW.P B t.W.+.v v v v c c c t t t t t t w w w y y 8 N wXr.,XD = > 1.) $ $ # @ + O O X X X X X X X X O O O O O O O @ # # $ $ = = = - - 5 5 I D.q 8 8 8 ) S.q 8 C A.8 8 8 5 5 4 5.) 4 e y.&.8 8 q w t V Y.;.Q.R T T B Q Y.m y y c c -.W.Q q 8 5 5 4 5 5 8 8 q c #.1X].Y B z.R.+.K :.$.P L L L L B B B B B V V B B +.@.V M M y e w e 5._ = $ # @ + O O X X X X X X X O O O O O O + @ @ # # $ $ = = - - 4 5 5 C F.q 8 8 8 ~ D.q 8 C D.9 8 5 5 5 5 4.( - 9 t.&.q q q w t T W.-.R.I B ",
"v.v.J.R.B T t.t.*.y Q J.( M M M M M M C V V v B w.,XU.L B z.].D.v.v.v.v.v.v.v.y.y.y.y.y.y.v.v.!.P.5 5 =.3.) 6 > = ~ 1.= $ # @ + O O X X X X X X X X X X X X X O O O O @ @ # $ $ = = = - > C D.8 8 8 8 ) A.8 8 C t.8 5 5 5 5 - 2.) 4 =.t.8 8 8 8 q q V K.-.*XK.K.J.D.F.U.m V 3.0.-.v &.Y.*.M M M M M M M C V B B r.,XU.P K z.].m.n.v.v.v.v.v.v.v.v.v.v.v.v.v.v.n.<X5XT w q 8 5 5 > g q.= $ # @ + O O X X X X X X X X X X X X O O O O + @ @ # $ $ = = - - > M D.8 8 8 8 ~ A.8 8 C A.8 5 5 5 5 4 =.^ = ~ 9.8 8 8 8 q w I Y.+.{.n.n.",
"t.t.t.@.m 3.].F.U.t q I F.F.F.D.S.F.F.F.J.E.F.L B #..Xm.L K 8.z.z.z.z.t.z.z.t.t.t.t.t.t.t.t.r.F.u.5 > > > > > > = ~ 1.= $ # @ + O X X X X . . . . . . X X X X X X X O O O @ @ # $ $ = = - N A.8 8 8 5 ( A.8 5 N t.5 5 5 - - - 2.( - 1.3.8 8 5 8 8 8 M G.T t.v.z.z.t.e.( y &.Y.D.T.v t W F.F.D.D.D.D.F.F.F.Y.F.B B $.XXJ.P P r.v.v.v.v.v.v.v.v.v.y.y.y.t.t.t.t.v. XQ.V w 9 8 5 5 > f 5.= $ # @ + O X X X X . . . . X X X X X X X X X O O O @ # # $ = = - - f A.8 5 5 5 ~ A.8 5 N y.8 5 5 5 5 - _ ^ = ) =.5 5 8 8 8 q V K.V *.8.8.",
"I I I I V 0.U.8.U.t q q q q w w w w w t t B F.F.B v +.].F.K c v v v v v v v v c t t t t t t t w 8 5 5 5 > > > > = ~ ) $ $ # @ + O X X X . .           . . . . . X X X X O O O @ # $ $ = = ) Y.w 5 5 5 ~ h.8 5 C t.5 > - - > - =.( - =.*.5 5 5 5 5 8 M U.Q T Q T T Q I C C 3.F.3.U.c w q w q q q w w t t t c v.n.V v +.].J.P B v B B B v B v v v v c c c c c v v L B t w 9 8 5 5 > s 5.= $ # @ + O X X X . . . . . . . . . . X X X X X X O O O @ # $ = = = W Y.e 5 5 5 ~ h.8 5 N y.5 5 5 > - - _ ^ = ^ =.5 5 5 8 8 8 M R.I C V I ",
"U.J.G.G.D.8.D.F.3.w q q 8 8 8 8 8 8 q q w t m D.F.L B T R.n.B v v v v v v v v v v c t t t t t w 8 5 5 5 > > > ; > 1.~ $ $ # @ + O X X X .                     . . . X X X O O O @ # $ = = ^ F.9 - 5 5 ~ f.5 4 C t.> - - - > - =.^ - ) =.4 5 5 5 5 5 w v.J.J.Y.Y.Y.U.U.J.D.3.v.v.3.w q 8 8 8 8 q q q w w w w t t.n.B B +.'.m.L B B K B B B B B v v v v v c c c c c t t q 8 5 5 > > G 6.= $ # @ O O X X X .                 . . . . X X X X O O O @ # $ = = S b.e > 5 5 C f.5 5 N y.5 > - - - - _ ^ = ^ =.- 5 5 5 5 8 w t.F.F.F.J.",
"m c c y y t q q q q q q q 8 8 8 8 8 q q w t t m D.J.T v T R.R.m.J.J.J.J.J.U.U.U.U.J.F.b.b.b.n.v.v.t.t.9.5.3.3.1.t.1., $ $ @ + + O X X .                         . . X X X O O O @ # $ $ = > 5 - - > > ~ f.5 4 N t.- - - - - - =.^ = ) ) - 4 4 4 5 5 8 w y y y y d m m c c t q q q 8 8 8 8 8 q q q w w w w w q t t.F.T B T R.'.U.U.J.J.J.J.J.B.B.m.m.F.J.F.F.b.v.v.v.y.t.0.9.4.3.6.u.0 $ $ @ + O O X X .                         . . X X X X O O @ # $ $ = ; 5 - - > > N f.5 4 M t.5 > - - - = _ ~ $ ^ ) - - 5 5 5 5 8 q w y y c ",
"w w w w w q q q q q q q 8 8 8 8 8 q q q q q t t m n.U.V c B ;.;.,.,.8.8.8.r.r.8.8.8.8.3.3.3.3.3.*.*.*.) ) ~ ~ ~ D > $ $ # @ + O X X X .                         . . X X X O O O @ @ # $ $ = = = = - - ~ S.8 - M q.> - - - - - =.~ = ) ) - - - 4 4 5 5 8 9 q q w w w w w w w q q 8 8 8 8 8 8 q q q t t t t q q q t t.U.T B R r.w.r.r.r.8.8.8.8.8.8.8.r.z.t.8.3.1.=.*.) ) ) ~ G S D 6 $ $ # @ + O X X X .           .   .       . . X X X X O O O @ @ # $ $ = = = - - - A S.8 4 N f.5 > - - = = ) G $ ^ ) - - - 4 5 5 5 8 8 q w w ",
"q q q q q q q 8 8 8 q m 0.t.t.y.v.v.A.A.v.t.V t t v v.J.V c c m B B Q ;.;.X.+.+.T v t q q 8 8 8 5 5 > - - = = = $ $ $ # @ + O O X X . .                     . . . X X X X O O O @ @ # $ $ $ = = = - - ( =XC - f q.> - - - - - =.~ = ^ ^ = = - - 4 5 5 8 8 8 8 q q q q q q q q 8 8 8 5 y 4.t.v.v.n.n.n.v.v.0.M q q y t.U.T B P Y L B v v c c c t c c 8. XT t q 8 5 5 5 - - - = = $ $ $ # @ + O O X X . .         . .         . . X X X X O O O O @ @ # $ $ $ = = = - - C +XW 4 N y.5 - - = = = ) G $ ^ ) - - - - - 5 5 8 8 8 q q ",
"A.h.h.h.h.h.h.h.h.t.t.J.9.W ~ ( ( ( ( ) ( 0.F.V q t y t.!.U.Y.Y.T.R.#X+X5Xv..X XXXI t q q 8 8 5 5 5 > > = = = = $ $ # # @ O O X X X .                   . . X X X X O O O O @ @ # # $ $ $ $ = = = - - w G.N - M q.> > - - - = =.G $ Z h.=.2.1.5.5.q.q.d.d.f.t.t.h.h.h.h.h.f.t.t.q.0.9.D.3.~ ( Q &.&.&.&.( 3.b.M q t c t.W.l.R..XT B v v c t t t t c 8.*XL w 8 8 5 5 > - = = = $ $ $ # @ @ O O X X X .             .     . . X X X X X O O O @ @ # # $ $ $ $ = = = = - 5 F.W 5 N t.5 - - = = = ) ^ = G D.4.4.4.4.4.q.q.q.t.t.y.z.",
"( ( ( ~ ~ ~ ~ ~ ~ ~ ~ M 5 4 4 5 8 8 8 8 w T 0.F.V q q t V I I I I T  Xl.T.v.].#.Q.I q q 8 5 5 > - - = = = = $ $ $ # @ @ + O O X X X .           . . . . X X X X X O O O @ # # $ $ $ $ $ $ $ = = = - - 5 h.f - N t.5 5 > - - = G 6.= = h g N N C N C A ~ ~ ~ ~ ~ ~ ~ ~ ~ ~ ~ ~ ~ ~ A C M 5 5 8 8 8 8 8 8 q V 3.F.V q t c 8.,XuXwXX.B v c t t t t t t I J.y q 8 5 > - = = = = $ $ $ # @ @ + O X X X X .           . . . . X X X X X O O O @ @ # $ $ $ $ $ $ = = = = - - 5 y.I 5 N t.> - = = = = G q.6 5 N N N N N N N C I ~ ~ ~ ~ ",
"w 9 9 9 9 9 9 9 9 9 8 9 9 w w 8 8 8 8 8 m OX*.3.v.q q q q w w w t c F.Q.Q.8.Q.Q.].V 8 8 5 5 - - = = = $ $ $ $ # # @ @ + O O X X X X .   . . . . X X X X X X X O O O @ # # $ $ $ = = = = = = = = - - - 5 h.g - N U.;.C 5 - = = = ) 2.6 > > 5 5 8 8 8 9 9 9 9 9 9 9 9 9 9 9 9 9 9 9 9 9 9 9 w w 5 5 8 8 8 m ].&.3.v.q r t v #.J.XXP v c t t t t w q 8 C F.w 8 5 > - = = $ $ $ $ # # @ + O O O X X X X . . . . . . . X X X X X O O O + @ # $ $ $ $ = = = = = = = = - - - 5 A.I 5 N F.) N - = = = > ) 9.9 5 5 5 5 5 5 8 8 9 9 9 w w ",
"F.F.F.D.D.D.D.D.D.D.D.D.S.S.G.C 8 8 8 8 q G.W N D.q 8 8 8 8 q q w w y M m t m V m q 8 5 - - = = $ $ $ $ $ # # @ @ + O O O X X X X X X X X X X X X X X X O O O O @ # $ $ = = = - - - - - - - - - - - - 5 h.M 5 N Y.t.n.5 = = = $ = _ h.d.f.h.A.S.S.D.D.D.D.D.F.F.D.F.F.F.D.D.D.D.S.S.S.S.S.S.F.N - 5 5 8 w G.~ C b.q q t t v #.W.B t t t t t w q 9 8 M v.8 5 > = = $ $ $ # # @ @ + O O O O X X X X X . . . X X X X X X X O O O O @ # $ $ = = = = - - - - - - - - - > 5 8 S.C 5 N J.9.v.> = = = = > 1.D.f.h.h.A.A.D.D.D.F.S.S.S.S.",
"y y y e e e e e e w w w w w W G.C 5 5 5 8 h.I N v.9 8 8 8 8 8 8 8 8 8 8 8 8 8 8 5 5 > - = = $ $ $ $ # # # @ @ O O O O O X X X X X X X X X X X X X O O O O O @ # $ $ = = - > 5 5 5 5 5 5 5 5 5 5 5 5 5 5 h.M 5 W G.*.v.5 = = $ $ $ = 6 6 9 9 e e e e e e e e e e e e e e w e w e w e w w w 9 N A.N - 5 5 8 h.I N v.q q q q t T U.V v c c c y y t w w N y.5 - = = $ $ # # @ @ O O O O O X X X X X X X X X X X X X X O O O O @ @ # $ $ = = - - > > 5 5 5 5 5 5 5 5 5 5 5 8 D.C 5 N b.) v.5 = = = = = > 6 6 9 9 9 9 w e e e e e y y ",
"5 5 5 5 5 5 5 5 5 5 - - - 4 4 =.q.4 5 5 8 f.C M v.9 8 8 5 5 5 5 5 5 5 5 5 5 5 5 > - = = $ $ $ # # @ @ @ @ + O O O O X X X X X X X X X X X X O O O O O @ @ # $ $ = = - 5 5 8 8 8 8 8 8 8 8 8 8 8 8 5 5 8 A.M 8 M 0.t.&.5 = = = $ $ $ = = - - - - 5 5 5 5 5 5 5 5 5 4 5 5 5 4 5 4 4 4 5 4 - - = ~ 4.- 5 5 8 h.C M v.q 8 8 q q M U.F.J.J.F.F.F.F.D.D.D.F.0.> = $ $ # # @ + O O O O O X X X X X X X X X X X X X O O O O @ @ # # $ $ = = - 5 5 5 8 8 8 8 8 8 8 8 8 8 8 8 8 8 D.C 5 w 4.4.) > = = = = = = = = = - - - - - 5 5 5 5 5 8 ",
"8 5 5 5 5 5 5 5 5 5 - - - 4 4 ~ 9.4 5 5 8 f.A M v.8 5 5 5 5 5 5 5 5 > > - - - - = = $ $ # # @ @ @ O + + + O O O O X X X X X X X X X X X O O O O @ @ # # $ $ = = - > 5 8 y m y t y y t t c t q q 8 8 8 8 S.I 8 8 8 5 5 - = = = = = = = = - - - 5 5 5 5 5 5 5 5 5 5 5 5 5 5 5 5 5 5 5 4 > - - - N 4.- 5 5 8 f.C M v.q 8 8 8 8 9 y M M M f y y e e e e 9 6 = $ $ # @ + O O O O X X X X X X X X X X X X X X O O O O @ # # $ $ $ = = - > 5 8 y y y t y y t t c t t q q 8 8 8 D.C 5 5 5 5 5 - = = = = = = = = = - - > > 5 5 5 5 5 8 8 ",
"8 5 5 5 5 5 5 4 - - - - - - - ~ 4.4 5 5 5 f.C M y.8 5 5 5 5 5 5 > - - - = = = $ $ $ # # @ O O O O O O O + @ O O O X X X X X X X X X X O O O @ # # $ $ $ $ = = - 5 5 8 Q W.E.t.8.U.U.8.F.U.G.B r q q 8 q 0.D.y 8 5 5 5 - = = = = = = = - - - - - - - 4 4 5 5 5 5 5 4 4 4 5 4 4 4 4 - - - - - = N 4.- 5 5 8 f.C M v.9 8 8 5 8 5 5 5 5 5 5 - - - - - = = $ $ # @ @ O O O X X X X X X X X X X X X X X X X O O + @ # # $ $ $ = = = - 5 5 8 Q E.R.t.8.Y.E.3.F.Y.G.B t w q q 8 3.u.9 5 5 5 5 - - = = = = = = = = - - - - 5 5 5 5 5 8 8 ",
"C M M M M M M f f f f f f 8 - G 4.- 4 5 5 f.C M y.8 5 5 5 5 5 - - - = = = $ $ $ # # @ O O O O O O O O @ @ # @ O O X X X X X X X X O O O @ @ # $ $ $ = = = - - 5 5 8 q 8.J.t.F.v.r.J.J.Q.8.].R V M y q q t v.A.w 5 5 - - - = = = = = - - 8 ~ M f f f f f M M M M M M M M M M M f f f f h e 6 = N 4.- 4 5 5 f.A M v.9 8 8 5 5 5 5 5 5 - - - - = = = = $ $ # @ + O O X X X X X . . . . . . . . X X X O O O @ # # $ $ $ = = = - - 5 5 8 q 8.F.0.U.J.r.J.F.Y.8. XT L L m q 8 q 9.u.w 5 5 5 > - = = = = = = = 6 C M f f f M M M M C C ",
"m.F.F.D.D.v.v.v.z.t.t.t.D.4.- A 4.- 5 5 8 f.C M v.8 5 5 5 5 5 - - = = $ $ $ # # @ @ O O O O O O O O O @ 0 ^ 7 @ O X X X X X X X O O + @ # # $ $ = = = = - > 5 5 8 q t 8..X'.m.n.].XXV..XU.].t.F.F.U.&.t q y v.y.w 5 5 - - - = = = - - - f E.v.t.t.y.v.D.D.F.F.G.G.G.G.F.F.D.D.A.v.y.t.t.v.1.- N 9.4 5 5 5 f.C f v.8 5 8 8 8 8 5 5 - - = = = = $ $ $ $ # @ O O O O X X X . . .         . . X X X O O O @ # # $ $ = = = - - > 5 5 8 q t 8..X XJ.J.].XXB. XE. Xl.U.R.E.( q 8 w t.v.y 8 5 5 - - = = = = = - e J.n.t.z.v.v.D.D.D.D.D.",
"w w q 9 9 8 8 5 5 5 5 5 f f.- G 4.- 4 5 8 f.C M v.8 8 8 8 q 5 - - = = $ $ # # @ @ @ O O O O O O O O @ # 1.y.1.# O X X X X X X X O O @ @ # $ $ = = = - - > 5 5 8 8 q t V Q @.T X.,.,.#.;.;.@.B m B -.].;.t q t 0.u.9 5 5 - - - - - - - > 5 w 8 5 8 8 9 9 q w w w w w w q 9 8 5 5 5 5 > - h f.5 C 9.4 5 5 5 f.C f v.8 8 8 8 w 8 5 5 - - = = $ $ $ $ $ # @ @ O O O X X X X . . .         . . X X X O + @ # $ $ $ = = = - - 5 5 5 8 8 q t B +.-.X.+.,.,.X.-.;.&.L B V +.E.( q q t t.v.y 8 5 5 - - - - - - > 5 e 9 9 9 q q w w w w y ",
"q q 9 9 8 5 5 5 5 5 4 - e f.5 G 4.4 5 5 8 f.C M v.8 8 8 C U.M 4 - = = $ $ $ # # @ @ O O O O O O O @ @ # g S.g @ O X X X X X X O O + @ # $ $ > 0 0 e h f f M M N C I I I T +.-.-.-.-.#.+.Q T T T R v @.].;.r q w 9.y.w 5 5 5 5 5 5 > 5 5 5 5 5 5 8 8 9 9 q q w w q q 9 8 8 5 5 5 > - - - e f.5 S 9.4 5 5 8 t.C M v.8 8 8 m U.Q 5 5 - = = = $ $ $ $ # # @ @ + O O O X X X X . . .       . . X X X O + @ $ $ $ , e e e f f M M M N C V I I Q @.-.-.@.@.@.+.Q Q Q Q V t Q W.-.t t c t.v.y 8 5 5 5 > > > 5 5 5 5 8 8 9 q q w w w w t ",
"t w q q 8 8 8 5 5 5 4 - y t.5 G 4.4 5 5 8 f.C N v.q 8 8 C ].M 5 - - = = $ $ $ # # # @ @ @ @ @ @ @ @ # # ; 5.; @ O X X X X X X O O @ # $ $ 9 t.t.t.t.y.v.D.J.J.U.U.U.U.E.R.W.].].Q.Q.Q.W.E.E.W.]..Xt.c +.].-.q q t t.F.y 8 5 5 5 5 5 5 5 5 5 8 8 8 8 q q t t t t t w q 8 8 8 5 5 5 5 5 5 f A.8 W 0.5 5 5 8 t.C M b.q 8 8 m ].Q 5 5 - - = = $ $ $ $ $ $ # @ @ @ O O O O X X X . .     . . X X X O O @ # $ $ 6 q.y.y.y.v.D.F.J.U.U.U.U.Y.E.W.].].].].Q.Q.Q.Q.Q.Q.E.Q.3.t Q ].,.c t c t.v.y 8 5 5 5 5 5 5 5 5 8 8 8 q q t t t t y y ",
"n.n.v.v.v.M 8 8 8 5 5 4 f t.5 ~ 9.5 5 5 8 A.E N b.w q 8 t D.y 5 5 > - = = $ $ $ $ $ $ $ # # # # # # $ $ > 5.; @ O X X X X X X O + @ # $ = 5.^ 5 5 5 8 9 w c m B m B B B V V V V V V V V V L L P #.].8.t W W.;.c t c z.F.m 8 8 8 8 5 5 5 5 8 8 q *.t.v.v.D.v.n.D.D.v.v.t.t.M 8 8 5 5 5 5 f A.9 W 0.5 5 5 8 h.I M b.q 8 q t F.V 5 5 > - - = = = = $ $ $ $ # # # @ @ O O O X X X . .   . . X X X O + @ # $ = 4.) 6 6 5 8 9 y c m m m m B B V V V V V V V V V V B B T !.8.c +.].r.c c c t.v.y 8 5 5 5 5 5 8 8 8 8 t 3.v.v.v.v.v.v.v.",
"+.Q Q Q J.;.q 8 8 5 5 5 f A.5 ~ 9.5 5 8 8 v.~ C b.t q q y F.y 8 5 5 5 > - = = = = = $ $ $ $ $ $ $ $ $ $ , d.; @ O X X X X X O O O @ # $ > q.9 > > 5 5 8 q t L B v v c c v v v v v v v B B B B K v Q E.3.w Q ].t.K v m t.Y.A.A.y.u.q.=.8 5 8 8 y Y.t..Xt.*.-.-.*.&.( Q Q F.3.q 8 8 8 8 5 f S.9 ~ t.8 8 8 8 h.~ N b.w q w t J.I 8 5 5 5 > - - = = = = = $ $ $ $ $ # @ @ O O X X X . . . . X X X O + @ # $ > q.u - > 5 5 8 q y P B v v c v v v v v v v v B B B v v c Q ].t.B +.].t.B v c 8.U.v.y.y.y.u.3.w 8 8 q m W.t..Xt.&.&.&.&.",
"Q Q T B v.8.q q 8 8 8 5 f A.8 ~ 0.5 8 8 8 A.~ C F.t w q y J.m 8 8 8 8 5 5 > > - - = = = = = = = = = = = 6 d.; @ + O X X X X O O @ # $ $ > q.9 > 5 5 8 8 q 3.5XW.n.n.n.n.n.n.n.n.n.b.m.m.B.V.U.J.n.V I R.8.c @.=XR.w.B y Q ( ( ~ W W y.0.w 8 8 m T.8..X@.B +.+.Q Q Q Q m t.8.q q 8 8 8 8 M S.9 ~ t.8 8 8 8 A.~ C F.t w w t G.I q 8 8 8 5 5 5 > - - - = = = = = $ $ $ # @ + O X X X X . X X X O O + @ # $ > 9.u > > 5 5 8 q 3.3X Xm.m.m.b.m.m.m.m.m.m.m.m.B.B.B.B.b.T +.].z.c +..XR.w.B y W ( ( W W W y.t.y q q m '.8. XQ m Q &.*.",
"R.R.{.v.v.t.t t q 8 8 8 &.t.8 ~ t.8 8 8 q D.( V F.t t w m U.m q q w q w y e w 9 9 9 9 9 8 8 8 5 5 5 6 - 6 d.> @ + O O X X X O O @ @ $ $ > q.0 > 5 5 8 8 q 0.0XQ.t.t.t.t.t.t.e.e.e.t.t.t.t.t.r.r.n.U.V I E.t.P ,.iXrX+.t q 8 8 8 5 5 8 3.y.y 8 y t.J.J.T ;..XR.R.R.R.[.v.v.t.t t q q 8 8 &.h.8 ~ t.8 8 8 8 A.( V J.c t w w S.I r w w q w y e w w 9 9 9 9 9 6 5 6 , , ; $ @ + O X X X X X X X O O O @ $ $ ; t.h > > 5 5 8 q 8.uX].t.t.t.t.t.t.t.t.t.t.t.t.r.r.r.r.m.W.I T ].v.I -.tXuX#.t q 8 8 5 5 5 8 9.S.M q c t.F.n.I &..XR.R.",
"Y Y z.J.F.t.c t t q 8 ( F.M 8 ( y.8 8 q q D.( V J.c t t B Y.V t t t V F.U.F.b.v.v.v.v.A.A.A.A.A.A.v.F.N , g.1 # @ + O O X O O O O @ # $ = =.1.e e e d f M I ,.+.I I I I I I I I I I I T T +.w.T v t.U.V I +XF.U F.3Xv.t w 8 8 8 5 5 5 8 *.F.V t c L >.#.8.U.L L P P l.U.F.v.c t t q 8 ~ D.f 8 ~ v.8 8 8 q D.( I U.v t t t G.Q t c t B F.J.F.F.D.D.D.D.D.D.A.A.t.f.t.A.0 # @ + O X X X X X X X O O @ # $ = ) 5.h e e h f M I 8.+.I I I I I I I I I T T T Q +.r.#.K z.E.V I +XF.L v.,Xn.t w q 8 5 5 5 8 8 3.F.I t c B $.+.8.E.P P ",
"#.o.n.U.J.v.B v t q ( J.M 8 8 M F.( q q q D.( C J.c c c B W.T c v T Q.n.B m d y y y y y y t w w w 9 0.~ , h., # @ + O O O X O O O @ # $ $ , 1.t.y.y.v.v.b.F.J.U.U.U.U.Y.E.E.E.E.!.!.!.!.!.'.3Xr.c v z.R.T *.-.B B X.R.t.y q 8 5 5 5 5 5 8 *.U.&.T #.2X.Xr.U.X.#.#...v.W.J.n.B v t w ( G.M 5 8 f F.) q q w D.&.I U.B c t y J.Q c v R T.v.m m y y y y y y y w w 9 5 5 q.s # # @ O O X X X X X X O O + # $ $ > 1.y.y.v.v.b.b.F.U.U.Y.Y.E.E.!.!.!.!.!.Q.W.Q.Q. X9Xm.v v t.R.I Q &.B B R J.t.t 8 5 5 5 5 5 8 8 *.R.&.T T 1XoXw.'.+.#.",
"M.M.oXR.U.D.K v c *.T.I 8 8 8 8 V F.*.t t F.( V J.m v v w.].R B ;.:XJ.B c t t w q 8 8 8 8 8 8 5 5 4 4.~ 6 h., $ # @ O O O X O O O O @ # $ $ ; , 6 6 6 9 9 w w w w w w y y y y y y y c c c m Q B t c B m..XR v c y t V J.U.d 5 5 5 5 5 5 8 q -..X=X#.@Xn.8.XXoX,X'.N..XR.R.F.K v c *.Y.C 8 8 8 8 M F.;.t t G.&.I R.B v c ;.].T c +.+XF.m t w w w w q q 8 8 5 5 - - - q.h $ # @ + O X X X X X X O O + @ # $ $ ; , 6 6 5 9 9 9 w w w w w w y y y y y y y c c m Q B t t y t. XI c c c t m F.U.y 5 5 > 5 5 5 8 8 &.].XX+.+Xm.,.*XXX2X",
"aX[.N.>.R.F.8.r.z.Q.Q q q 8 8 8 8 V U.V 0.U.m &.J.B B w.oX,.L t.qX].X.P B t t t q q q t t q 8 8 5 5 4.~ 6 h.6 $ # @ O O O O O O O O + @ # $ $ $ = = = - > > 5 5 5 5 5 5 5 8 8 8 8 8 8 8 8 8 8 q q t c B ].( t t w q q C y.y > > - - > 5 5 8 t &.].R U.&.T w.N.8XsX>XN.>.R.J.r.z.v.Q.I q 8 8 8 8 8 V J.V 0.E.V -.R.v v ,.{.;.c -.#XQ.R L B t t t t t q w 8 8 5 5 - - q.g $ $ # @ O O X X X X X X O O + @ # $ $ $ = = = ; > > > 5 5 5 5 5 5 5 5 8 8 8 8 8 8 q q q w t t c Q.( t t t w 8 M 0.e > - - > > 5 5 8 q T W.T U.-.T 8.N.yX",
"tX).%...U.F.XXU.v.Q t q q 8 8 q q t J.F.F.M Q R.Q B G.1X8.K $.<XQ.%.Y.Q.F.;.z.t.t.t.z.Y.D.t 8 8 8 5 9.^ 5 h.6 $ $ @ O O O X X X O O O + @ # $ $ $ = = = = - - - - - > > 5 5 5 5 5 5 5 5 5 5 8 8 8 q t c U.Q q 8 8 8 8 8 5 > - = = = - > 5 8 q m K.I F.( B T %._.0X_.>...U.R.*XT.D.Q q q 8 8 8 8 q t F.F.J.V Q R.&.c F.2Xw.B +..XP.Y J.E.F.,.A.A.A.v.z.R.*.8 5 5 - > q.g = $ $ @ O O X X X X X X O O O + @ # $ $ $ = = = = = - - - - > > > 5 5 5 5 5 5 5 5 5 8 8 8 q q t U.( q q 8 8 8 5 5 - = = = = - > 5 8 8 y F.I J.&.V T #.-X",
"C.x.<.#.R.R..XT c t t q q 8 8 q q m ].v.y I R.+.t 8.wXv.L $.+Xv.P T  Xz.E.8.J.V.V.z.8.J.t.t 8 8 5 5 9.) 5 h.5 $ $ # O O O X X X X O O O + @ @ # # $ $ $ $ = = = = = = = = = - - - - - - - > 5 5 5 8 q w G.I 8 8 5 5 5 > - = = = = = = - > 5 8 y F.V F.;.I +.#.k.Z.k.,.#.W.].@X+.v t t q q 8 8 8 8 m ].v.c I R.&.w -.4XF.L #.].r.m V Q.t.Q.r.J.z.t.0.9.D.( 5 5 5 5 > q.N = $ $ # O O X X X X X X X X O O + @ @ # # $ $ $ $ $ = = = = = = = = = - - - - - - > 5 5 5 8 8 w G.( q 8 8 5 5 > - = = = = = = - > 5 8 y F.V B.8.Q @.$.<.",
"oXoX{.'.oXoXR.B t t q q q q q q c F.0.q I R.&.t *.XX8.B @.{.t.B B L Y.].J.J.R.z.m.].R c t q 8 8 5 5 9.) 8 A.5 = $ # @ O O X X X X X X O O O + @ @ @ # # # $ $ $ $ $ $ $ $ $ $ $ = = = = = = - - 5 5 8 9 F.C 8 5 5 5 > - = = = = = = = = - 5 5 w 0.m t.R.R.'.'.{.oX.XoX]..X.XU.L c t w q q 8 8 8 y F.0.w I E.( 9 ( .Xr.L #.{.r.c y m F.].R.K.Q.X.c t q q 8 8 5 5 5 5 f.N = = $ # @ O O X X X X X X X X O O O + @ @ @ # # # $ $ $ $ $ $ $ $ $ $ $ = = = = = = - - > 5 5 8 S.I 8 8 5 > - - = = = = = = = = - 5 5 w 0.V z.'.'.'.'.'.",
"+.X.T R P L B c t t q q q q q m F.8.8 C R.( q &..X8.c @.'.8.v v c v B T F.J.T v v e.W.I q 8 8 8 5 5 9.) 9 A.8 = $ # @ O O X X X X X X X X O O O O O O O @ @ @ @ @ # # # # # # # $ $ $ $ $ $ = = - - 5 8 A.C 5 5 5 - - = = = = $ $ $ = = - - 5 8 w q y V L P R T X.X.Y R P L v c t t q q q q 8 y D.9.q I R.&.q I '.8.v &.{.8.v y t y m I J.].;.E.e.c q q 8 8 8 5 5 5 t.N = = $ $ @ O O X X X X X X X X X X O O O O O O O @ @ @ @ @ @ @ # # # # # $ $ $ $ $ $ = = - - 5 8 D.C 5 5 5 > - = = = = = $ = = = - > 5 8 w w c V L T T R ",
"L B B B B v c t t q q q q q m F.3.8 C J.( q Q ].8.c +.'.8.v c t t y V F.F.V c c c v 0.U.M 8 8 8 8 5 9.) 9 A.8 = $ # @ O O X X X X X X X X X X O O O O O O O O O O O O O O O O O @ @ @ @ # $ $ $ = = - 5 h.N 5 5 > - = = = = = $ = = = = = - 5 5 8 9 q t t v v B B B B v v v c t t q q q q q y D.3.8 C K.( q I '.;.t Q '.8.c c y t t m v.W.T v &.].;.r q q q 8 8 5 5 h.C - = = $ # @ O X X X X X X X X X X X X X O O O O O O O O O O O O + + O O O @ @ @ # # $ $ = = - 5 h.C 5 5 > - - = = = = = = = = = = - 5 5 8 q t t c v B B ",
"B B B B v c c t t q q q q m J.3.8 C J.( 8 I ].8.c +.'.8.v c t t t t Q J.V t V L c t t ;.F.M 8 8 8 8 9.) 9 D.8 = $ $ @ O O X X X . . . X X X X X X X X X X X X X X X O O O O O O O O O O O @ # $ $ = = > h.M - > - - = = = = = = = = = = = - > 5 5 8 q w t t c v v v v v c t t t q q q q q M F.3.8 C J.( 9 I }.,.t T R.;.t y y t t t I J.&.c c t I Y.*.q q q q 8 8 8 h.N - - = $ $ @ O O X X . . . . . . X X X X X X X X X X X X X X O O O O O O O O O O O O @ # $ = = > h.N - > > - - = = = = = = = = = = - > 5 8 9 q w t y c v ",
"v v v v c c t t w q q q m J.8.q I J.Q 8 I ].3.t Q ].8.c c y t Q ;.I c Q I t &.].T t t t ;.U.V 8 8 8 q.&.w S.9 = = $ @ O O X X . . . . . . . . . . X . X X X X X X X X X X X X X X X X X O O @ # $ $ = - t.M - > - - - = = = = = = = = = = - - 5 5 8 9 q q t t t c c c c t t t w q q q q m J.9.q I J.~ 9 C R.8.t Q R.*.w t t c Q 3.T c V J.9.t t w I Y.;.t t t q q 8 h.C - - - = $ # O O X X . . . . . . . . . . . X X X X X X X X X X X X X X X X X X X O O O @ $ $ = - t.N - > - - - = = = = = = = = = = - > 5 5 8 8 q w t t y ",
"I I T I I L V V m m m V F.8.q I R.Q q I `.8.t Q R.;.y y t y c v..XJ.t 8.R.V c t.R.I t t t ;.U.V 8 8 q.&.w S.9 = = $ @ O O X X . . . .                         . . . . . . . . . . . X X X X O O @ $ $ = q.g - 5 M f 8 8 5 5 5 6 6 6 6 5 5 8 9 9 w e y y b m V V V V V V V V V m m M m V J.0.w I K.( 9 C E.8.t Q ].*.w w w t c v.+X].P c ( R.&.t t r I T.8.v v T t q A.C 5 4 - = $ $ @ O X X X . . .                   . . . . . . . . . . . . . . . X X X X O O @ $ = = q.M - > f M 9 8 5 5 5 6 6 6 6 5 5 9 9 w w y y f M m V V ",
"R.R.W.'.=X].R.R.R.U.J.U.;.8 W R.+.t I ].8.t Q '.;.t y c c m m B -.U.y t ;.J.I t 9.R.T t t t ;.J.t 8 0.=.w S.9 - = $ # O O X X X . . .                                             . . . X X O O @ # $ = q.f - 5 F.T.A.A.h.h.f.f.f.f.h.h.h.A.D.S.S.G.G.U.U.Y.Y.T.T.W.Q.].@X].R.U.U.U.U.U.3.t ( W.&.w C R.3.t Q ].,.t y y y y m B &.].R.9.r I U.&.t t t Q ].+.T ].V w D.W 5 5 5 - = $ # + O X X X . . .                                               . . X X O O @ # $ = q.g - 5 S.Q.D.A.A.h.h.h.h.h.h.h.A.A.D.S.S.G.G.J.Y.Y.Y.Y.",
"V m m V Q.8.V V V m m c q I R.+.t T ].t.v &.].;.y 8.P.F.G.J.J.J.Q.F.t w q *.U.V w 3.R.T t t B K.m 8 0.*.w S.w - = $ # @ O O X X X . .                                                 . . X X O + # $ = t.g - > h f 9 9 9 8 8 5 5 5 5 5 9 9 9 9 w w e y y y y b M m V V Q.8.V m c c y y q Q `.*.t I Q.8.t W ].3.t 3.U.G.F.F.G.F.T.U.,.].;.t I U.&.t y c G.;.T .XI t F.W 8 8 5 - - = $ @ + O X X X . .                                                 . . X X O + # $ = q.g - > f f w 9 9 9 9 8 8 6 6 6 9 9 9 9 9 w e y y y M M ",
"w w w t U.*.t t t r t t Q R.Q w T ].z.B -..X8.t c J.3.V V V V V V m q q q 8 *.R.I t J.3.t t B J.M 8 t.*.w S.w - = $ # @ O O X X X X . .                                                 . . X O + @ $ = 4.1.> - - - > - - - - - = = = = = - - - - 5 5 5 5 8 8 8 q q q t Y.*.t w q q q q W R.+.t T ].z.m Q W.3.t y J.t.I I V C V V V c &.].;.t 3.v.t y c F.;.V Q.V t F.( q C W N 5 = $ # @ + O X X X X . .                                                 . X X O @ $ $ 1.2.5 - - - > - - - - - - = = = - - - - - 5 5 5 8 8 q q ",
"q q q w U.&.t t t t t c R.&.w I '.z.K T  Xz.B 3.@.U.Q t w q q 8 8 8 8 8 q q w ;.E.I v.3.t t V K.m q t.3.y F.e > - = $ # @ + O O X X X . .                                                 . X X O @ $ $ 6 9.^ - - - > > > > - - = = = = - - - - - 4 5 5 5 5 8 8 8 9 q t U.*.r w q q q t J.*.t R ].v.B L '.0.c *.+.J.;.t t w q q q w t c +.].;.*.b.t y c F.;.B W.V c P.( m T.v.Y.f > = $ # @ + O O X X X . .                                               . X X O + # $ 6 9.=.5 > > > > > > > > > - - - - - - - > 5 5 5 8 8 9 q ",
"w q q q J.&.q t t t t B R.V c R.z.T #.+.+X@.L Q.v.U.+.t w q 8 8 8 8 8 8 8 q t t v.t.v.3.t t V Y.m q y.3.y G.e > > = $ # # @ @ O O O X X X .                                               . X X O + # $ $ 6 4.) 5 5 5 5 5 5 > > > > > > > - > > 5 5 5 5 5 5 5 8 9 8 q w U.&.q q w w w y J.V c U.n.Q +.X..XQ m F.v.F.-.t t w q q q q w y c 8.E.3.b.t y c F.;.B E.V t U.&.V Y.Q U.N 5 > = $ # @ @ O O X X X .                                                 X X O + # $ = 6 9.2.8 5 5 5 5 5 > > > > > > > > > 5 5 5 5 5 8 8 q w ",
"&.q 8 q G.( q r t t c B R.T B '.+.m.].+.+X@.L U.t.U.+.t w 8 8 5 5 5 5 8 8 q t c r.z.D.3.t t V Y.V w y.3.c U.y 5 > = $ $ $ $ # # @ O O X X . .                                             . X X O + @ $ $ = 5 9.y.t.u.y.u.u.u.q.q.q.q.q.q.q.q.f.h.h.h.h.A.h.S.G.=.8 8 q G.( q q w t t m U.I B W.@.m.oX%.+X@.B n.t.F.*.t w q 8 8 8 q w y c @.E.8.F.c y c F.;.B E.V c U.*.m F.Y.Y.m 5 > = = $ $ # # @ O X X . .                                               . X X + @ $ $ = 5 9.A.t.u.h.u.u.t.q.u.q.q.q.q.q.d.f.h.h.h.h.A.D.G.G.",
"m 8 8 q G.( q q t t c R '.+.P W.Q v.U.T OX@.L U.z.Y.+.t q 8 5 5 5 5 5 8 q t v v t.v.D.8.c y V Y.V t v.8.m U.y 5 > = = $ $ $ = ; $ # O O X X . .                                             . X X O @ # $ = = 5 f N N N N N g g f f f f h f h h g g g N N N S.q.f 5 8 8 F.( q q t t c L E.Q B E.@.v.E.+.+X@.B F.t.J.*.t w q 8 8 8 q w t c @.E.8.F.c c c F.;.V T.V c Y.&.t c B B t 8 5 - = = = > $ # @ O X X .                                               . X X O @ # $ = = 5 f M M N N N N g N g f f h f f f h h f M N N A.A.",
"5 8 8 8 S.~ q q t c B %.XX$.Y '.+.v.v.Q +Xr.Y U.z.T.&.t q 8 5 5 > > 5 8 q t 8.J.OXv.F.9.c c V T.V t v.8.m U.d 5 > - = = = > 4.u.N 6 , : : & & & % % % % % % # # + + + + + + + + + + + # % % % & & ; : 1 6 6 9 9 9 9 9 9 9 9 9 9 9 9 M 6 = = $ $ = = = = - - q.~ - 5 5 8 S.( q q t t v X.oX#.L R.@.t.m.+.*Xl.Y J.v.U.*.t w q 8 8 8 q t &.F.!.Q.w.U.v c c F.;.V W.V c Y.&.m y.U.S.m 8 5 > = > 4.y.N 6 < 1 : & & & % % % % % % % % # % % # # % % % % % # % % % % & & ; : 1 6 6 9 0 9 9 9 9 9 9 9 9 9 e N 6 = $ $ $ $ = = = - - 1.=.",
"5 5 5 8 S.~ 8 q t v U V.tXN.#.].+.v.v.v.,X*Xw.Y.z.T.+.t q 8 5 > - > 5 8 q y U.J.].F.F.0.c c V T.V t D.9.m Y.d 5 5 - = = = h v.0.J.0.0.9.5.6.6.6.6.6.2.6.p.i.i.2.2.' ' [ [ [ [ [ ' [ [ [ [ [ i.i.6.6.a.d.d.f.h.A.A.A.A.A.A.A.h.y.y.A.T.M $ $ $ $ $ $ $ = = - q.( - 5 5 8 S.~ 8 q t c P N.rXN.Y R.+.t.n.r.1X*Xw.K.v.R.*.t w q 8 8 8 q t D.J.J.].r.U.v c c F.;.V T.V v Y.*.I  Xz. XV 8 5 > - e v.0.J.0.9.5.5.5.5.p.p.p.p.p.p.p.i.i.i.i.i.[ [ [ [ [ [ [ [ [ [ i.i.p.p.s.d.d.h.h.A.D.D.S.S.S.S.S.D.D.A.S.~.M = $ $ $ $ $ $ = = - 2.=.",
"- > 5 5 S.E 8 q r v ..1XgX[.%.].+.z.v.v.+X*Xz.U.z.T.+.w 8 5 5 - - - > 5 9 t U.Q.@XF.F.0.c c V T.L t S.0.m Y.d 5 5 - = = = > =.t.f > ; $ $ # # # @ @ @ @ @ @ + + + o O O O o o o o o o o o O O + @ # $ $ = ; > > 6 5 5 6 5 5 5 5 5 5 h > $ # # # # # $ $ = = q.~ - - 5 5 D.~ 8 q t c ..,XdX'.o.R.+.t.n.v.@X,Xv.U.n.E.*.t w q 8 8 8 q t v.]. XQ.r.U.v v v F.;.V Q.V v Y.;.I +XQ.OXV 8 5 > - > ) t.f ; ; $ $ # # # # # # @ @ + + + + + O O O o o o o o o o o O O + @ # $ $ ; > > 6 5 8 9 9 9 9 9 8 5 9 f > $ $ # @ # # # $ $ = =.) ",
"- - - 5 D.E 8 8 q c w.,X`.7.X.].@.z.n.8.Q.R.$.U.z.T.+.w 8 5 5 - - - > 5 9 w Q t.].n.F.0.c c V T.I c S.0.m Y.d 5 5 - = = = = = = $ $ # @ O O O O O O O X X X X X X X . . .                 . . X X X O O @ # # $ $ = = = = = = = $ $ $ # # @ O O O @ @ # $ = 5.~ - - - 5 A.E 8 q q c e.,X`.w.T W.+.t.m.,.].R.,.U.n.E.*.t w q 8 8 8 q t T 0.F.T.r.U.v v v F.;.V Q.V c Y.-.c 0.+X*.w 8 5 - = = = = $ $ # @ O O O O O O O X X X X X X X X . .                 . . X X X O O @ # $ $ = = = = = = = = = $ $ $ # @ O O + + @ # $ $ _ _ ",
"= = - 5 A.A 5 8 q *.Q.,.U U Y ].+.z.J.].]..XF.J.t.T.&.w 8 5 > - = - > 5 8 q t c z.v.F.0.c c V ].T c S.0.m Y.d 8 5 - = $ $ $ $ $ $ # @ @ O O O O O O O O O O O O X X X X . . .           . . . X X X X O O O @ # $ $ $ $ $ $ $ $ # # @ @ O O O O O O O @ # $ 4.~ = = - 5 h.A 5 9 q ;.OX8.Y Y Y R.+.t.J.].].oXR.U.v.R.*.t w q 8 8 8 q t t c &.T.r.U.v c c F.;.V Q.V c U.*.t I U.y 8 8 5 - = = $ $ $ # @ @ O O O O O O O O O O O O X X X X X . .         . . . . X X X O O O @ # $ $ $ $ $ $ $ $ $ $ # # @ O O O O O O O + @ # _ ^ ",
"$ = = - h.N 5 8 ( J.T v B B P Q.+.z.R.+X$.r.E.K.t.T.+.q 8 5 > - - - - 5 8 q t c z.v.F.0.c c v v.Q.*.A.9.m Y.m 8 5 - = $ $ $ # # # @ @ @ @ @ @ @ @ @ @ @ @ @ @ O O O O X X X . . . . . . . . . X X X X O O O O O @ @ @ # @ @ @ @ O O O O O X X X X O O O @ # 2.G $ = = - h.A 5 8 ( U.Q v B B L Q.+.t.R.].#.r.Q.K.v.R.*.t w 8 8 8 8 q w t c &.Q.r.U.c c c v.U.*.Q.V c U.&.t I U.y 8 5 - = = $ $ $ # # @ @ @ @ @ @ # # # # @ @ @ O O O O X X X X . . . . . . . . X X X X O O O @ @ @ # # # # # # @ @ O O O O X X X X X O O + @ / ^ ",
"$ $ = - h.C 5 ( F.C q t c v L Q.+.z.R.+X+.8.E.J.t.Y.Q q 8 5 > - = - > 5 8 q r c D.z.G.0.c c t c *.Q.#X9.m Y.d 5 5 - = $ # # # @ @ @ @ @ # # $ $ $ $ $ $ $ $ $ # # @ O O X X X X X X X X X X X X X X X X O O O O O O O O + O O O O O X X X X X X X X O O O @ ' Z $ = = - f.Z 5 ( D.C q t c v B T.+.t.R.].+.,.W.J.z.Y.*.t w 8 8 8 8 q t t c 0.Y.8.P.c t t V v.+X+XV c U.&.q V U.t 8 5 - = $ $ # # # # # # # $ $ $ $ $ $ $ $ $ $ # # @ O O O X X X X X X X X X X X X X X O O O O O O + + + O O O O O O X X X X X X X X X O O O / ^ ",
"$ $ = = g.N 8 G.C 8 q q t c B Q.Q v.R.+X#.w.E.J.t.Y.Q q 8 5 - - = - > 5 8 q q ;.T.T F.0.t t t t t V Y.9.v Y.y 5 > - = $ # @ @ @ @ @ # $ $ $ = = = = = = = = = = $ $ # @ + O O X X X X X X X X X X X X O O O O O O O O O O O X X X X X X X X X X X X X O O O _ k # $ = - d.Z 8 F.M 8 8 q t t B Y.+.t.E. X+.8.W.J.z.U.*.t w 8 8 8 8 q t t *.Q.&.;.G.t t t t c *.].V t F.( q V U.t 8 5 - = $ # # @ # # # $ $ $ = = = = = = = = = = $ $ # # @ O O X X X X X X X X X X X O O O O O O O O O O O O X X X X X X X X X X X X X X O O ^ G ",
"# $ $ = d.N 9 D.w 8 8 q q t B Y.Q v.R.*X].+XU.F.t.Y.Q q 8 5 - - - - 5 8 8 q *.U.T c D.9.t t t t w q t.8.v U.y 5 > = = $ # @ @ @ # # $ $ = = - - - 4 5 5 5 - - - = = = $ # @ @ O O O O O O O O O O O O O O O O O O O O X X X X X X . . . . . . X X X X O O O / k @ $ $ = d.Z 8 D.w 5 8 8 q t v Y.Q t.R.@XQ. XE.F.z.U.*.t q 8 8 8 8 q t &.T.&.t *.F.t t t t t m Y.V t F.( q V J.w 5 - = = $ # # @ # $ $ $ = - - - 4 5 5 5 5 > - - = = = $ $ # @ O O O O O O O O O O O O O O O O O O O O O X X X X X . . . . . . X X X X X O O G G ",
"@ # $ $ d.M 8 D.w 5 8 8 q t v Y.T z.J.w.K.V.#.J.t.Y.Q q 8 5 - = = - 5 8 q ) Y.I t t A.3.r t w q w q y.9.c U.y 5 > = = $ # @ @ @ $ $ = = - 5 5 8 8 8 8 8 8 8 8 5 5 - - = $ $ $ # @ @ @ @ @ @ + O O O O O O O O O O O X X X X . . . . . . . . . X X # & # O O 6.G @ # $ = d.N 5 A.e 5 5 8 8 q c U.Q t.J.w.R.B.+.F.z.U.&.q q 8 8 8 8 q I Y.&.c t *.D.t q q q q m Y.V t F.( q V G.w 5 - = $ $ # # # $ $ = = - 5 5 8 8 8 8 8 8 8 8 5 5 > - = = $ $ # # # # @ @ @ @ + O O O O O O O O O O O X X X . . . . . . . . . X X # & # O + ' ] ",
"O @ # $ 5.g 6 h.9 5 5 8 8 q c Y.I z.m.w.yXqX#.J.t.Y.Q q 8 5 - = = - 5 8 m S.D.c t t t.;.q q q q q q u.9.c U.y 5 - = = $ # @ # # $ = = - 5 8 8 q t t t t t t w w q 8 5 > - = = $ $ $ $ $ $ # # # @ @ @ @ O O O O O O X X X . . . . . . . . . . . + ' s._ + O 7 , O @ $ = d.N 5 A.9 > 5 5 8 q t U.T t.F.w.tXqX+.F.t.U.&.q q 8 8 8 8 y 9.F.c t t &.D.q q q q q m Y.V t F.( q M G.w 5 - = $ $ # # $ $ = - - 5 8 q t t t t t t t w q 8 8 5 > - = = = $ $ $ $ $ $ # # # @ @ @ O + O O O O O X X X . . .   . . . . . . + ] a._ @ O 7 < ",
"O O @ $ a.g 6 t.9 - 5 5 8 q t U.I t.v.+.K.J.+.T.t.Y.W 8 5 - - = = - 5 q S.Y.~.( q q t.;.q q q q q q t.9.c U.y 5 > = = $ # # # $ = - > 5 8 q Q F.J.J.F.J.F.F.F.F.8.t q 8 5 > - - = = = = $ $ $ $ # # # @ @ @ @ O # @ O X X X . . . .     . . . X @ 5.G 6.+ X X X O O @ $ d.N 8 A.9 - > 5 5 8 t P.I t.F.#.T.U.X.U.t.U.( q 8 8 8 8 q y.G.T.( w q ) A.q q 8 8 8 y Y.m t F.( 8 M G.q 5 - = = $ $ $ $ = - 5 8 8 q Q F.J.J.J.J.F.F.m.n.8.t 8 8 5 5 - - - = = = = $ $ $ $ # # # @ @ @ O # @ O X X X . . .     . . . . . + 6.G 5.# X X X ",
"O O @ # d.u.5.t.> - - 4 5 8 t P.C 0.v.I T +.v..X;.!.I 8 5 - = = = - 5 w F.;.J.*.q 8 q.*.8 8 8 8 8 8 t.4.c P.y 5 - = = $ $ $ $ $ = > 5 8 q &.U.,.@.@.@.@.@.@.@.@.E.Q t w 8 8 5 5 9 ~ f 0 9 9 6 6 6 6 , 1 1 1 1 < _ _ $ X X . . . . . . . . . . X O G G.F O X X X O O @ # d.A.q.u.5 = - - 5 8 w F.I t.J.T +.#.v. X-.!.Q q 8 8 8 8 q F.,.D.( q q ( A.8 8 8 8 8 y G.m w F.( 8 M G.q 5 - = = $ $ $ = = 5 8 q r *.W.8.@.&.@.@.+.+.Q Q R.Q t q 8 8 5 5 w ( f e 0 0 9 6 6 6 6 , , 1 1 7 _ _ $ X X X . . . . . . . . . X X F G.G O X X X ",
"X O O # a.G 0 6 = = = - 5 8 t F.V Q W.U.E.].].,.J.v.t 8 5 - = = = - > 8 *.OXS.V q 8 q.&.8 8 8 8 8 8 q.3.t P.y 5 - = = $ $ $ $ = - 5 8 r +.'.,.P @.@.,.8.8.#.B B U.;.v c t q 8 8 M ].F.v.v.y.t.q.q.q.5.6.6.2.2.q.A.q.7 X X X . . . . . . . . . X X , 5.# X X X X X O O @ 5.G 0 6 = = = - - 5 q F.C Q ].W.'. X.X,.F.v.y 8 8 5 5 5 8 &.|.F.M 8 8 ( y.8 8 8 8 8 y G.M q F.~ 8 M G.w 5 - = = $ $ = = > 5 q t @.].8.R #.@.;.;.-.T B B U.$.c c t q 8 8 C .XJ.D.D.A.h.h.f.d.q.q.5.5.6.q.A.q.7 X X X X . . 3 3 . . . . X X : 5.# X X . . ",
"X X O @ 6.u # $ $ $ = = - 5 w F.M t V I T T X.U.v.c 8 5 - = = $ = = - 5 q F.I q q 8 5.) 5 5 5 8 8 8 q.4.t G.y 5 > - = $ $ = = - 5 8 q I XX.XQ.B.XX3X.X'..X].$.#.W.M.U B c t q q w M y w 9 9 8 5 5 > ; ; $ $ $ ; G G # X X X X X X . X X X X X X X : 6.@ X X X X X X O + 6.u # $ $ $ = = - 5 8 S.C t V I T X.#.U.b.c 8 8 5 5 4 4 5 8 A.I 8 8 8 ~ A.8 5 5 5 8 w G.M q S.~ 8 M G.q 5 - - = = = = - 5 8 q I @XXX XU.*X3X.XW.'.W.@.#.W.x.U v c t q q w V y e w w 9 5 5 > > ; = $ $ ; G G # X X X X X o } } o X X X X X & 6.@ X X . . ",
"X X O O 6.0 @ # # $ $ = - - 8 S.M q t m P #.U.v.v q 8 - = = $ $ $ = - > 5 h.C 8 8 5 4.) 5 5 5 5 8 8 q.3.t G.y 5 > - = = = = - 5 8 q t ;.oXn.n.L.V.*XM.#.w.oX X'.,XrXR.o.v c t t t q q 8 8 5 5 > - = $ $ # @ O O O O O O X X X X X X X X X X X X X : 6.@ X X . . X X X O 2.u @ # $ $ $ = = - 8 S.M q y m P #.Y.F.m q 8 5 - - - - - 5 y.C 5 5 5 =.U.8 5 5 5 5 w G.f q S.~ 8 M G.q 5 > - = = = > 5 8 q t ;..Xn.J.R.R.%XM.#.8.oX X'.,XtXR.o.v c t q w q q q 8 8 8 5 > = = $ $ # @ @ O O O O X X X X 3 /./.3 X X X X X & 6.@ X . . . ",
"X X X O 2.7 O @ # # $ $ = - 8 A.f q t B J.2Xm.m q 8 5 - = $ $ $ $ $ = - e A.f 5 8 8 q.~ 4 4 4 5 5 5 9.3.t F.y 5 5 - - - - - 5 8 q t c ;.J.P Y L.1XyX1X_.M.oXR.$X@XwXXX'.X.v c c m I I d y M M 8 - = = $ # @ @ O O O O O O X O O O O O O O O O O O : s.@ X X . . X X X O ' i O @ @ # $ $ = = 5 A.M 8 w B B.6XE.B t 8 5 - - = = - - e D.f > > > e N > - - 5 5 w F.f q S.W 8 M G.q 5 5 - - - - 5 8 q t c -.J.Y ..R.3X0X%XV.x..XR.*X*XwX.X'.X.c c t c I I m m C V q 5 - = $ $ # @ O O O O O O O X 2  .kXkX .2 O O O O ; p.@ X . .   ",
". X X O ' 7 O O @ @ # $ = = 5 h.f 8 w B +XrX+.t 8 5 - = $ # # # # $ = 9 q.~ 5 5 8 =.A.w - - - 5 5 5 9.3.t F.y 5 5 - - - > 5 8 8 q t c ;.U.U Y w.'.8XdXtX_..X>.'.*Xk.%.n.`.o.v c ,.].U.t.0.F.Y.~ - - = $ # # @ O O O O O O O + + @ @ # # # # # @ O , s.# X X . . X X X X ' 7 O O @ @ # $ $ = > h.g 8 q v .XiX#.t q 5 > = = $ = = 9 h.^ > - = = = = = = - - > 9 S.f 8 D.~ 8 M G.w 5 5 5 - 5 5 8 q q t c ;.U.U ..w.'.8XdXrX_.XX:.].=Xk.%.n.'.X.c c *.Q.Y.D.y.Y.Q.) 5 - = $ $ # @ @ O O O O O # x  .kXkXkXjX/.x $ @ @ : s.# X . .   ",
". . X X ' 7 O O O @ # # $ = > h.y 5 q t t.J.c q 5 - = $ # @ @ @ # $ $ ^ 4.- - - ^ h.e - - - - - 5 5 5.3.w F.y 5 5 5 5 5 5 8 8 q V -.;.m. Xr.l.c.N.&XaX0X[.`.c.n.*X,X$.P r.'.J.n.].F.*.F.v.1.v.=.5 - = $ # # @ @ O O O + + @ @ # $ $ $ = = = $ $ # < s.# X X . . . X X X ' 7 O O O O @ # $ $ > h.f 5 8 q 0.J.c q 8 - = = $ $ $ $ ^ 4.= = = = = $ = = = = - - 9 S.y 8 D.~ 8 M G.w 8 5 5 5 5 8 8 q V -.;.F..Xw.l.c.N.&XaXrXoX{.n.n.=X*X$.K l.'.m.v.R.F.&.G.v.*.v.1.5 > = $ $ # # @ @ O + @ x | /.jXjXjXjXjXjX;X| x $ 1 s.# X . .   ",
". . X X ' < O O O O @ # $ $ > h.e 5 8 8 ;.t.8 5 > = $ # @ O O O @ # # ^ ) = - > h.N = = = = = - - 5 5.3.w F.d 8 5 5 8 8 8 q q V U.F.F.J.R.J.R.R.R.`.'.'.`.R.R.R.V.R.].@.v 8.1XR.v.].U.t.t.T.Y.W 5 - = $ $ # # @ @ @ @ @ @ # $ $ = = - 5 5 > - = $ 6 a.# X X X . X X X X ' 7 X O O O O @ # $ ; d.h > 5 8 &.t.8 8 5 - = $ # # # # ^ ^ $ $ $ $ $ $ $ $ $ = = - 8 S.y 8 D.~ 8 M G.w 8 8 8 8 8 q q I U.F.J.U.R.U.J.U.R.'.'.'.'.R.R.V.B.R.].+.v 8.1XR.n. XU.t.t.U.Y.W 5 > = = $ $ # @ @ @ @ # x | ;XjXjXjXjXjXlX;X(.x = , 5.$ X X .   ",
". X X X _ < O O O O @ @ # $ > d.e - 5 5 &.q.5 > = $ # @ O O O O O @ # G ^ = = = d.s $ = = = = = - - 4.3.w F.f 8 8 8 8 8 q r I Q.8.c v v K K P U U Y ....Y Y U U P K w.].+.c +.R.8.V m y y d y 8 5 - = $ $ # # # @ @ # # # $ $ = - 5 8 w t q 5 - = 0 d.# O X X X X X X X ' < X O O O O @ # $ = d.e - > - ( t.5 5 - = $ # @ @ @ O G G # # # # # # # # $ $ = = 8 A.y 8 D.~ 8 M G.t q q 8 q q q I ].t.c v v B K L P Y X.o.o.....Y P K K r.].+.c @.].8.V M y y d y 8 5 > = = $ $ # # # # # # # & x /.jXjXlXlX(.` 8 - = 6 d.$ X X .   ",
". X X X ' < X O O O O @ # $ ; d.9 - - - ( 5.- = = $ @ O O O O O O O @ F G $ $ = d.0 $ $ $ $ = = - - 4.1.w F.m 8 q q q q r I Y.oX&.t c v v B K K L P P P P P P K B B B 8.].Q q I K.;.t q q 8 8 5 4 - = $ $ # # # @ # # # $ $ = = - 8 c w.V.>.t 8 5 4.^ @ O X X X X X X X ' < X O O O O O @ # = d.0 = - - ~ 9.- - = $ # @ O O O O G G O O + O O + @ @ # $ = = 8 A.y 8 D.( 8 M G.y q q q q q V U.oX*.t c v v B B L P U Y Y Y U P K B B v 8.].Q t T R.3.q 8 8 8 5 5 5 - = = $ $ # # # # # # $ $ = p /.lXlXfXOX#.t 5 5 1.^ @ O X . . ",
"X X X O ' < X O O O O @ # # = d.0 = - = ~ 4.= = $ # O O X X X X X O O F G $ $ = q.0 # $ $ $ $ = - - 4.1.w F.Q t c t t t t &.U.U.;.t c c v v B B K K L L L L B B B v v c -.E.I 8 M F.v.t.t.q.9.4.4.1.2.2.2._ _ _ _ _ _ _ _ 2.2.4.9.t.R.uXgX8XB.z.v.4.= @ O X X X X X X X ' < X O O O O O @ # $ a.0 = = = G 5.= = $ # O O O X O X F F O O O O O O O + # $ = = 5 A.y 8 S.( q M U.V v t t t t +.U.U.;.t c c v v B K L P P P P L K B B v v t ;.Q.Q q C F.v.0.9.q.q.q.4.4.4.2.2.' _ _ _ _ _ _ 2.2.1.4.^.zXzXhXgX8XB.t.t.4.; @ O X X . ",
"X X X O ' < X O O O O O @ # = d.6 = = = ^ 2.= $ # @ O X X X X X X X O Z G # $ $ 5.7 @ # # $ $ = = - 4.3.8 W v.S.Y.*.t t t &.*XE.T t c c v v v K P P P P L L K B v c c t t ( U.N 5 e ( ~ ~ ~ ~ A N N N N N g g g g g g g N N N C W Q l.8XaX[.-.Q C 5 $ # O O X X X X X O ' < X O O O O O @ @ $ a.0 $ = $ A 6.= $ # @ O X X X X X F F X X X X X O O O @ $ $ = 5 A.y 8 F.( q t 0.Q.Q.;.t t t +.*XQ.T t c c v v B K P P P P P P L B B v c t w &.U.C 8 y W ~ ~ ~ ~ G G A N N N N g g g g k k N N N C ~ (.fX7XpX[.;.W N 5 $ # O O X . ",
"X X O O ' 7 X O O O O @ @ # = a.6 $ = $ G 2.$ $ @ O O X X . . . X X X k F @ # $ 6.7 @ @ # # $ = = - 4.*.8 8 I  XW.F.c c v v.Q.T c c c c c v L F.W.R.R.E.E.R.U.m.T t t w w q W F.C 5 - - - - - = = = $ $ $ $ # # # # # $ $ $ = - 5 8 t %.<.Y t q 8 > = $ @ O X X X X X O ' < X O O O O O @ @ $ a.0 $ $ $ Z 2.$ # @ O O X X X X . F F X X X X X X O O @ # $ = 5 A.y 8 S.( q w m Q.Q.Y.v c v v.].T c c c c v v P n.R.R.R.E.R.R.R.J.T c y t w 8 W F.N 5 4 - - - - = = = $ $ $ $ # # # # $ $ $ = = - - ` { ..:.Y t 8 5 - = $ @ O X . ",
"O O O O ' 7 O O O O @ @ # # = a.6 $ $ $ A _ $ # @ O X X . . . . . X X k F @ # $ 6.7 O @ # # $ = = - 1.;.8 q t 9.U.&.c c 8.W.T c c c v v c L F.U.;.;.;.@.#.@.+.t.U.V q q q 8 8 I F.M - - - - = = = = $ $ $ $ # # # # $ $ $ = = - > 5 q t t t t w 8 5 = $ @ O O X X X O O ' 7 X O O O O O @ # $ a.7 $ $ $ Z 2.$ # @ O X X . . .   z z . . . X X X X O @ # $ = 5 A.y 8 F.&.q t t 3.U.;.c c ;.Q.T v v c v v v P J.Q.,.@.#.#.@.@.@.v.E.I t w q 8 5 C S.M - - - - - = = = $ $ $ $ $ $ # $ $ $ $ = = - - 8 w q t t t q 8 > = $ @ O X . ",
"O O O @ ' 7 O O @ @ @ @ # # ; d.6 $ $ $ Z _ # @ O O X . .     . . . X k F @ @ $ 6.7 O @ @ # $ $ = - ) v.t q q t c t c c t.z.c v v v v v P U.J.T K L L K B B c c 8.U.M q 8 8 8 5 C A.g = = = = = $ $ $ $ $ # # # # # $ $ $ $ = = - 5 5 8 q w t c t 8 - $ @ O O O O O O O ' 7 O O O O + @ @ # $ d.7 $ $ $ Z ' # @ O O X . . .     z z   . . . X X X O @ # $ = 5 A.y 8 &.F.V t t t c t c c t.v.v v v v v v P U.R.X.P L K K B B v B t.Y.V q 8 8 5 > N D.N - - = = = = $ $ $ $ $ $ # # # $ $ $ $ = = - - 5 8 8 q t c t 5 - $ @ O X . ",
"@ @ @ @ 2.7 O @ @ @ @ # # $ G 2.= $ $ $ Z _ # @ O O X .           . . k F O @ # 6.7 O @ @ # $ $ = - 9 0.t.c t t t t c v z.z.c v v B B R U.U.T L P U P P K B c c t 3.F.M 8 8 5 5 > N h.h = = = = = $ $ $ $ $ $ $ $ $ $ $ $ = = - - 5 5 8 q t +.L.M.m > $ @ O O O O O O + ' 7 O O + @ @ @ @ # G 6.= $ $ $ k _ # O O X X .         k k   . . . X X X O O # $ = 5 t.) 8 8 3.F.I c c c c v v t.v.v B v B B R U.E.Y P U P P K B B B B c 9.P.M 8 5 5 > - N A.N > = = = = = $ $ $ $ $ $ $ $ $ $ $ = = - > 5 5 8 8 w +.L.m.m > $ @ O X . ",
"Z G ; @ _ 7 O @ @ # # # $ G 2.; $ $ $ # Z ^ @ @ O X X .             . k F O @ # 6.7 O @ @ # $ $ = - 5 9 0.v.m t c c v c z.z.c B B K X.E.E.Y P Y z.J.l.#.t.t.-.c t q *.F.f 5 5 > - = f t.5.5.6.6.6.6.6.6.6.6.6.6.6.6.6.q.q.5.q.q.q.q.t.y.v.m.%XgXrXT > $ @ O O @ s F ; O _ 7 O O @ @ @ @ $ G 6.; # # $ # g _ @ O O X X .         z k   . . . X X X O O # $ = - e y.*.q w 9.U.I c c v v v z.n.v B B L X.E.R.T P T z.F.z.#.t.t.;.B t w *.F.f 5 > - - = f h.q.5.5.5.5.6.5.6.6.6.6.6.6.6.6.q.q.q.q.q.q.q.t.t.v.m.%XgXaX@.> $ @ O X . ",
"S.d.a.g ^ F ^ / / _ _ _ 6.2.; @ # # # = 2.d.; O O X .               . k F @ @ $ 6.7 @ @ # # $ $ = - 5 8 w t.F.+.R v v v z.t.v B K Y OX].X.P U #.wX3X4Xz.XXR.].m w 8 8 ) y.h - - = = $ 6 0 0 0 7 7 7 7 7 7 7 7 7 0 0 0 1.) s h h h f f M N I z.3X'.m > $ @ O O 1 d.5.d.g ^ Z ^ / _ _ _ _ 6.2.; @ @ # # = =.h.: O O X .           k k     . . X X X O @ # $ = - 5 y D.A.m t 0.E.-.T B v v z.v.v B K Y OX XX.U Y #.eX7XyXm.@XU. XB t q 8 ) v.h - - = = = 6 0 0 0 0 0 0 7 7 7 7 7 7 0 0 0 4.=.s h h h f f M N I z.3X.XV > $ + X X . ",
"A.d.^ 0 / k u u u u s s s $ O @ @ @ @ k d.d.Z O X X .               . k F @ # $ 2.G # # # $ $ = = - 5 8 9 y v.*X.X;.v c v.E.8.r.r.v.XXB.l.z.v.n.'.`.,Xv. Xt.Q.c q 8 5 5 G A.A = = $ $ # # # @ @ @ @ @ @ @ @ @ @ @ @ # ) N $ $ $ $ = = = > 5 w B d 5 = $ @ O O : d.d.^ 7 / k u s s s s s u $ O + @ @ @ s d.6.F O X X .           z k   . . . X X O O @ $ $ = - 5 5 C F.C w y t.,XXXt.B v t.Q.8.r.r.v.@XJ.l.z.v.n.].'.2XB. Xt.].m q 8 8 5 ~ S.G = = $ $ $ # # @ @ @ @ @ @ @ @ @ @ O @ @ ^ N $ $ $ $ $ = = - 5 q B c 5 = # O X . . ",
"7 7 @ O O O O O O O O O O O O O O @ @ s h.d.u O X X .               . k F @ # # 7 q.Z $ $ $ $ = = > 5 8 q q ( .X].D.v v *.U.F.J.B.L.V.V.J.J.U.R.K.J.z.@.J.B.0.t 8 8 5 > > ^ ~ = $ $ # # @ @ @ @ @ @ + O + O + + O @ @ ^ g $ $ $ $ $ $ = = - > > - = $ @ O O O O : 7 + X O O X X X X O O O O O O O @ @ 0 h.d.s X X X .           k j   . . X X O O @ # $ = = > 5 8 8 w w t t Q +X XT.K v *.U.J.J.U.U.U.J.R.R.R.R.R.R.N.,.U.J.0.t 8 8 5 5 > ^ ) = $ $ # # @ @ @ @ @ O + O + O O O O O O G N $ $ $ $ $ $ = = - > > - = # O X X .   ",
"O O O O O O O O O O O O O O O O O O @ $ 2.Z @ O X X                 . l F @ # $ $ 7 g.g $ $ = = - > 5 8 q w m F.].+.v v B v B B B L L L L I T R T L B B m c t q 8 5 > - = = = $ # # @ @ + O O O O O O O O O O O O O @ G h # # # # $ $ $ $ $ = = $ $ @ O O O O O X X O O O O O O O O O O O O O O O O @ # _ G @ X X X .           k j   X X X X O @ # $ $ = - 5 5 8 8 q q t t m F..X,.B B B B B B B L P P P P R R R T P K B c t q 8 5 > - - = = $ # # @ @ + + O O O O O O O O O O O O O G g # # # # # $ $ $ = = = $ # @ O X .     "
};
