/* XPM */
static const char *west_bonus[] = {
/* columns rows colors chars-per-pixel */
"256 256 238 2 ",
"   c #050502",
".  c #080703",
"X  c #0C0B04",
"o  c #080903",
"O  c #110F05",
"+  c #141206",
"@  c #1A1606",
"#  c #1E1907",
"$  c #1B1708",
"%  c #1E1908",
"&  c #171408",
"*  c #0F1005",
"=  c #221C07",
"-  c #231D09",
";  c #281F08",
":  c #272007",
">  c #282107",
",  c #272009",
"<  c #2B240A",
"1  c #2F280B",
"2  c #30270B",
"3  c #342B0B",
"4  c #392F0C",
"5  c #342D04",
"6  c #37300D",
"7  c #3C320D",
"8  c #3D360D",
"9  c #3C3510",
"0  c #3F3911",
"q  c #39362A",
"w  c #42360E",
"e  c #45390E",
"r  c #4A3D0F",
"t  c #413710",
"y  c #453B11",
"u  c #4B3E10",
"i  c #503F12",
"p  c #423E31",
"a  c #4E410F",
"s  c #46410C",
"d  c #52430F",
"f  c #56490F",
"g  c #5A4C0F",
"h  c #464113",
"j  c #4D4211",
"k  c #4F4915",
"l  c #534511",
"z  c #584712",
"x  c #554913",
"c  c #5B4C13",
"v  c #554D18",
"b  c #594F18",
"n  c #5E5115",
"m  c #56521A",
"M  c #5C5419",
"N  c #5D5A1C",
"B  c #575116",
"V  c #604F13",
"C  c #635314",
"Z  c #685715",
"A  c #665815",
"S  c #6B5B15",
"D  c #635619",
"F  c #655B1B",
"G  c #6B5C1A",
"H  c #685718",
"J  c #715E16",
"K  c #715F19",
"L  c #66560F",
"P  c #6F6016",
"I  c #66611D",
"U  c #6C621D",
"Y  c #6D681E",
"T  c #736216",
"R  c #796516",
"E  c #7C6B16",
"W  c #73641B",
"Q  c #78661B",
"!  c #76691D",
"~  c #7B6B1C",
"^  c #766816",
"/  c #7E701D",
"(  c #7E7016",
")  c #504932",
"_  c #665D22",
"`  c #6C6521",
"'  c #6F6822",
"]  c #666120",
"[  c #736620",
"{  c #756B22",
"}  c #7B6E22",
"|  c #767225",
" . c #7D7224",
".. c #7E7A26",
"X. c #7C7528",
"o. c #7D7B2A",
"O. c #777528",
"+. c #796D3A",
"@. c #777363",
"#. c #67665D",
"$. c #816F1C",
"%. c #83731D",
"&. c #86791C",
"*. c #8A7B1D",
"=. c #86751A",
"-. c #907F1C",
";. c #806F21",
":. c #837523",
">. c #857A25",
",. c #8A7C25",
"<. c #817728",
"1. c #847B29",
"2. c #8A7E29",
"3. c #887622",
"4. c #907F24",
"5. c #827E72",
"6. c #8E811D",
"7. c #91821D",
"8. c #98891F",
"9. c #8E8126",
"0. c #86812A",
"q. c #8D832A",
"w. c #8F882B",
"e. c #888227",
"r. c #928425",
"t. c #968926",
"y. c #998B25",
"u. c #92852A",
"i. c #958A2C",
"p. c #9A8D2C",
"a. c #988725",
"s. c #96902D",
"d. c #9D922E",
"f. c #9E982E",
"g. c #9F9225",
"h. c #968C30",
"j. c #9A8E31",
"k. c #928630",
"l. c #9D9331",
"z. c #9F9932",
"x. c #969030",
"c. c #A2942D",
"v. c #A49A2E",
"b. c #AA9C2D",
"n. c #A39427",
"m. c #A29632",
"M. c #A49B33",
"N. c #A99D34",
"B. c #A59B39",
"V. c #AA9E39",
"C. c #A8972A",
"Z. c #ADA32D",
"A. c #B5AA2D",
"S. c #A7A134",
"D. c #ACA335",
"F. c #ADA439",
"G. c #AFA83A",
"H. c #ADA737",
"J. c #B1A536",
"K. c #B4AA36",
"L. c #B9AE36",
"P. c #B1A639",
"I. c #B4AB3A",
"U. c #B9AE3C",
"Y. c #B8A733",
"T. c #BCB336",
"R. c #B7B03B",
"E. c #BCB23D",
"W. c #BDB63C",
"Q. c #C1B63E",
"!. c #C4BA3E",
"~. c #C9BE3D",
"^. c #C2B835",
"/. c #CBC23E",
"(. c #D4CB3E",
"). c #B6AD41",
"_. c #BAAE41",
"`. c #B3A741",
"'. c #BDB341",
"]. c #BFB843",
"[. c #BCB547",
"{. c #B6AE55",
"}. c #8F8A79",
"|. c #B2AA77",
" X c #C1B641",
".X c #C4BB43",
"XX c #C9BE43",
"oX c #C5BC49",
"OX c #C9BE48",
"+X c #C0B648",
"@X c #C2B950",
"#X c #C7C044",
"$X c #CBC345",
"%X c #CCC34A",
"&X c #CFC84C",
"*X c #CCC547",
"=X c #D1C745",
"-X c #D3CA45",
";X c #D1C64A",
":X c #D4CB4C",
">X c #D8CF4D",
",X c #D8CE45",
"<X c #D7D14C",
"1X c #DBD34D",
"2X c #DBD346",
"3X c #CCC451",
"4X c #CCC655",
"5X c #D4CC52",
"6X c #D9CF51",
"7X c #D3CC57",
"8X c #DBD353",
"9X c #DED854",
"0X c #DAD45B",
"qX c #DEDA5A",
"wX c #D6D157",
"eX c #E2DA4C",
"rX c #E3DA54",
"tX c #E3DC5B",
"yX c #E1D752",
"uX c #E6E05C",
"iX c #E8E35A",
"pX c #DCD664",
"aX c #E3DE64",
"sX c #E1DC6C",
"dX c #E5DE76",
"fX c #E5E164",
"gX c #EAE563",
"hX c #E9E669",
"jX c #EAE878",
"kX c #F5F179",
"lX c #F2EC68",
"zX c #989484",
"xX c #918E83",
"cX c #A29D86",
"vX c #B6AF8B",
"bX c #F7F685",
"nX c #F4F38E",
"mX c #E6E39D",
/* pixels */
"o X X + @ - > 2 2 3 2 2 < < > - - = # # # @ @ @ & + + + & & & @ @ @ &  .| # = - < 3 7 3 3 3 7 7 e l A S C Z S S S J J J J T T T T J S S Z S d.:XP.A c c l a r w 7 3 2 < > - # @ + O X o o . M |   .   . . o X O + @ h z.0 @ @ & & & & + & & @ & + & & + + + O O + + + @ # - > < 2 2 2 < < > > - - = # # # @ @ @ @ & @ @ @ @ @ @ | 1.# # = = - - < 2 4 2 2 3 7 w r c G T C Z J T T ^ ^ T T T T T T T T S S S d.>XU.G C c x d r e 7 3 2 < > - = $ & + X X X . B | . . . . . o X O + @ y l.y @ @ @ @ # # @ @ @ @ # # # # # # # # # ",
"o X O & # > 2 7 7 7 7 4 2 2 < > , - - = # # # @ @ @ @ @ @ # @ # # # # s.s.- - > 2 M B.l 4 7 7 w r m..X*Xi.I..X.X.X.X.X!.!..X.XOXOX.X.Xc.Z J .X$X:X! c x d r e w 7 3 2 < > - $ @ + O X X o . N |   . . . . o X + + 3 M.I.q.# @ @ @ @ @ @ @ @ @ @ & @ @ @ @ & 1 3 @ + @ # - > 2 7 7 7 7 4 2 2 < > > - - = = # # # # # # # # # # = h.M.- = - - ; > 2 b m.k 3 4 7 w a M.$X*Xp.K..X$X$XOX.X.X.XXX$X$XOXOX$XN.S T OX*X6X} c c f a r w 7 3 2 < > - - # @ + X X X . M ... . . . o X X + & 1 f.G.w.= # # # # # # @ @ @ @ @ # # # # # 7 w ",
"X X + @ - 1 w D ~ n e 7 4 2 < < > - - = = # # # @ @ @ @ # # # # # # = Y Y > > < 4 x F.B.j 7 w r l U.i. XI.:XR..Xp.,.,.,.p.&Xm.,.,.3.N.].A Z p.:X1Xr.c f d r e 7 7 3 2 < > , - # & + X X X . N | . . . . o X X + & 9 D.i.s.- # # # # = 9 y y y y y y h 1.h v M.G.j + @ # : 2 7 c P f w 7 4 2 < < > - - - = # # # # # # # # # # = U { - - - > > < 2 l F.D.j 7 w e l E.c. XI.:XW.OXp.,.,.,.p.&Xm.,.,.,.M..XS S p.:X9Xp.c c d r e w 7 3 2 < < , - $ @ + O X X . M ... . . . X X O + @ 7 D.i.s.- # # # # - 9 y y h h h h j 1.h v D.R.",
"X X + # , 3 d ).jXR.q.>. . . .{ { [ [ ` ` ` I I I I I I I I I I I U ` [ N 2 < 2 3 7 e w.B.x e u l P.XX:XM.&XtXqX:.S Z K _.%X! S S Z q.E.A C Z W ,.!.,.f a r e 7 7 3 2 < < , - # @ + O X X . N ... . . . X X O + @ - { ].k - = # = = _ F.x.x.x.x.l.l.q.F.1.l.D.D.F + # - > 4 d F.sXF.q.>.X. .{ { [ [ ` ` ] I I I ] I ] ] I I I I U U Y [ M 2 < 2 3 7 e q.D.l w r l P.$X:XM.&XuXpX:.S S T _.oX! S S A q.].S A A W ,..Xu.x d r e 7 7 3 2 < < > - $ @ + O X X X M 1.. . . o X X O + @ % [ W.k - = = = = F D.x.x.l.l.l.l.1.B.>.z.K.v.",
"X O & $ > 3 l '.nX#XD.v.c.d.p.i.i.i.u.w.q.q.q.q.q.q.q.q.q.q.q.q.q.q.w.i.P. .4 4 4 7 7 y w.F.n l c G ~ ~ W %.9.3.W S S F. X! Z A A C 9.R.C c c c c ! W.,.l r w 7 7 3 y n 3 > - # @ + + X X o N ... . o o X O + & # # j z.< - - - - ] S.k < < < < < < 6 s.r 3 1.1.3 # # - < 4 f ).jX.XN.M.c.f.s.p.i.i.i.i.q.q.q.q.q.q.w.q.q.q.q.q.q.q.w.i.K. .4 4 4 7 7 y q.F.b u l H ! ~ ^ %.,.%.T S T P..X! Z A A C 2.].Z C C C c ! .Xq.l r w 7 7 3 y M 3 > - = @ + + X X X M 1.X . o o X O + @ @ # j z.< , - - = F D.x < 2 1 < < < 2 u.y 4 >.i.",
"X O & $ > 3 e S &.A d a e w 7 7 4 3 2 < > > , - - - - - - - > > > < 2 3 l D.<.7 7 7 w w u h.U.H c c C C A S S S S S V.'.! A C V C V q.R.C c c c c l W R.2.r w 7 7 3 { *Xj > - = # & + O X X N ..X o o X X O + @ # # k z.< , , - F D.j : , : - - - - 1 M.y = # # # # # - > 3 e S / C a r e w 7 4 4 2 < < > - - - - - - - > > > > > < < < h D.1.w 7 7 w e u u.U.D l c V A Z S S S S S F.W.Q A C C C V 2.'.A c c c c l W ].q.u w 7 7 3 { $Xj > - = # & + O X X M 1.X X o X X + + @ # # k m.1 > , - M D.j > > > > : - - < M.u = - - ",
"X O & $ , 2 7 r a a a r r e e w 7 7 4 2 < < > > > > > > > > < < < 2 2 3 4 l F.1.w w w e r l l.'.W V C C C A Z Z S V. XW C V c c c c 2.R.c c l l l l j W W.l 7 7 4 3 n R.w > , - # @ + + O X N 1.X X X X O + @ # = - x M.2 > > < l.I : , , - - - - = < m.e = # # # @ # - > 2 7 e a r r r e e w 7 7 4 2 2 < > > , , - > > > > < < < 2 2 3 4 k F.w.e w e e u l j.'.G c V C A Z Z Z S F.'.T C C c c c c 2.'.C c c l l l j W W.l w 7 7 3 M R.w < , - # @ + + O X M 1.X X X X O + @ # # - k M.2 < > > x.I > > > , - - - - < m.y = = = ",
"X X + $ - < 3 7 w e r r r r r r e 7 7 4 2 < < > > > > > < < < < 2 2 3 4 7 7 x S.0.r r r l l c m. Xp.i.p.p.p.p.j.I. X! C V c c c c C P.S.c l l l j u u M I.j 7 7 4 3 x H.7 < , - # @ @ + + O N 1.O O O O + & # = - - v B.3 < > 1 m.n - : - - - = = # < m.t # # @ @ @ @ $ - < 3 7 w w e e e r r e w 7 4 2 < < > > > > > > < < < < 2 2 4 4 4 4 l F.k.u r r j l c l.].i.i.p.p.p.c.p.U.E.W C V c c c c C I.F.c l l d a r u D R.k 7 7 4 3 x K.7 < , - # @ & + + O N 1.O O O O + @ @ = - - v S.3 < < 1 l.n : > - - - - = = > m.y # # # ",
"X X + @ - > 2 3 7 7 w e r a n S d e 7 3 2 < < > > ; > > > < < < 2 2 3 4 7 7 7 x F.k.l l l c c D i.J.J.P.P.P.I.U.I.Q C V c c c l C P..XH l l j a u u y M I.j 7 7 4 4 v F.7 < > - = # @ @ @ + F 0.+ + + + @ # = - > > v S.3 2 < 2 m.M , - - - = $ # # > m.9 @ @ @ @ + @ # - > < 3 7 7 w w e a c A a 7 4 2 < > > ; - ; > > > > < < 2 2 4 4 7 7 7 x G.j.l l l c c C i.J.J.J.P.P.I.I.P.! C V c c c c C I..XH l l l a r r e M I.j 7 7 4 3 x K.7 < > - # # @ @ @ + F 0.+ + + + @ # = - > > v F.4 2 2 2 l.n , , - - = = = $ > m.t # # @ ",
"X X O & # - > 2 3 7 7 w r f v.0XD.u.2.<. .X. .} } } } }  . .X.X.X.<.<.1.1.1.M e b `.l.c c c c C A A S S S S S S S A C c c c c C D.>Xm.d l j r u y y e n I.h 7 7 4 3 x F.7 < > - - = # # # @ I 0.@ @ @ @ # = - > < < n S.7 2 2 3 M.M , - - = = # # # > l.7 @ @ + + + + @ $ - > 2 3 4 7 w r f v.wXm.2.>. .X. .} { { { { { }  .X.X.<.<.1.1.2.1.D w c I.m.c c c C C C A S S S S S S S Z C V c c c A P.<Xm.l l j u r e e w b I.h 7 4 4 3 x P.7 < > - = # # # # @ F q.$ @ @ @ # = - > < < n F.7 4 3 3 m.n , , - = = $ # $ , l.t # @ & ",
". X X + @ = , < 2 3 7 7 e f d.0XF.i.q.1.1.1.X. . . . .X.1.1.1.1.1.q.q.w.u.m.W.[ l H '.V.A n D A S S S S S S S S S A A C c c c W E.M.x.a j r r y e w w b P.h 7 7 4 3 x F.7 < > , - - - = - # I q.# # # # = - > < 2 4 F F.w 4 4 7 M.M > , - = = # # # , l.7 @ + + O O + + @ = - < 2 3 4 7 e l M.0XM.u.q.1.1.>.<. . . . . .>.>.1.q.q.q.u.i.k.B.W.U u D ).V.A C C A S S S S S S S S S S A C c c c ! .XM.l.j u u u e e w w b I.h 7 7 4 3 x F.7 < > > - - = = = $ I q.$ # # # = - > < 2 2 M F.w 4 4 4 M.M > , - - = = $ $ , l.9 @ & + ",
". X X + & # - , < 2 3 7 w r c A d e 4 2 < > > ; - , > > < < 2 4 7 7 7 w e u  ..X>.c W ].G.S A S S G W W W W U S S S A A C c c G E..XX.r r e e w w w w b P.u 7 7 4 4 x F.7 < < > > , - - - - ` w.= = = = - > < 2 4 7 G I.y 7 7 7 M.n > > - - = $ # # > l.7 & + O O X O + @ # - , < 2 3 7 w r c A a w 4 2 < > > > - , > > < < 2 4 7 7 w e r j X.T. .c H '.P.G S S S S T W W W W G G S Z C C c c G Q..X<.u u e e w w w w b P.h 7 7 4 3 x F.7 < < > > , - - - - I w.- = = - - > < 2 3 7 F P.y 7 7 7 M.M > > - - = = # $ , l.9 @ + O ",
". o X X + @ # - , < 2 3 4 7 w w w 7 3 2 < > > > > > > < < 2 4 7 7 j x x j b G i.&Xu.S ! '.).! T T ^ ! ~ ~ ~ Q ^ U S S S Z A c W XXq.a r e w w w w w w b P.h 7 7 7 4 v F.7 2 < < < > > < < > [ i.- - - - > < 2 4 7 e U U.l e 7 w B.M < > > - - = # # > l.7 & + O X X X O + @ $ - > < 2 3 7 7 w w w 7 4 2 < > > > > > > < < 2 4 7 w l c c x D H 9.#Xq.C W '.'.Q T ^ ^ ^ ^ ! ~ Q Q ^ T K S A C c ! $Xu.l r e w w w w w 9 b P.h 7 7 7 3 x F.7 2 < < < < < < < > [ i.> - - , > < 2 4 7 w U U.l e w w M.M < > > - - = = $ > l.9 & + O ",
". . X X O + @ $ - , > < 2 3 3 4 4 2 < < > > , , > , > > < 2 4 4 x I.I.I.1.E.$X X).fXm.S W '.%XU.U.E. X.XXX#X!.E.U.U.U.U.R.U.I..Xq.j e e w 7 7 7 7 7 7 b P.h 7 7 7 4 b P.w 2 2 2 2 2 2 2 2 2 { i.< > > > < 2 4 7 e a ! '.c r e e D.D 2 < > > - - = # < l.7 + + O X X X X + + @ $ - , > < 2 4 4 3 4 2 < < > > > , > > > < < 2 4 7 x U.'.'.q..X*X'.F.tXj.A W '.&XL.L.R.I.R.!.!.!.W.E.E.U.U.U.I.I..Xu.l r e w w 7 7 7 7 9 b I.j 7 7 7 4 x P.w 3 2 2 2 2 2 2 2 2 { i.< > > > < 2 4 7 e a ! E.c j e e B.F < < > > - - = = > l.9 & + O ",
". . o X X + + @ $ - - > > < < < < > > , , - - - , , > > < 2 4 4 D U.{ ].m.M.m.:XF.[.7XB.T ! [.tXF.d.E.~.gXlX/.D.d.p.u.'..Xu.u. .l e w 7 7 7 7 7 7 7 7 b I.j w 7 7 7 M P.w 4 4 3 3 4 4 4 4 4 2.i.2 < < < 2 4 7 e a x 9.$XS l r r D.F 2 2 < > > , - - 1 l.7 @ + O X X X X X + & @ # - - > < < < < < < > > , - - , , > < < < 2 4 7 D ].}  Xl.D.N.9XJ.'.4Xl.S ! [.tXJ.p.J.^.iXlX,XY.c.p.u. X.Xu.q. .l r e w 7 7 7 7 7 7 9 b I.j w 7 7 7 b P.y 3 4 3 3 4 4 4 4 4 1.i.2 < < 2 2 4 7 e a c r.%XP l r r N.F 2 2 < > > , - - < m.9 @ + O ",
". . . o X X + + @ # # - - - - - - - - - - - - - - , , > < < 3 4 b .XU. Xp.OXOXP.Z Z :.oXF.Q &.!.%X,.U.K.wXkXeX!.y.J A d.m.x f a r w 7 7 4 4 7 7 7 7 7 n I.j w w w w M I.y 7 4 4 7 7 7 7 w W I.F 3 2 2 2 4 7 w r x S 3XjX*.c a a D.F 4 4 2 < < > > > 2 c.7 @ + O X X o o X X + + @ # # - - - , , , - - - - - - , , > > < < 2 4 7 b .XU.W.q.$X;X'.S S %..XF.~ &.T.$X3.J.J.7XkXiX~.n.J Z M.M.c l d r e w 7 7 7 7 7 7 7 7 b I.j w w w w M I.u 7 4 4 7 7 7 7 w U I.F 4 3 2 3 4 7 e a x P %XjX6.c j j D.G 4 4 2 < < > > - < m.9 @ & + ",
". . . o X X X O + + @ @ # # # # # # # # # = - - - , , > < < 2 4 7 M F A c U ! H c n C ! ].OX4X:X!.%XW.m.y.^.iXiX$X~ S d.c.f d r w 7 7 3 3 3 3 4 7 7 7 n I.l e e e e D I.u 7 7 7 7 w w e [ #X} w 7 4 4 4 7 7 r d C r.qX7X&.c f f F.G 7 4 3 2 2 < 2 7 h v.7 @ @ + X X o o o X O + + & @ # # # # = = = = = - - - , > > > < < 2 4 7 w b D n l U / W C C Z Q R..X3X*X^..XE.N.n./.gXiX*X%.T v.m.x l r e w 7 7 4 4 4 7 7 7 7 n I.l e r r r D L.j w 7 7 w w e e W !. .w 7 4 4 4 7 w r f C a.9XwX&.n l l F.U 7 4 4 2 1 < 2 7 t m.9 # @ + ",
". . . o o X X X O O + + + & @ @ @ @ @ @ # = , < - , , , > < 2 4 7 7 w e r r a l l x c C ^ G.fXhX^.5XW.m.^ ,.*XT.&XD.F..Xm.d r e 7 4 3 2 2 2 3 3 7 7 7 n I.l r a a a G U.j e e e e e r { *X>Xn e 7 7 7 7 7 e a c ,.&Xc.%.S c c f P.U 7 7 4 4 3 2  .D.D.^.7 # @ + O X o o o o X X O + + + & @ @ @ @ @ # # # - > 1 > > > < < 2 2 4 7 7 w e e a d x c c c Z T M.pXhXL.:X.XV.%.y.>X^.*XD.K..XM.d a e w 7 4 3 3 3 3 4 7 7 7 n I.x r d l l G R.l e e e e r r { *X-XA e 7 7 7 7 w e d c ,.&Xc.=.P C c x F.U 7 7 4 4 2 2  .F.N.Q.9 # # @ ",
"o o o o o o o X X X X X O O + + + + & @ # < | i.v 2 2 3 3 6 7 w y j l x x b F l a d x c D S t.8Xa.,.N.&X]..X8X:X.XR.%X8Xq.a r w 7 3 2 < 2 2 2 3 7 7 7 M I.x a c 3.! U R.l r r r r r } .Xd./.A r e w w w w r d :.OXy.%.~ ^ S c c I.W w 7 7 4 4 4 p.{ n R.7 = # @ + X X o o o o o X X X O O + + + & @ @ # # <  .d.M 3 7 7 7 7 7 w y u j l x n U c l x c c C Z *.>X9.,.F.5XOX%XrX>XW.I.*X9Xu.d r w 7 7 3 3 2 3 3 4 7 7 7 n R.x d n r./ W W.x r r r r a } OXc./.S a e w w w e r f :.XXd.%.~ ^ G n c P.W w w 7 4 4 4 i.} M T.9 # # @ ",
"X X X X o o o o o o o X X X X X X + + & @ y M.f.I.x.l.l.z.M.B.S.F.G.I.I.I.'.:XF r a a l c n Q .XW C S / :.:.3.3.^ ! W.l.x r w 7 3 2 < < < < 2 3 6 7 7 M R.x d P <XR.! R.x r a d l X..X>.s.9Xv.n r e e e e r ~ .Xp.U.:X%X$X.Xp.n U.[ e w 7 7 4 7 s.M.t.^.7 - = @ & + X X o o o o o o o X X X O O + + @ # # y S.v.W.l.M.M.M.B.D.D.F.G.P.P.U.].<XU r j l l c c P !.U C T %.&.3.&.&.T ! W.M.c d e w 7 4 3 2 2 2 3 3 7 7 w M R.c d T 9X].! ].b d a l d  ..X,.c.9Xv.D r e e e r a ~ .Xp.U.5X&X*X$Xp.c P.! e w 7 7 7 7 x.B.u.Q.9 = = # ",
"X X X X X o . . . . . . o o X X X X + + @ , | w.v w w y y y y h h j k x x n { h w e r r l x G W.:.! ~ } :.:.:. . .F.s.x a e 7 4 2 < > > < < 2 3 7 7 w M R.c l C R.f.T W.b d d l n ].,.Z #XN.!.1.r r e e r l I.p.I. X7.6.%.d.I.D I.{ r e w 7 7 7 l.m.,.L.w - - # @ + + X X o o . . . o o X X O O + + @ # - 1  .d.F h h h h h j j k x x v v D } l e u u j l l H W.>.~  .:.:.:.:.:.:.P.m.n l r w 7 7 3 3 2 2 2 3 3 7 7 w M R.c l C W.M.! .Xc f l l n ].9.S $XN.!.,.j r r r r l I.p.U..X7.7.%.d.I.D I.} r e w 7 7 7 x.M.,.L.t - - = ",
"& & + X X X o . . . . . . . o o X X O + & $ - , - : > > > < < < 2 2 3 4 4 4 4 7 7 7 7 w r a l q.U.R.'.].].].].W.].i.f r e 7 4 2 < > , > > < 2 3 6 7 w M R.c l c D.9.T ].n l l c A .X! Z #X.X*X:.a r r r r x I.u.XX%.P.7Xu.r.I.A L.} j r e w 7 7 s.F e D.y > : - - # & + X X o . . . o o X O + + + @ # % - , 1 6 3 4 3 2 2 2 2 4 3 4 7 7 7 7 7 w w w e r u l x u.U.R.'.].W.W.W.!.!.f.n l a e w 7 7 3 3 3 3 3 3 3 7 7 w M R.c l c D.u.W .XC x c c A ].^ S $XOX*X .l j r a j c L.p.%X%.J.7Xr.9.L.A I.} a r e w w 7 p.F w F.t > - - ",
"I { @ + X X X . . . . . . . o o X X X + & @ # # - - - - , > > < < < < 2 2 2 2 2 2 4 4 7 7 w e a l x x c c c c x x a r w 7 4 2 < > , - , > < 1 3 6 7 w M R.c f c D.9.T ].C c c c S .X! C 3.$Xm.c l a r a l c I.u..X~ ].sXc.r.L.S R. .j r r e w w s.G r F.y < < > U ..# + O X X o o o X X O + & @ @ $ # - , > < 2 2 2 2 2 2 2 2 2 2 4 4 4 4 7 7 7 7 7 w w e r a l c c c n n n C C C c l j r e w 7 7 w h 7 3 3 3 3 7 7 w M W.n l c D.9.W .XD c c c S ].T Z ,.$Xm.c l l a l l c L.i..X~ '.aXv.r.L.A U. .l a r e w w p.F e F.y > > - ",
"u.p.# & + X X X . . . . . o o o X X O + + @ @ # # # = - - - - - - , > > > > < < < < 2 2 3 7 7 w w e r r a a a r r e 7 7 4 < > , - - - - , < 1 3 7 7 w M R.n l c D.9.T ].D c c c S  X^ n :.!.~ l l a a a l b R.u..X~ N.L.M.p.R.S E. .l j r r e w s.G r F.h 2 < < 1.f.- @ + O X X X X X + - B h 7 7 0 9 y y h h j j j k k k k k k k k x x x x x x v b n M M D F G G G U U W W W W U U G F D M n b M i.I.q.7 3 3 7 7 7 t D W.n l c D.9.T .XD c n C G  X! C :.!.! l l l d l l c R.i..X/ N.T.N.p.I.A U.:.l l r r e e d.G r F.u < > > ",
" . .# @ & + X X X o o o o o o X X X + + + & @ @ $ # # # # # # # = = = - - - - - - , > < < 2 4 4 7 7 7 w w w w 7 7 7 4 2 < > , - - = - - , > < 3 7 7 w D R.n l c D.9.W .XA c c C G  X! %..Xu.c l l a a d l c E.i..Xi..Xc.$XJ.U.S E.<.x l a r e e p.F r J.j 2 2 < { 0.- # @ + O O O + + & 7 K.v.i.i.s.s.d.f.f.f.z.m.m.M.M.M.M.M.M.M.M.M.M.B.B.B.S.D.D.D.F.F.F.P.I.U.U.U.R.R.R.R.U.U.U.I.P.F.F.D.M.D.#Xm.I.0 3 3 7 7 w y D W.C x c D.q.T .XH C C C U .X! %.!.q.c l l l d l l C E.p..Xp..Xc.$XJ.I.A U.>.c l j r r r l.G y F.h 2 < < ",
"<. .= # @ + O X X o o o X X X X O + + + & & @ @ @ @ @ @ @ @ @ @ @ @ @ @ @ @ # # # = - - , > < 1 2 3 4 4 7 7 7 4 4 2 < < > - - = $ $ = - , > 1 3 7 7 t D R.n l c D.q.! .XS n C D U  X3.*Xp.C c l l a a d l c E.p..Xp.N.Z I.J.U.S E.>.c l l j r r m.F u F.j 4 2 <  .q.- = # @ & + + + @ @ : s 6 2 3 3 6 6 6 7 7 7 6 6 3 3 3 3 3 3 3 2 2 3 2 2 2 3 4 4 4 7 7 7 w r r a a a l l l j j a r r r e w w w  .B.[ 3 3 3 7 7 w y D W.C c c D.q.! OXH C A A W .X,.$Xu.n b x l l l l l C E.p..Xp.N.Z I.K.I.S U.>.c x l l r l B.I u F.j 2 2 < ",
"1...- - # @ + + X X X X O O + + + + & @ @ @ @ @ @ @ @ & & + + + + + + + + + + + & @ @ $ = - - > < < < 1 2 2 2 < < > > - - = # # # # $ - - > 1 2 4 7 w D R.n c c D.u.! .XH C A A W .Xu.*X! C c l l d a l l n E.p..Xd.v.Z I.J.I.S E.,.C c c l l u.F.x j P.j 4 4 2  .w.> - = # # # # < 1 1 3 6 7 7 7 0 t t t 9 2 < < < > > , , - - - = # # = = = = - - - : > > < 2 4 4 7 7 7 7 7 7 7 4 4 3 3 2 2 2 2 2 3 2 2 2 3 7 7 w y D W.C c c J.u.! OXG A A Z ^ .Xp.*XW C c c l l l l l C E.p.OXd.N.Z K.K.I.S U.,.c c c l c i.F.x j P.l 4 3 2 ",
"1.>., - = # @ + + + + + + + + @ @ @ @ @ $ $ @ @ @ @ @ & + + + + O X X X X X X O O + + + @ # # - - - , , > > , , - - = = # # @ @ @ @ $ = - > 1 2 3 7 t D R.n c c D.u.~ OXG A A A ^ .Xi.%XW C c l l d a l l n E.p.OXf.E.9..XI.I.S E.,.A A C C l.I.D e l P.x 7 4 2  .w.> > - - - - n z.x.s.s.x.l.l.l.z.m.m.m.S...2 < < > , - - # # @ @ @ @ @ @ & @ @ @ # # = - - > < < < 2 2 2 2 2 2 < < < < < < < < < < < < 2 3 3 7 w y D W.C c c J.u.! OXG A A S ^ oXp.*X! A V c l l l l l C E.p.OXc.Q.a..XK.I.S U.,.A C C C l.I.C e l P.x 7 4 3 ",
"2.1.< > - = # @ @ @ @ @ @ @ @ $ $ $ $ $ = = $ $ $ @ @ & + + + X X X X X X X X X X X X O + + & @ # $ = = = - = = # # # # @ @ & @ @ @ $ $ - > 1 2 4 7 t D R.C c c F.u.~ XXG A A S ^ OXp.:X:.U C c l l l l l n E.p.%X9..X.XW.M.U.S U.,.S S ^ F.Q.G l r x I.x 7 7 4  .i.2 < < > > F S.n 6 6 6 6 7 9 7 9 9 9 9 y i.1.2 > > , - = # @ @ + + O O O O O O + + + @ @ # = - - , > > > > > > , , , , - , , , , > > < 1 2 3 7 w y D W.C c c J.u.~ $XW A A S ^ OXc.:X:.T A c l l l l l C E.p.$Xt.OX#XQ.c.P.A L.,.S S T D.E.S l r x I.x 7 7 4 ",
"q.q.< < > - - # # # # # $ $ = - - - - - - - - - $ # @ @ & + + X X X X . . . . . . o X X X O O + & @ @ @ @ @ @ @ @ @ & + + + + + & @ $ $ - > 1 2 4 7 w D R.n c c J.u.%.$XW A A S ! XXc.tX:XOXT c l l l l l C E.d.*X%.U..XM.,.I.S L.,.Q 6.E.$X! c l u b I.x 7 7 4 1.h.3 2 2 2 F F.v < > , - , > > > > > < < > 6 u.1.2 < > - - $ @ & + O X X X X X X X X O O + + @ @ # # $ = - = = = = = = = = - - - - - > < 1 2 3 7 7 y D W.C c c P.i.%.$XW A A S ! %Xm.tX:X%X! c l l l l l C E.d.*X&.R.$XN.,.P.A I.r.~ 7.U.XXQ c l r c U.b w w 7 ",
"q.q.2 2 < > - - - - - - - - - - - - , > > > - - - = # # @ + + O X o . . .       . . . o X X X X O + + + + + + + + + O O + + + + + & $ $ - , 1 2 3 7 w D R.n c c J.p.p.qX%.A A S ! %Xc.rXY.>X~ c l l l l l c E.d.%X,.5X8X.X9.I.S E.u.c.aXtXr.S c x l c U.b w w 7 1.j.4 4 7 q.I.M 2 < < > > > > > > < < < 1 1 1 9 i.0.3 > , - $ @ & + O X X o o o o o o o X X O + + + & @ @ @ @ @ @ @ @ @ $ # $ $ = - - , > 1 2 3 7 7 e D W.C c C P.p.t.qX:.A A S ^ %XM.rXY.<X:.c l l l l l V E.d.%X9.5X8X.X9.I.S L.a.b.fXrX9.Z c l l b _.n e e w ",
"k.u.4 4 2 < < > > , , , , > > > > > > < < < > > , - - # @ @ + O X X . . .         . . . . . o X X X X X X X X X X X X X X X X + + & @ $ - , 1 2 3 7 w D R.n c c F.i.d.8X:.C A A ^ %Xc.uX:X*X^ c l l l l l c E.u.i.Q I.fXD.r.U.S E.p.L.nX*X~ A c c l C '.b e e w 2.l.7 7 u D.{ 3 2 2 2 < < < < < 1 1 < 1 2 2 2 2 t s.q.3 > , - # @ + O X X o . . . . . . o o X X X X O + + + + + + + + & @ @ @ $ $ - - , > 1 2 3 4 7 y D W.C c n P.p.d.9X,.A A A ^ %XM.iX>X:X! c x l l l l c '.u.i.Q I.fXF.9.I.S T.y.T.nX*X~ Z c c l c '.D r r r ",
"u.i.4 4 3 2 2 < < > > > > > > < < < < < < < < < > , , - # @ & + X X o . .                 . . . . . . . X X X X X X X X X X X X + & @ $ - - < 2 3 7 w M R.c x c D.u.S ^ A C C C T OXc.5Xr.~ A c l d d l l c ].>.C Z ~ %X%.u.E.P E.i.*.<Xd.T A c c l D '.n e e w 2.m.w w w e 7 4 2 2 2 2 2 < < < 1 < 2 2 2 2 3 2 4 y d.q.3 > , - # @ + O X o o o . . . . . o o o o X X X X X X O O + + + & @ @ # $ - - , > < 1 2 4 7 t M R.C c c P.i.S ~ S C C A ^ %Xc.6Xi.~ A c x l l l l n '.,.A S $.*X%.a.T.S R.p.7.<Xn.T A c c l C '.D r r u ",
"j.l.u y e w w 7 7 7 7 7 7 7 7 7 7 7 7 7 7 7 7 7 1 < > , - # @ + + X X . . .                     . . . . . . . . . . . . X X X X + + & $ = - < 1 3 7 w M R.b l x D.q.c c c c c C G .Xp.&X~ S C c l l d l l c '.<.V C ~ $X%.U.6X( !.u.T !.%.A C c c l D '.C r r u i.B.l l j u y w 7 7 7 7 7 7 7 7 9 9 9 t t t w t 7 4 r s.q.3 , - = # @ + + X X o o o o o o o o o o o o X X X X X X O + + & @ $ $ - - , > < 1 1 2 3 7 w M R.n l c F.u.c C C C C C W OXd.:X~ S C c l l f l l n '.<.C A ~ $X&.L.6XE W.u.^ !.&.Z C c c l C  XD d d x ",
"%X$XI.I.P.P.F.F.F.D.D.D.D.D.S.S.D.D.D.D.F.F.F.P.1.3 < , - - # @ + O X o . . .                               . . . . . . o o X X O + & $ $ - > < 2 7 7 M R.b l x D.q.c c c c c c G  Xu.:X~ S C c l l l x c c U.} c C Q $X&.c.U.n.:X3.S Q./ C c c c l D  XD a r { *X*X_.U.I.P.F.F.F.D.D.D.S.S.F.F.S.F.F.F.F.F.F.I.q.w 7 w s.q.2 , - - = # @ + + X X X X o o o o X o X X X X X X X O + + & @ $ # - , , > < < 1 1 2 3 7 w M R.c l x D.q.c c c c c C G .Xp.5X~ S C c x f l l c n '.:.c C Q XX&.c.L.n.:X:.J Q.%.C C c c c A  XH d d { ",
"F D M n b b x x x x l l l l l l l l l l l l l v f.9.3 > , - - # + + X X o . . .                                   . . . . o X X X + & $ $ - , < 2 3 7 M I.b j l N.l.c c c c c c H  X:.OXP.S n c x l x c G U W.} c c ~ $X%.^ a.:Xd.S ^ .X! c c c c c H .XH l l c F D D D n M b v x x x x x x x x l x x x x x l M M.i.w 4 7 i.q.3 > - = # @ & + + O O X X X o o o o o X X X X X X X O + & @ $ # - , j  .n 1 1 1 2 3 7 7 n R.b j l B.l.x c c c c c H .X,.OXF.S C c c x c c G W  X} c c ! #X%.^ r.=Xd.S ^ .X~ c c c c c H .XG l l c ",
"j r r e w w 7 7 7 4 4 4 4 4 4 4 4 4 7 7 7 4 4 3 w d.q.3 < , - $ @ + + X X o . . . . . .                   . . . .   . . . . o X X + + & $ - , < 1 3 7 M I.x j l W .X2.c l l c c H  X~ ! oXm.n c c c c  .OXU.P.H c U R.d.P ,.*Xc.S Q W.N.D c x c c c G OXU c l l l a r r e e w w 7 7 7 7 7 4 4 4 7 7 7 7 7 7 7 7 h f.i.7 2 7 i.B.w.q.q.0.1.1.o.o.o...O.O.X.O.O.O.| O.O.O.O.O.X.O.O.| O.O.....1.1.0.K.f.D.9 < 1 2 2 3 7 b I.x u j W .X>.c x l c c H .X~ ! oXM.C c c c c } .XI.I.G c W R.c.S 3.$Xd.S ^ R.M.C c c c c c S .XW c c c ",
"l a r r e e w w 7 7 7 7 7 7 7 7 7 7 7 7 7 7 7 4 4 y f.w.2 < , - $ @ + + X X o o . . . . . .     . . . . . . . . . . . . . . o X X X + & $ $ - > < 3 7 b R.x u j j { .X,.l l l c C '.l.Z W ].i.c c c c q.U.S C l G R.s.D :.%Xd.S Q .XD.D c x l l c c W XX^ c c c x l l j r r e e w w 7 7 7 7 7 7 7 7 7 7 7 7 7 7 7 y f.i.7 3 t ' { [ ' U U I I I I F N N N N N N N N N N N N N N N N N N N I I I Y M.M.S.7 < < < 2 3 6 v R.l r u j } OX>.l l l c C '.j.V W oXl.C c c c 9.U.H A c G R.f.A :.OXp.S Q W.M.C c c c c c c G OX^ c c c ",
"l d a r r e e e w 7 7 7 7 7 7 7 7 7 7 7 7 7 w 7 4 4 M K.7 < < , - # @ + + X X X X o o . . . . . . . . . . . . . . . . . . o o X X X + & @ $ - , < 2 3 y D.i.j u j l } .X,.l l l c } oXp.c U ].i.c c c q.P.n b G I.i.n  ..Xp.Z Q .XD.A c x l l l c c W $X! Z Z C n c l a r r r e e w w 7 7 7 7 7 7 7 7 7 7 7 w w 7 4 v K.y 3 3 < > , - $ # @ & + + + O X X X X o o o o X o o X X X X X X X + & $ % 7 F h > > < < 1 2 3 y S.u.r r j l X.OX>.l l l c { .Xu.c U oXl.C c c 9.P.C c G R.d.D :..Xi.Z ^ W.M.Z c c c c c c C W %X! Z Z Z ",
"F.S.V.V.B.B.B.B.B.m.l.l.l.l.l.l.x.x.x.l.l.l.R.l.7 7 M K.t 2 < > - = # @ & + + X X X X X X X X X X o X o o o o o o o . . o o o X X X + + @ $ - , > 1 3 7 x F.p.l j l l } OX>.l l x c { .Xs.C ! .XP.N.D.!.P.n W R.i.c } !.r.Z ! .Xm.Z C u.P.F.F.F.P.P.E.rX.X].].'.).`.G.F.F.S.V.B.B.B.B.m.l.l.l.l.l.l.l.l.l.l.R.M.w 7 v K.u 3 3 2 < > , - - $ $ @ & & + + + O O O X X X O + X X X X X X O + + & @ $ % # - - , , > < 1 3 6 x F.i.j r l l X.oX<.l l l x [ ].i.n W oXU.D.D..XP.C W R.p.C :..Xi.C T T.c.C C u.I.P.I.I.I.U.].rX XU.R.R.",
"u.u.q.q.q.2.2.1.>.<. .X. .} } { { { { { {  .x.q.7 7 M I.y 4 2 < > - - # @ & + + + + + + + O O O O O X X X X X X X o X X X X X X X X + + & $ $ - , < 2 3 7 x F.p.l u l l } XX,.l l x c ! .XN.S G }  .X.X.G W R.p.C :..X9.c T W.i.c c l.].,.:.:.:.<.>.,.9.u.i.i.i.u.u.q.q.2.,.>.>.<. .X. .} } { { { { { { { } i.q.7 7 b I.u 7 3 2 < < , - - # # $ @ @ & + + + + + + + + + + + + * X X X X O + + + @ @ $ $ - - - - > < 2 3 7 l F.i.j u j l } .X:.l l c c ! .XB.S G X.} } } G W R.p.c :.!.u.C T R.s.c c p.].>.} :.:.:.>.,.,.u.u.u.u.",
"c z l l l d r r e w 7 7 4 4 3 3 3 3 3 3 3 3 7 7 7 7 M I.y 7 4 2 < < , - - # # @ @ @ @ @ & & + + & & + + + + + + O X X X X X X X X X X + & $ $ - , < 1 3 7 7 l D.p.l u l l } XX>.d l c C / %X.Xl.i.p.j.j.p.L.i.C >..X9.c T W.u.l x p.].G z z c c c c c C C C C C c c l l l a r r e w 7 7 4 3 4 3 4 4 3 4 3 4 7 7 7 7 n I.u 7 4 3 2 < < , , - - # $ # # @ @ @ @ @ & & @ & & & & + + + + O O O + + + & @ $ $ $ = - , < 1 2 3 7 l D.i.j u j l } .X .l x c C  .%X.XM.l.l.j.i.i.L.i.c :.!.9.C ^ W.p.c c p.].G l l z c c c C A Z S S S ",
"c c c c x l l j r e w 7 7 4 3 3 3 4 4 3 4 4 7 7 7 w D I.u 7 7 4 2 1 < > , - - - = = $ $ # # # # # $ @ @ @ @ & & + + O X X X X X X X X + + & $ $ - , < 2 3 7 7 l B.j.l j l l } .X:.d c C S c.hX!.d.i.i.i.i.:.c >.!.,.C ! R.q.x x p.U.H l z z c c c c C C C C C C c c c c l l l j u e w 7 7 4 3 4 3 3 4 3 4 7 7 7 7 7 M I.j 7 7 4 4 2 1 < > , , - - - - = = # # # # # # # $ @ @ & & + + + + + + + + + & @ @ $ $ $ - , < 1 2 3 7 l D.p.j u j l } .XX.l c A P d.gX.XM.l.x.i.i.:.l } !.,.C ! W.i.c c p.R.H l l z c c c V C A S S S S ",
"C c c c c x l l r r w 7 7 4 3 4 3 3 3 3 3 4 7 7 w w F U.j w w 7 7 4 2 1 < < > > , , , - - - - - - - - - % # # $ @ & + + O X X X X X X + + + @ $ = - > 1 2 3 7 7 j B.l.l u j j } .X:.x C T U.bXM.A c c l l l >.!.3.c ! W.,.l c p.I.D l l l l c c c C C C C C C C c c c c c c l l u e w 7 7 4 4 4 4 4 4 4 4 7 7 7 w w D R.l w w 7 7 6 4 2 1 < < < > > > > , - - - - - - - - $ $ # # @ @ + + + + + + + + + & & $ $ = - , < < 2 4 7 l D.p.j r j j } .X>.c A T P.kXN.S C c z l j } W.3.c ! !.i.c c m.U.D d l l l c c V C A S S S S S ",
"A C C C C G W A l u e w 7 4 3 3 4 3 3 3 4 7 7 w w e G R.l r e e w 7 7 4 4 3 2 2 < < < < < < < < < > > , , - - - $ # @ & + + X X X X X X + + & @ $ - - > 1 2 3 7 7 l D.d.l u j l  ..Xp.G T N.0X%.Z C c c c >.!.:.V ~ ^.,.c n M.K.C l l l l l c c C S S S A A C C C C C C C G W A l r e 7 7 4 3 4 4 4 4 3 4 7 7 w w w F R.l r e e w w 7 7 4 4 2 2 2 2 < < < < < < < < < > , , , - - = # @ @ + + + + O + + + + & $ $ = - < < 1 3 4 7 l D.l.j r j j } $Xd.W P m.8X%.S C c c c X.W. .c ! !.u.C A N.L.D l l d l l c c C S G S S S S J ",
"A A A A W .X*X!.H j r w 7 7 4 3 3 3 3 4 7 7 w e e r G R.l r r r r r e w w 7 7 7 3 4 4 4 4 3 2 2 2 2 1 < < < < > - - $ @ & & + X X X X X O + + & $ $ - - > 1 2 3 7 w l D.l.l u l l 2.>X:.S p.oXS C V V V 2..X:.l } !.>.x A v.I.D l l u l l l c C S M..XD.K S A A A A A A T OX$XQ.A r e w 7 7 4 3 3 4 4 7 7 7 w e e r H E.c r r r r r e w 7 7 7 7 4 4 4 4 4 4 4 4 2 2 2 2 1 < < < > - - $ @ @ + + + O O O + + + $ $ $ = - < < 2 3 7 7 l D.l.j r l l q.8X:.S u.OXW A C c c 1..X .l ! ^.9.D ~ I.L.C l l d a l l c C S M..XD.T K T T ",
"S S S S ~ =XC.$XW l r e w 7 7 4 4 4 7 7 7 w e r u j W E.c d f l c C l r e e w 7 7 7 7 7 4 4 4 4 4 4 4 4 2 2 < < > , - = # @ + + X X X X X + + + @ $ $ - , > 1 2 3 7 w x D.d.l j l n ! S A ,.'.C V V C u..X:.l } !.>.x ,.!.-XG l l u u l l l c V T $XQ.:X! S S S S S S Z $.5Xp.#XU l r e w 7 7 7 7 7 7 7 w w e r r r G W.c l l l c C l r e e w w 7 7 7 7 7 7 7 7 7 4 3 3 3 3 2 < < > - - $ @ & + + O O X O + + + $ $ $ = - > 1 2 3 7 7 l D.l.l j l C ! S D ,. XZ C c c 2..X:.c ! !.1.C d.=X:XG l l i i l l l c V J $XQ.:X~ T Q ~ ",
"c.^ S S ~ <X-X<XW x j r e w 7 7 7 7 w w e e r j l l ! E.c x c c ,.<XF.l.x.j.i.k.k.k.i.i.i.i.i.i.i.u.u.w.w.w.q.>.h < > - = # & + + O X X X X + + + $ $ = - , > 1 2 4 7 w x F.l.l l c c n c :.U.c c A p.$X:.c } W.:.l ,.^.u..XC l u r u l l c ! u.p.:XM.%X~ S Q D.M.T S S ~ ;X=X<XT l a r e w 7 7 7 7 w w e r r a l l W  XC c c c 3.:XD.s.p.p.j.i.k.k.k.i.i.i.i.i.i.u.u.i.w.q.9.>.y < > , - # @ & + + O X X O + + & $ $ $ - - < 1 2 3 7 w l D.l.l l l c c c >.'.C c C 2.$X:.c :.!.>.l q.L.:.].C l d r i l l l ! u.y.-XM.*X%.Q &.K.",
"9Xr.~ Q ~ #Xd.=X~ c l a r e e e e r r e r r l l x c } '.C c c V 3.$XM.p.i.i.u.u.u.u.u.u.u.q.w.q.q.q.q.q.q.1.>.d.D.h < , - $ @ & + O X X X X X + + + $ $ = - , > 1 3 7 7 w x F.m.c c c c x  .P.l A [.:X3.V :.!. .l l M.u.D W.W d u u u l l [ XXP.N.N.u.$X~ ~ a.gXaXr.%.^ S Q ,.:X .l l r r e e w e e r r r d l l l l ! .XH C V c :..Xm.i.u.u.u.u.q.q.q.q.2.q.q.q.q.q.q.q.q.,.>.d.M.y < > - - # @ + + O X X X O + + & $ $ $ - - < 1 2 4 7 w x D.M.c l l c c :.U.c Z ).*X,.V :..X,.l l c.1.c R.! d r r r l l ! OXP.D.D.u.*X%.%.c.gX",
"iX8X6XI.,.<Xd.$X!.} l l j r u <.D.D.N.G d l l c c c ! $X} C C C A S C c c z l l d d d d l d d d a a j D U F l l >.S.j > - = $ & + + X X X X X X + + & $ $ $ - , < 2 3 7 7 w b P.F.W c l l  .F.l A +Xi.C :.!.X.j l l M.q.z >.I.U u l l l H ].p.A D A } .X,.*X:XuXfX9XqXI.S C W :X!.~ l l r r r W N.N.D.W f l z c c c ! =X3.A C C C A V c c c z l l d d d d l d l l l l A U D l l q.M.y < > - $ @ & + + X X X X O + + & $ $ = - , < 1 3 4 7 w x F.N.H x l l } I.c H ].u.C :.$X2.l l l c.>.u } J.U l a l l G ].i.C A H :.$Xa.:X8XuX",
"a.a.N.OXi.qXp.Q i..X .x l l D Q.>.~ p.W.! l c S r.Q S m.XX:.A C A C C C V c c c c c c c c c c c c l G W.K.W.>. .u 1.B.7 , - $ @ & + X X X X X X X O + + @ $ $ - , < 1 3 7 7 w n OXI.x l j } P.l l C c T .X<.j j l l N.u.l l  .L.U l l D I.i.c C C C ! !.9.#Xr.,.r.r.N..XS C n ! i..X} l j u l K.,.! p..X~ c c S r.! S m.*X:.C C C C C C V c c c c c c z l l c c c c A W.T.W.9.} u q.z.7 > - - # & + + X X X X X O + + @ $ $ = - , < 2 3 7 7 e b ].P.c l j { P.l l n c ! $X2.l l l l M.,.u j } I.W i l H I.i.c V C A ! #Xp.:Xa.4.",
"T T 4..XQ %.S C c 2..X>.c x U E.c d l ,.Q.! c ~ 9X.XQ J m.$X:.C A C C C V V c c c c c c c c c A A x W R.>.W.D.m.u l D.y , - $ @ & + X X X X X X X X + + + @ $ $ - , < 1 3 7 7 e F G a a a  .U.x l l d :.F.j j j l l N.u.l l l m.u.l H I.i.l c c c C ! !.,.Q.^ J T J ,.].A c c c n ,.!. .l j c I.H l c q.XX~ c Q 1X.XQ T m.XX} C C C C C C V V c c c c c c c c S S c G W.>.R.F.M.u j D.y > , - # @ + + X X X X X X O + + @ $ $ = - , < 2 3 7 7 e D U l j r ! F.j j l l ,.).l j j l l N.q.l l u p.2.l F I.i.c c c V C Q XXu.XX~ J ",
"I.I. X.XP ~ c.c.:.C >.OXp.T W ].C l l l ,..X:.S y.<XW.~ K m.*XN.N.N.N.N.N.N.N.N.N.N.B.B.B.N.N.OX.XS G I.I.N.M.d.u j S.h < , - $ & + X X X X X X X X X O + + @ $ $ - , < 1 2 4 7 w w e r r X.).x a a r  .N.u u j l l D.u.l l d p.p.l m.N.c l l c c c ! .X,.:X_.U.U.I..X.XD U p.d.:.c  .W.p.W D L.W c c c ,.!.:.S a.<X.XQ Z i.XXN.N.N.N.N.N.N.N.N.N.N.N.B.N.N.N.%X3XS D F.K.D.d.f.y j D.h < , - # @ + O X X X X X X X X + + & $ $ = - , < < 2 4 7 w e e e e W F.h j j l >.F.j u u j l N.q.l l j u.2.j c.N.c c c c c C ! .X,.:XK.J.",
"l.l.l.,.Z j. XF.U.C c  .-Xv.! OXA l l l c 2.#X,.J ,.*XE.Q K i.M.m.M.M.M.M.M.M.M.M.M.M.M.m.m.M.].].S c n c S I.f.u l D.k < , - $ & + X X X o o o X X X X + + & @ $ $ - , > 1 2 3 7 7 w e e } U.d a r e  .M.r r u j l N.u.c l l d.i.c D.q.l l l x c c ! =X,.p.N.M.M.m.m.>.c u.T.B.P.x x } :XM.G W.! c c c x 2.$X4.T ,.&XR.G C ,.m.m.m.m.m.m.m.M.m.m.m.m.m.M.M.M.[.[.S c c c x l.S.j x F.h < > - $ @ + O X X X X X X X X X + + & @ $ = - , > < 2 3 4 7 7 w w U F.h r u j >.F.u r u u j N.u.c c l i.q.j N.q.c c c c c C ~ =X:.9.p.p.",
"c c c c C l.U.N.I.c c x G S h.fXT l l l c c ,.#X4.J %..XU.! S A A A Z Z A A Z Z Z D C C C c c D A c c x l 1.<Xi.u k D.k < , - $ & + X X X o . . o o X X X O + & $ $ $ - , > 1 2 3 4 7 w w q.$Xc r e w } B.u r r u u N.u.U 3.P N.d.A K.i.D D D c x c :.rXp.S A C C c c c x u.J.p.J.x x c T G ~ 8X:.c z l c c u.*Xa.T ~ ^.L.G C A Z Z Z Z Z Z Z Z C C C C C C n A D c x l l b .XI.l x H.h < > - # @ + O X X X X X o X X X X + + & $ $ = - , > < 2 2 3 7 7 7 >.#Xb e r r :.D.u e u u u N.i.S %.S c.p.c D.i.H S S C c V 3.yXu.V c c ",
"c c c c c ~ M.M.<.l l l l l } S.A l f f x c c 2.#X,.S ~ E.U.W A S S S S S S S ~ ~ A C C C c c c c x l l l x n l r h S.j < , - $ & + X X o . . . o o o X X X + + & @ $ $ - - > < 1 2 3 7 7 >.R.x w w w } D.u r e r r M.r.M.gX*X9X>X^.2X$XR.T.!.m.V c A ,.^ C V c b b x l l U d.f. .l l c c c U M.U l l l l c C u.*X,.Z W L.L.T S S S S S Z Z Z ! ~ A C C C c c c x l l l j j D n r j D.h < > - $ @ + O X X X o o o X X X X X + + & $ $ = - - > < < 2 4 7 7  .W.M w e e  .D.y e e r u M.t.y.gX*X<X,XT.,X$XW..X.XP.S V S :.G c c c ",
"} } } }  ./ ~ ~ ~ } ! ! ! ! ! %./ / / / G l c c ,.#X,.Z W I..XI.L.L.L.L.R.R.W.<X$XW C n c c c c x l l l j u r e 7 U S.9 > - $ @ + O X X X o . . . o o o X X X + + & @ $ $ - - > < 1 2 3 7 w r 7 7 7 7  .D.u e e e e m.9.! p./ J.f.A K.u.D F W J.P.:.:.:.:.:.:. .} } } } { ! W W ! !  .:. .:.:. .} ! ! } G c C C 2.#X:.C W U.$XU.T.T.R.T.T.T.T.:X8X~ C C c c c c l l l j j u r r w ! S.7 < , - $ @ + O X X o o o o o o X X X X + + @ $ $ $ - - > < 1 2 3 7 w a w w w w  .D.y e e r u M.r.T m.,.D.c.P L.p.G W W D.U.>.:.:.:.:. . .",
"R.R.L.L.I.I.K.I.I.I.I.I.I.I.I.R.E.W.W.R.!. .l c c 1.#X3.C G r.u.u.u.i.u.i.i.p.P.D.S n c b c c l l l j j u u r w I S.v < , - $ @ + X X X X o o o o o o X X X X + + + & @ $ = - , < < 1 3 3 7 7 7 7 7 w <.W.l e w e e m.,.l x x ~ U r v.<.j l c A M.].E.T.T.T.R.R.R.R.R.R.I.I.I.I.L.R.R.R.R.R.I.I.I.I.I.R..X:.c c c >..X,.S T r.r.r.9.9.9.9.r.r.N.P.^ n c c c x l l l j u u u r r ! H.B < > - $ @ & + X X X o o o o o X X X X X + + & @ $ $ = - , > < 1 2 3 3 7 7 7 7 7 X.R.j e e e e m.,.d x x ~ ! f F.q.l c c n j.U.L.I.L.L.L.U.",
"c x x l l l l l l l l l l l x c c c x l } W. .l l c 2.OX,.S S S S S S S S S S T S A D C n c b c x x l l j h u [ D.v < > - $ @ & + X X X o o o o o o X X X X X + + & $ $ # = - - > < < 1 2 3 3 3 7 7 w >.yXG w w w w m.,.r j j j r e c. .r l l l c c c b b c c c c x c x x x c c x x x l l l l l l x x c  .W.~ l l c 2.*Xu.K S S S S S S S S T ^ ^ S A D n c c c c x x l j j h W K.M < < , - $ @ + + X X X o o o o o X X X X X + + & @ $ $ $ - - , < < 1 2 3 3 3 7 7 7 X.9XG w w w e l.>.r u j l x l D.2.l l l l l l c c c c c c ",
"l l l l u u u u u u u u u j j j j a r u u [ W. .l x c >..X.X.X!.!.!.!.!.!.!.!.!.!.W.E.R.R.U.U.U.U.P.P.G.F.D.D.F.B < < , - # @ + + X X X X o o X X X X X X + + + & & @ $ $ - - , > < < 1 2 2 3 3 4 7 w x W.U w w w e m.,.r e e w w w l. .r u l l l l l l l l l l l l l l l l l l l l l j j j u j j j j j j { R.! l l c 2.%X.X.X X.X.X.X.X.X.X.X.X.X.X.X].R.R.R.U.U.U.P.P.G.F.D.F.M 1 < > - $ @ + + O X X X X X X X X X X X + + + + $ $ $ $ - - , , < < 1 2 2 3 3 3 7 7 l W.W w w w w l.<.e e e r r a N.,.r u u u u j l l l l l l ",
"j j u u u u u u u u u u u r a a u r r r u u [ W.} l l c G ! ! ! ! ! ! ! ! ! ! ! ! ! W W U U G G F F F M n M v y < < , - $ @ + + X X X X X X X X X X + + + + & & @ $ $ = - - , > < < < 1 2 2 3 3 4 7 w u K.U w w e e M.>.e w 7 7 7 7 q.N.l r r r j j j j j j j j j j j j j j u u u u u u u r r a a u r u u u W R.! l c c G ! ! ! ! ! ! ! ! ! ! ! ! W W U G G F F D D M n M v x y 1 < > - = # @ + + X X X X X X X X X + + + + + @ @ $ $ = - - , , > < 1 1 1 2 2 3 3 7 7 u F.U w w w w d.<.w w w e e r p.N.j e e r r r r u u l l l ",
"d.d.d.d.d.d.l.d.d.d.d.d.d.d.i.b r e e e e u y 1.P.l l l l l l l l l l l d l d d d r r r e e w w 7 7 7 4 4 2 < < > , - $ # @ + + X X X X X X X + + + + & & @ $ $ $ = - - , > < < < < 1 2 2 3 3 3 7 7 w u F.U w w e e M.>.w 7 7 7 7 7 u m.J.l.l.l.l.l.l.m.m.m.m.m.m.m.m.m.m.l.l.l.l.l.l.l.d.d.i.C r r e e e u y <.F.l l l l l l l l l l l l l l l l j r r e e w 7 7 7 7 3 4 2 1 < < , - - $ @ + + + X X X X X + + + + + & & @ $ $ $ $ - - , > > < < 1 1 1 2 2 3 3 4 7 7 u F.U w w w w p.<.7 w w w w e x N.N.i.p.p.x.l.l.l.l.m.m.m.",
"q.q.q.q.q.q.q.q.q.9.9.9.9.q.D.D.x w w w e e y [ P.u r u j l l l l l l l a a u r r r e e w w 7 7 4 3 3 2 2 < < > , - $ $ @ + + O O X X O + + + + & @ @ @ $ $ $ - - - , > < < 1 1 2 2 3 3 3 3 4 7 7 7 w y F.U w e e e M.<.7 7 4 4 4 7 7 j  .>.>.>.>.>.1.,.2.2.q.q.q.q.q.2.2.2.,.,.2.2.2.>.,.2.D.P.c e e e e e y W P.l u j j j l l l d l l j j u u r r e w w 7 7 7 3 3 3 2 2 1 < > , - = $ @ & + + O O X O + + + & & @ $ $ $ $ $ = - - , > < 1 1 1 2 2 2 2 3 3 3 4 7 7 w u F.U w w w w x.<.w w w 7 w w w l X.>.>.1.1.,.2.2.q.q.q.q.",
"j u u u r r r r r r r r r r l m.i.w w w w e w [ P.u e r r r r r r r u r r e e e w w 7 7 7 4 3 3 2 < 1 < > > - - = $ $ @ + + O O + + + + + & & @ $ # $ $ - - - , > < < 1 2 2 3 3 3 3 4 7 7 7 7 7 w w w y F.W e e e e m.X.7 7 4 4 4 7 7 w e e e e e e r r r r r u r r u r r r r r r r e e e r j m.l.e w w w e e W P.u r r r r r r r r r r r e e e w w 7 7 7 4 3 2 2 1 1 1 < > , - - $ $ @ & + + + + + + + + & & $ @ $ $ $ - - - , > < < 1 2 2 3 3 3 3 3 3 4 4 7 7 7 w w u F.U w w w w l.<.w w 7 7 7 7 7 w w w e e e r r r r r a d ",
"l l u u u r r r r r r r r r r X.B.e w w w w w W F.u e e e e e e y e e e w w 7 7 7 7 4 3 2 2 < < > > , - - - = $ $ $ + + + O O + + + + & @ @ # $ - - - - , > < < < 2 3 4 4 7 7 7 7 7 7 w w w w w e e e u P.! r r y e l.:.4 4 4 4 4 4 4 7 w w e e e e r r r r r u u r r r r r r r r r r r r r e { B.w w w w e e W P.u e e e e e e e e e w w w 7 7 7 4 3 3 2 2 1 1 > > > , - - - = $ @ @ + + O O O + + + & @ $ $ $ $ - - - , > > < 2 2 3 3 7 7 7 7 7 7 7 7 7 7 7 w w e e u F.U e e e w l.,.w w 7 4 4 4 7 7 w w e e e r r r r r d d ",
"! ! ! ! ! ! W ! W ! ! ! H r r :.N.y w w w e w [ F.e e w w w w w w w 7 7 7 7 4 4 3 3 2 1 < > > , - - - $ $ $ $ $ & + + O X X X + + + & @ # # - - - > > < < 2 2 3 4 4 7 7 7 w w e e e e e r r r r r r r l U.} r u e w  .D.G F F F H H H G G U U U U W W [ [ [ { [ ! ! ! ! ! ! ! W W W W W D r e { M.t w w e e e W P.u e e w w e w w w 7 7 7 7 4 3 3 2 2 2 1 1 < , - - - = $ $ $ @ @ & + + O X X O + + & @ $ $ - - - , > > < < 2 3 4 7 7 w w w w w w w w w w e e e r r r j P.! e e e e  .I.{ G G H H H H G G G U U W W W W W ! ! } ",
"I.I.K.K.K.K.K.K.J.J.K.J..X>.a <.V.y e w w e w [ F.y w w w w 7 7 7 7 7 4 3 3 2 2 2 1 1 > > - - - = # $ $ @ + + + + O X X X X O + + & @ # # - - , > < 2 2 3 4 4 7 7 7 w e e r r r r r r r r u j r r r r f m.U.C u r e y >.N.D.D.D.D.D.D.D.D.D.F.F.F.J.P.P.I.I.I.I.I.I.I.K.I.I.I.I.K.K.J.P..X<.r { M.y e e e e e W P.u e w w w w w 7 7 7 4 3 3 3 2 2 1 1 > > , - - = $ $ # @ @ & + + O O O X X X + + & @ $ $ - - , > > 1 2 2 3 3 7 7 w r r r r r r r r r r r r r r r a d a i.J.b r u u u >.D.D.D.N.N.N.N.N.N.D.D.D.F.F.F.F.F.P.P.P.",
"c c l l l l l l l l l l }  Xc >.S.u y e e e e W F.e e w t w 7 7 7 7 4 3 3 2 2 1 1 > > - - = $ # @ @ & + + + O O X X X X X X + + & @ # # - , , 2 t y y u j j j l l x c b n n C D D D D A D D D A D c l f C S.P.c r u e w y u u e e w w w w w e u u l l l c c c c c c c c l l l l l l l l } E.x } B.u e e e e e W P.r e w w w w 7 7 7 4 3 3 2 2 1 1 > > , - - = $ @ @ @ + + + + O O X X X X X O + & & $ $ - , > 1 7 9 t t y y h j l x n ! ! x l l a a a a d l c H H A f d x M.P.C j j u e y y e e w w w w w w e e r r u j j l l x ",
"c l l l l l l l l l l l D E.D >.F.u u r r e e W F.r e w w w w 7 7 4 3 2 2 2 1 < > , - - = $ # @ & + + + O X X X X X X X X X + & & $ # - - , 9 i.G.F.P.K.I.I.I.I.R.R.R.W.W.Q.Q.Q.Q.!.!..X.X.X X!.!.XXr.c c c M.P.c r r e e e e w 7 7 7 7 7 7 w e u l l z c c c z z l l l l l l l l l l l C I.b } N.u u r r r e W P.r e e e w w 7 7 4 3 3 2 2 1 < > , , - = $ # @ @ + + + O O X X X X X X X X + + & @ # - , > 1 [ F.D.D.D.F.H.K.K.R.R.W.1XW.A c x l l l l l l } E.Q.$X,.f d c B.U.D j u r e w w w 7 7 7 7 7 7 w w e e u u j j l l ",
"z l l l l l l l l l l l H Q.Z ,.F.l l a r r e { P.r e e r j e 7 7 4 3 2 2 1 1 < , - - = $ # @ & + + O X X X X X X X X X X X + & @ $ - - - 3 s.q.j l x x v b M n D F F G G G S G S S S S S S S S S ,.*Xr.c l l m.P.b r u r r e w w 7 7 7 7 7 w e u l c Z C c c c l l l l l l l c c c c x D L.n } N.l l l r r e W P.r e e u l r w 7 7 3 3 2 1 1 < > , - - $ $ @ @ + + O X X X X X X X X X X X + + @ # # - , < ` D.D x v v b n D F G U ! !.L.Z n c c c c c c c c S S ,.$X,.x x c B._.D j u r e w w 7 7 7 7 7 7 w e e r u u j l l l ",
"d.d.p.p.d.p.p.p.} c c c G Q.S ,.D.x x l l j r { P.j r r G ].G w 7 7 3 3 2 1 1 > > , - = $ $ @ & + + O X X X X X X X X X X + + & # $ - , 6 i.q.7 7 7 w e e r u j l l x c c ^ i.:.! Q Q ! ! ! ! ~ ! Z 3.$X9.l l l m.I.C d r r r e w 7 7 7 7 7 w u l x ^ XXU.m.c.c.d.d.d.d.d.d.d.c.3.C c c G E.A :.D.c c l l j r W P.r r r D  X{ w 7 7 3 3 2 2 1 < > , - - = # @ & + + O X X X X o o o o X X X + & @ # - - < I S.v 3 7 7 w e r h l l c C f.:Xp.,.3.3.3.>.3.3.3.3.>. .C :.$Xr.c c c M.U.D l d r e w w 7 7 7 7 w w e r u j j l l x c ",
"p.p.p.p.p.p.p.d.Q.u.W W :.XX~ i.L.^ r.! x l r { I.l a r G :XW e w 7 7 3 3 2 1 1 < > - - = $ @ & + + O O X X X X X X X X X + & @ $ - , 2 w.0.7 4 7 w e r r a l l c c c n C c.gX:X$XXXXX.XXXXX$X%X:Xc.Z :.#X,.l l l m.'.H d a r e w 7 7 7 7 w e u l x W .XL.m.c.d.d.d.p.p.p.p.p.m.!.p.T W :.XX! 9.R.^ t.9.c l u { P.j r r D :X .e w 7 7 4 3 2 2 < < > , - - $ @ & + + O X X X o o o o o X X O + & $ $ - - j D.x 3 7 7 w e r h j l x c C S m.OXOX.X.X.X.X.X.X.X.X.X&Xs.V :.$Xi.V c c m.].G l a r e e w w w w w e r u j l l l c c C ",
"c c c C W H c c } Q.XX.XXXyX!.=X1X!.rXJ.c l j } U.l a j b R.H r e w 7 7 4 3 3 2 1 < > , - $ $ @ & + + + + + + O X X X X * + & $ $ - , y S.r 4 7 7 w e r j l l c c C C C A Q r.~ T T T S S T T T 3.*Xy.c } #Xq.c c C M.].G l l r w w 7 7 w e r b u.c.p.T Z Z C n c c c c G A c c ! E..X.X$XrX!.$X9X.XyX*XC l j { P.j a j x L.W r e w 7 7 7 3 4 2 1 < > , - - $ @ & + + O X X X X o o X X X + + @ # = - , n f.4 7 7 w e r a j l x c n C A S S S S S S S S S S S S ~ !.p.C :.$Xi.V c C M.].G l a r r e e w e e r l u.M.d.A c c c C ",
"V C V ^ :Xm.A C C H W W } .X! i.R.~ ,.! c l l } U.l l l c E.G r u e w w 7 7 7 3 3 2 < < , - % $ $ & + + + & & & + + + + + + & $ % - > h M.r 7 7 w w e r j x n ! ^ S Z Z Z Z Z Z Z Z Z Z Z Z S S Z  ..Xi.c } *Xp.S Z A l.$XI.P.D.B.M.q.j e r a G .Xp.~.T C C Z Z Z C C ! -Xm.C c c A H G :.XX~ p. X! %.~ c l j { I.l l l c R.W u r r e w 7 7 7 4 3 2 < < , - - # @ & + + O X X X X X X X X + + @ # - , > M v.7 7 7 w r h l D ! A C C C Z Z Z Z Z Z Z Z Z Z Z Z Z Z ~ !.d.C :.*Xd.S Z Z x..XP.S.F.F.S.i.j e r u D .Xd.*X! c c C C ",
"r.r.r.3.:XM.Z C V V c c S E.D ,.J.n c c c l l } U.x l l C  XU d j u u e e w w 7 7 3 2 2 < , - - $ # @ @ @ @ $ $ $ & + + + & & $ = - > y S.h 7 w r n G A l x ! 6X;X'.'.E.U.U.L.L.L.R.E.E.E.E.Q.Q.I.U W !.p.c :.&XI.p.K C  .>. . .{ } D.M.c a d G  Xi.~.W A 3.9.r.u.r.r.3.-Xc.n c c c c c Q .XS ,.U.C c c x l l } I.x l l c E.W l l j j r e w 7 7 7 3 3 1 < , - = # @ & + + X X X X X X X X + + @ $ - , < F M.7 7 w w r j c M.hX.XI.I.I.I.I.I.I.L.L.L.L.R.R.E.E.T.K.! ! !.d.C 3.:XU.d.S c } <.<. .X. .D.M.x r a F .Xl.=X~ S :.,.9.",
"E.T.=XJ.E.p.Z C V c c c i.D.c ,.D.l c c x l l  .U.c l x A .XW l l l j j j h u r e 7 7 4 1 < , - - $ $ $ $ % - 1 : $ & & + & & $ $ - > y B.j w w b W.K.!.A x S I.N.u.u.u.u.u.u.u.u.u.u.u.u.u.i.u.D.T.H W Q.c.^ r.hXjXr.c l r e w w w l m.L.S l D p.M.p.A :.*XR.Q.Q.Q.-XL.T.u.C c c c c V m.L.C ,.U.c c l l l l } U.c x x n E.W l l l x l l j u r e 7 7 3 2 < > - - $ @ & + + O X X X X X X + + @ $ - , > F D.w 7 7 w r a c p.7XB.u.q.q.q.q.q.q.q.u.u.u.u.u.u.u.u.J.!.W ^ !.N.~ a.hXjX,.c d a r r r e j l.P.D d C p.D.M.W 3.-XT.E.",
"K K c.K.E.p.H A C V c u.I.D r >.I.x l l x l l X.U.c c c G XX! c c c U D.F.D.D.D.D. .w 7 3 2 < > , - - - - , I f. ., $ & & & & $ $ - , y M.h w e D R.! R.F l x c n c c c c c V c c C C C C C C c C d.I.F U -XK.E K.aX).A l a r e w e r l d.].! c c c c c ,.D.S T ^ ^ b.W.Q.p.C C c c c i.U.G c ,.'.n x l l l l } U.b c c A ].W l c c ! I.I.F.F.D.D.>.w 7 3 2 < , - - # $ & & + * X X X X X + + $ $ = - > y H.s. .v 7 e r l n A n c x x x c c c c c c n C C C C C C c.E.W ! -XK.E D.qXU.C l l r r e e e l i.R.! c c n C A r.R.J J ",
"$.~ N.L.U.p.H Z A C i.].H l u D E.q.l l l l l  .U.c c c G OX! C C %.%XP.} ! ! !  .I.>.w 7 3 2 < < , , , , 1 f.q.D.7 # @ & & & $ $ - , 9 M.F w r n R.'.U.n a l l l x c c c c c c c c c c C n c c c n f.W.! %.%.S T ,.%XM.c r e w w e e r l i..X! c c c n ,.K.~ %.=.%.J.^.!.p.Z C C c u.E.G l l H E.u.c l l l l } R.c c c S .X! c C :.&XP.~ ! W U ! I.q.w 7 3 2 < , - - $ $ & & + X X X X X + + + @ $ - > < k q.l.I.D w r d l l l l l l l x c c c c c c n C C n c c n m..X~ %.%.S S %.OXB.D l r e w w e r l q..X~ c n C A r.Q.%.&.",
":X=X<XK.E.c.S Z Z j..X! l l u u F I.i.c l l l } U.C C Z p.*X^ Z ,.8XP.S x l l a u D I.1.y 7 3 2 1 < < < < 1  .!.p.1 $ @ & & & $ $ - - > n S.G w r c C c a r r r a d d l l l l c c c c c c c A n c c n M.*XQ C C C C ^ R.].D w w w w e e r l q.!.d.C c C :.-X$X>X:X=X<XT.!.m.S Z C u.Q.W l l l l H I.p.c x l l } R.c c C u.*X^ C 3.8XI.S c l j u e n I.q.e 7 3 2 < , - - $ $ & & + X X X X + + + @ $ - , < < 2 4 | R.F r r r r r r r r d d d l f f g c c c n S n c c A D.:X! C C C n T '.oXF e w w w w e u l 2..Xd.Z Z Z ,.1X>X9X",
"bX$Xc.*.Q.M.p.m.P.XX} c l l u u u D  XG l l l u.I.A T y.:Xr.Z ,.8XI.S c c l l l j j F I.2.e 7 7 3 2 1 < < 1 7 M.x - = @ & & & $ # # - , > n D.u.i.x.l.l.l.l.x.l.l.l.m.m.m.m.m.m.M.M.M.M.m.D.5X>.c c c S #X:.c c c c f F m.n 7 7 7 7 w w e r a  .=X,.Q A G ,.c.tXbX^.a.&.Q.M.p.M.P..X! l l l l l j F OX} l l l u.I.c Z r.=Xu.Z 3.5X`.S c c l l j u y M U.2.w 7 3 1 < , - - # $ & + + X X X O + & @ $ $ - , < 1 3 7  .W.x.i.i.i.p.j.j.x.l.l.l.m.m.m.m.m.m.m.F.7X>.x c c S .X:.c c c x l G m.n 7 7 7 7 w w e j l >.-X9.%.J ^ a.D.tX",
"8XC.%.E Q.J.:XE.N.! c z l l u u u j P.W j u } .X:.J  XrXp.Z %.*XM.S C c c l l l l l i F I.1.e 7 7 3 2 2 1 1 6 m.k - = $ @ + + & @ # = - , < k {  .<.>.>.>.1.>.1.1.2.2.q.q.q.q.u.u.i.i.i.i.m.%X:.l c c D !.:.x f d d a r e w 7 7 7 7 7 7 w e u c /.~.-X%.S S ~ J.&Xt.^ ^ T.J.>X XP.} c l l u u u j l U.:.z c >..X~ C P.1Xp.S %.$Xm.Z V c c l l l u u u D I.2.w 4 4 2 < , - - # @ & + O X X O + + + @ $ = - , < 2 3 7 F  . .>.>.>.1.1.2.2.q.q.q.q.q.u.u.u.i.m.4X:.l c c C E.} l l d d a r e w 7 7 7 7 7 w e u j n #X~.-X:.S T %.T.",
"*.%.~ ^  X.X:X~ c c z l l j u u u c L.H u } .X>.C p.gXF.Z %.XXp.Z C c c c x l c u.q.l l F I.2.e 7 7 3 3 2 2 6 m.k - - $ $ + + + & @ # - - , > < 2 2 4 4 4 4 4 4 7 7 7 w w w e e r r r r r d c l l l z n Q.} d a r r e w w 7 7 4 3 4 4 7 w e r c ^.y.=X3.S S T ! ~ T K K L.!.8X3.Z V c l l u u u u D Q.! c >.XX>.f ,.tXV.Z %.XXj.A c c c c c c c l j u u D I.2.w 4 4 2 < , - - $ $ & + O O O O + + & @ $ = - , > < 2 2 2 2 3 4 4 4 7 7 7 w w w e e r r r a d c l l l l c L.} d a r r e w 7 7 4 3 3 4 7 7 w e u c Q.p.$X3.S S ^ %.",
"Q ^ T T d.XXI.G c z l l l u u u c D.i.j [  X>.V ,.=Xy.Z %.XXp.C C V V c c c c c m.:XW l l H R.2.e 7 7 7 3 2 7 m.k - - $ @ + + + & & @ # - - , > < < 2 2 3 3 3 4 4 4 7 7 7 7 7 w w e e e r r r r r a l c W.} r r e e w 7 7 4 3 3 3 3 3 7 7 w e l D..X.X~ Z Z S S S H H H u..XU.Q C c l l u u u u c P.p.c ;.XX,.V :.XXu.Z ~ !.p.Z C V c c c c m.M.c l l u u M P.q.w 7 4 2 < > - = $ @ + O O X X O + + & $ $ $ - - > < < < 2 2 3 3 3 3 4 4 7 7 7 w w w e e e r r r r a l l I.! r r e e w 7 7 3 3 3 3 3 3 7 7 w r l N.Q. X! A S S W ",
"K S S S S S Z V c l l l u u u D P.i.u ! E.X.c :.$Xu.C %..Xu.C V V C A S C c c c c i. XW l l H I.q.u w 7 4 3 9 m.k , - $ @ + + + + + & @ # $ - - - > > > < < < < 2 2 2 3 3 4 4 4 4 7 7 7 7 w w e e r u x R.{ r e w w 7 7 4 3 3 3 3 3 3 4 7 7 e r x A A C C C C A A A A D A S A C c c l l u u u c F.i.l ! Q.>.c :.$Xu.c ! !.u.C C C C C A C V u.=Xp.c l j u y b P.q.w 7 3 2 < , - $ @ & + O X X X O + + & @ $ $ = - - - > > < < < < 2 2 2 3 3 3 3 4 4 7 7 7 w w e e r r l I.W e e w 7 7 7 3 3 3 2 2 3 3 4 7 w e u x n C n C A A S ",
"S S S Z Z C C c c l l j u u D I.i.l ! T.} l ! .Xu.V :..Xu.V V V V C ,. X$.C V c c c u..X! l l F I.q.y 7 7 4 9 m.x > - $ $ + + + + + + & & @ # $ = = - - - - > > > > 1 < < < < 2 2 2 3 3 3 4 7 7 7 w e l R.W w w 7 7 7 4 3 3 3 2 2 3 3 3 7 7 w e u l l c c c c c C C C C C C c c c l l l l u b J.u.u ! E.:.l ~ OXp.C %.!.,.c V V C C :. X} C C ;.OXi.l l u u u M I.u.e 7 3 2 > - = $ @ + + X X X X X + + + & @ $ $ $ = - - - - - > > > > < < < < 2 2 2 3 3 4 7 7 w w e u P.Y w w 7 7 7 4 3 2 2 2 2 2 3 3 7 7 w e r d l c c c C A ",
"Z Z A A C C c c c l l j u D I.u.l ! T.} l Q Q.2.V :.XXu.C V V V c V p.tX3.Z K W V c c u..XW l l D P.2.e 7 7 9 M.x > - = $ + + O O X + + + + & @ @ # $ $ $ = = - - - - - , , > > > > < 1 2 2 3 4 4 7 w u I.U w w 7 7 7 4 3 3 3 2 2 3 3 3 4 7 w e r j l l l c c c V V V V c c c c l l l l l D P.u.u W L.X.l ! .Xi.C 3.XXu.c c c V C A 3.XX,.S C V }  X2.l l l l j D I.i.r 7 3 < > - $ @ & + X X X X X X X O + + + @ @ @ $ $ $ = = - - - - - - , , > > < < 2 2 3 3 4 7 w y G.U w w 7 7 4 3 3 3 2 2 2 2 3 3 4 7 w e r a l l x c c C ",
"A A A C C c c c c l l u D I.u.j ! T.:.l Q Q.2.c ;.!.,.C C V G m.m.u.! !.,.Z a.#X! c c c 2.Q.W l j D F.2.y t t B.x < , = $ + + X X X X X X O + + + + & @ @ @ @ @ $ $ $ $ = = = - - - - > > < < 2 3 4 7 y P.G 7 7 7 7 7 4 4 3 2 2 3 3 3 3 4 7 7 w e r r l l l c c c V V V c c c l l l l l H U.i.l W L.} u W Q.u.V :.XXi.C c c S M.N.p.K T L.m.C c l G T.2.l l x l l D I.u.w 4 2 < , - $ @ + O X X X X X X X X O + + + + @ @ $ @ @ # $ $ $ $ $ $ = - - - - > < < 2 2 3 7 t F.G 7 7 7 4 7 4 3 3 3 2 2 2 3 3 4 7 7 w e r r l l x c c ",
"! ! ! ! ! ! ! W G H F W I.u.l ! R.:.z Q Q.u.c } !.,.C A K S G m.D.XXH q.!.%.J J..X^ c c l 2.W.U j u D U.F t y N.x < > - $ @ + X X X X X X X X X X O + + + + + + + & & @ @ @ @ @ # # $ = - - > > < 3 4 t D.F 7 w G U l j h u u u u u h j j l x x b c n C A D H G W W W ! W G G H F D D ! U.j.z ! R.} u G T.u.c ;.!.u.A C Z C A M.P.=X3.Z ,.XX2.c l l G U.u.C D W C l W R.j 7 3 < > - $ @ & + X X X X X X X X X X X X O + + + + + + & + & @ @ @ @ # # $ = - - > < < 2 3 7 F.G 7 7 F U l j j u u u u u u h j k l x b n C D D F G U ",
".XXXXX#X<X=X.X.X XW.E.W.q.l ! T.:.z Q Q.u.c } !.,.C C A N.p.C C W  XG c 2.!.! Z M.OX! c c c ,.R.n j l S.{ y u N.b 1 < - $ @ + O X X X X o o o o X X X X X X X X O O O + O + + + + + @ @ # $ - , > < 2 7 S.F 4 r '.>XI.P.P.P.P.P.P.P.P.P.I.I.U.R.R.E.].]. X X.X.X.XXXXX#X<X#XW.E.R.L.L.W.i.c } ^.:.l K T.2.l } .Xu.C C C V.2.c V G ~.$Xp.Z >.OX>.l x l W .X:.%.>X,.l H I.l 7 4 2 < , - # & + X X X X . . . . . o X X X X X X X X X X X O O O + + + + @ @ # = - , < 1 2 7 D.F 7 w G.:XI.I.I.P.P.P.P.P.I.I.I.I.U.U.R.'.'.].]. X.X.X",
"G G U ^ $Xi.S H Z A D C l } ^.<.c Q Q.i.V ;..X2.V C C Z I.p.:.:.:..XG c l q.!.T C l.OX! c c C R.G l x P.} u j D.n 2 < , = @ & + X X o . . . . . . . o o o o o o X X X X X X X X X O + + & @ # - , < < 3 S.F 7 w D F j j u u y y r y y u h h j j l l x b c C D A S G G ^ $Xu.S D n c b c c >.!.>.c Q W.u.z ! !.,.C C C A _.p.:.,.%.T.r.#Xp.V :..X>.x c c J.u.~ <X:.c G I.l w 7 3 < > - # @ + + X X . . . . . . . . . . o o o X X X X X X X X X X X O + + @ # $ - , < 2 7 D.F 7 7 M D j j h u u y y y y y y u h h j l l x b n n D ",
"c c c A .X,.c c c c c c :.!.>.c Q Q.p.C :..X2.c V C C Z P.K.-X*XQ..XU c x c u.W.! C '.p.c c D T.W l c I. .u j D.M 2 < , - $ & + X X o . . . . . . . . . . . . o . . o . . . . o X X X O + & @ # - , < 2 i.p.e 7 7 7 7 7 4 4 4 4 4 4 4 4 4 4 7 7 7 w w e r r d l l l c C .X,.c c l l l l } !.,.V } .Xl.C :.!.,.c c V C A I.L.>X-XQ.Q.W } XXu.x i.P.c c c J.r.W .XW c G L.x w 7 3 2 < , $ @ & + X X . . .     . . . . . . . . . . . . . . . . . o X X X O + & @ = - > < 2 i.s.w 7 4 7 7 4 4 3 4 4 4 4 4 4 4 4 4 7 7 7 w e r r a l ",
"c c c C ].>.c c c c c C E.,.c Q Q.p.A J !.p.C C C K S S J.L.E.c..X.XG x x x c u..X} I.l.C C A T.! l C .X,.l l F.M 3 1 > - $ @ + X X X . . . . . . . . . . . . . . . . . . . . . . o o X O + & $ $ - > < t z.i.w 7 7 7 7 4 7 4 4 4 4 4 4 4 4 7 7 7 7 w e r r r r a l x n Q.,.c c c x l c L.>.V Q !.m.K W !.p.c c c H S Z P.E.!.b. X!.^ C :.!.9.9.I.c c n J.r.W XX! c K L.x e w 7 3 < , - # & + X X . . .         . . . . . . . . .       . . . . . o o X O + @ # - , > < t l.i.w 7 7 7 4 4 3 4 4 4 4 4 4 4 3 4 4 7 7 w w e r j l ",
"C c c c E.<.c c c c c S E.! Z U.m.^ ~ Q #X:.A C G .Xv.Z D.J.$XXXJ. XH l x x c c N.M.P.l.C C S W.! c T <Xp.l x F.M 3 2 < - $ @ + X X o . . . . . . . . . . . . . . .           . . . o o X O + @ # - , > < t l.i.r 7 7 7 7 7 7 7 7 7 7 7 7 7 7 7 w w e e r r r a j l l c E.>.c c c c c C L.U A U.M.%.,.~ $X>.A C A T.n.A P.K.=XXXK.!.^ Z C r.Q.i.U.n c C P.u.W .X! c W L.c r w 7 3 1 < - $ @ + O X X . .     . . . . . . . . . .               . . . o o X + + @ # - , < < t l.i.u 7 7 7 7 7 7 7 7 7 7 7 7 7 7 7 7 7 w e r r a l ",
"w.l l c R.X.l c c c c S Q.~ T XX%.D.XX%.$X,.Z A S XXp.C D.T.J.D.D.XXA l x c c C p.N.P.l.C C A W.! c C ~ F l x F.M 7 2 < , = @ + O X o . . . . . . . . . . . . . . .             . . . o o X + + @ # - , > < 7 h.H.M.B.M.M.M.B.M.M.M.m.m.M.M.B.B.B.N.D.D.D.D.P.R.,.l l x U.:.x c c c c S L.T H .X:.J.-X&.XX,.Z A S !.i.C F.Q.K.K.K.*X^ Z Z 3. Xp.I.n C C P.u.W .X! c W L.b r w 7 3 1 < , $ @ & + X X . . . . . . . . . . . .                     . . . o o X + & $ $ - > < < 7 x.K.M.B.B.B.B.M.M.M.m.m.m.m.m.m.m.M.B.B.D.D.F.K.I.",
"F l l l U.} l l c c C W !.:.^ !.%.J.E.~ $X,.S S S E.,.C  .l.p.p.p.>.x l x c D A p.N.P.l.A C F W.~ c c x l j x F.F 7 3 < , - $ & + X X o o . o o o o o o o . . . . . .           . . . . o X X + & @ $ - , < < 7 B M M M M M M M M M M M M M M M M F F F F G I.M.F a j l U. .l l c c A W ^.~ G Q.%.J.Q.~ XX,.G S S T.3.c } m.d.p.c.i.S S Z 3..Xc.U.C C C P.u.W .X^ V ! R.c r e 7 6 2 < , - $ & + X X . . . . . . . . . . . . . . .               . . . . X X + + @ # - - > < < 7 M M M M M M M M M M n n n n M n M M F F F I F.D.",
"r r u l I.} d l c c Z %.$X9.~ XX/ M.N.~ :Xd.^ :.:.W.,.V c c l l a u j l x n i.I.$XN.P.l.A A H ].~ c c x l j l F.D 7 3 < , - $ @ + O X X o o o o X X X o X o o o . . . . . . .   . . . . . o X O + @ $ = - > < < < < < 1 1 < < < < < < < < < < < < 2 3 4 4 7 m. .e e r l U. .l l c c S %.=X3.T !.%.M.D./ =Xc.~ 3.:.E.,.c c c l x c c A u.L..X$Xv.R.C C C P.u.G .X! V ! R.c r e 7 7 2 < , - $ & + X X X X o . . o o o o o o o . . . . . .           . . . o X X + + @ $ - - > < < < < 1 1 2 2 < < < < < < < < < < < 2 3 4 7 7 p.q.",
"e e e j I.{ r l l c T A.gXA.&.XX/ M.b.c.tX6Xp.U.M. X,.c c l l r r r u j l C ].J..XD.I.m.A C S Q.! c c l l j l P.F 7 3 1 > - $ @ + + X X X X X X * X X X X X X X X o . . . . . . . . . . . o o X + + @ # = - , > < < < < < < < < < < < > > > > < < < 2 3 4 7 M. .7 w e j U. .a l l c T A.gXZ.~ !.~ m.D.v.rX1Xy.U.N. X,.c c x l l x c A E.I.E.*XN.'.C C C P.u.J !.! V ! T.n a r w 7 3 < > - $ @ + O X X X X X X X X X X X X X o o o o . . . . . . . . . . . o X X + & @ $ - - , > < < < < < < < < < < > > > > > < < < 2 3 4 7 i.9.",
"7 w w u P.{ r d l c ~ <XbXT.=.XX/ M.M.M.8X6Xc.Q.M. X,.c c l u e e e e u l C ].%X:XF.I.m.A A S W.! c c l l j l P.D 7 3 1 > - $ $ & + + + + + + + + + + + + + O O X X X o o . . . . . . . . o o X X + & @ $ = - - , , > > > > > > , , , - - - - , > > < < 2 7 m. .4 7 w u I.} r d l c E 1XbXT.%.!.Q c.D.N.9X1Xc.U.M. X,.c c l l l l x C U.=X:X*XN.'.C V C P.r.T !.! C ! T.n a r w 7 3 1 > - $ @ + + O O X X O + + + + + + + O X X X X X o . . . . . . . . . . o X O + @ @ $ = - - > > > > > > > > , , - - - - - , > > < < 2 4 u.9.",
"7 7 7 y P.[ r r l c p.>XZ.*.~ .X~ M.N.a.XXQ.,.E.m. X,.c l j u e w w y u l c :.m..XD.P.l.C A H  X! c x l l h l P.D 7 3 1 > - $ $ @ & & & & & & @ @ @ @ @ @ & & + + + X X X X o o . . . . . . X X X + + & @ # $ - - - - , , - - - - - - - = = = - - - > < 2 4 l.{ 4 7 7 e P.{ r a l c d.-XZ.6.~ .XQ d.D.a..XU.&.L.M. X,.c c l l j l l c :.m.U.*XN.'.C c C P.u.T ~.^ C ^ T.n a r w 7 3 1 > - $ $ & + + + + + + & & @ @ @ @ & + + + + O O X X o o o . . . . . . o X X O + @ # # = - - - - , , - - - - - - = = = = - - - , > < 2 9.9.",
"3 3 7 t F.U e r l u.$X3.S S ^ .X~ M.I.XXXX$XD.L.m.'.>.c l u e w w 7 w y j x C A M.D.P.l.C C F ].! c l l j u k P.D 7 3 1 < - = $ @ @ @ @ $ $ $ $ $ $ $ $ $ # # # @ @ + + O X X X o o o o o o X X X O + + & @ @ # # = - - - = = $ $ $ $ $ # # # # $ = - > < < x.[ 2 4 7 7 S.U e r l u.$X:.S S ^ .X~ c.I..XXX$XJ.U.M. X,.c z l j u j l c C Z u.%XN.'.c c C I.p.^ !.^ C ! T.c a r w 7 3 1 > - $ # @ & @ @ @ @ @ # # $ $ $ $ $ $ $ @ @ @ + + O X X X o o o o o o o X X O + + @ @ # $ = - - - - = = = $ $ $ $ $ $ $ $ # = - - > < e.1.",
"2 2 3 7 F.G w r ,..X} c C A W .XQ m.U.OX:.p.L.U.m.'.>.c l u e w 7 7 w y u l c C M.D.I.l.C C A '.! x l l j u j F.M 7 3 1 < - = $ # # # $ # - - - , , , , , - - - = # # @ & + + O X X X o X X X X X O + + + @ @ @ $ # # # # # @ @ @ @ @ + + + + @ @ @ # - , > i.Y < 4 3 7 N.F 7 r 2..X~ c C A G .X~ m.U.XX%.p.U.L.M. X,.c l l j u j l c c C 2.OXc.U.c c c N.$Xr.!.W V ! T.c j e w 7 2 1 > - $ # @ @ @ # $ $ = - - - - , - - - - - = # @ @ & + + + X X X X X X X X O O + + & @ @ # # # $ $ $ # # @ @ @ + + + + + + @ @ # = - , 0.>.",
"< < 2 7 N.F w <.R.! l c c V G  X^ m.U.OX~ a.L.L.m.'.<.l l r w 7 7 7 w y u l c C P.M.P.l.C c D '.! l l l u u j F.M 7 3 < > - - = $ # - - - , > < < < < < < < < > , - - = # @ @ + + + O X X O O O O + + + + & & @ @ @ @ @ @ @ & + + + + O O O O + + & @ # - - w.I < 2 3 7 N.F 4  .E.! c c c c H  X~ m.U..X^ 4.L.L.m.'.>.c l l u u j l l c c l.'.p.I.c c c G V.:X>XW V ! T.c j e w 7 2 1 > - = # $ # $ = - - , > > < < < < < < < > , - - = # $ @ & + + + O O O O O + + + + & & @ @ @ @ @ @ @ @ + + + + O O O O O + + + @ # = - 1. .",
"> < 2 3 B.F e U.W a l l l c H ].T m.U.OX%.y.L.L.m.'.:.l l r w 7 7 7 t y u l c i.OX;.P.l.V c C E.! l l j u y j F.M 4 3 1 > - - - - - - , > < 2 2 4 4 3 4 4 4 2 2 < < > , - - # # @ @ + + + + + + + + + & & & & & & & & + + + + O O O X X X X X X O + & @ # = i.I - > < 7 D.F 7 F.U d f l l c A ].Q m.L..XQ r.L.L.m.'.>.c l l u u j l z c 2.OX .u.I.c c c C A i.:X^ V ! E.c u e w 4 3 < > - - = $ = - - , < < 2 2 3 3 3 4 3 4 3 2 < < > , - - = # # @ @ @ & + + & & & & @ & & & & @ @ & + + + + + O X X X X X X X O + + @ # # 1. .",
", > 1 3 m.M w F.x r r r l l D '.W m.L.&X.X%XP.I.m.'.:.l j e w 7 7 w t u l z q..X;.C F.j.c c n R.! l j u u y j F.M 4 3 1 < - - - - , < < 2 4 4 7 7 w w w 7 7 7 7 4 4 2 < < > , - = # # # # # @ @ @ @ @ @ @ @ @ @ & & & + + + O X X X o o o o o X X O + + @ # u.I - , > 3 D.F w D.l e r d l x A E.W j.P.%X XXXI.J.m.'.>.c l j u r l l c u.XX} l 2.P.c c c c c U .X! V ! R.b u e 7 4 2 < > - - - - - , > < 2 4 4 7 7 7 7 7 7 7 7 7 4 3 2 < < > , - - = = # # # # # # # # @ @ @ @ @ @ @ & + + + O X X X X X o o o X X X + + @ $ >. .",
"- - > 2 m.M 7 D.l w e r j l D E.U l.N.9.L.J.%.I.l.'.X.l u e w 7 7 w y u l u..X! c c N.h.c c n E.! j u u y y h P.n 4 2 1 > , , , > < 2 3 7 7 w e e r r r r e e w w 7 7 4 4 2 < > > , - - - - - = = # # # # # $ @ @ @ & + + O X X X o o . . . . o o X O + + - F.>.- - > 2 M.F e D.j 7 e r l l D E.G i.N.9.L.K.=.J.m.'.<.l l a u r l l :.=X:.x l ,.F.l l l x c G .X^ c ! R.c r e 7 4 2 < > , - - , , < 1 3 4 7 w w e r r r r r e w w 7 7 4 4 2 < < > > - - - - - - - - = $ # # # # @ @ & + + O X X X X . . . . . o X X X O + $ f.u.",
"$ - , 1 m.M 7 B.j 7 w e u l V U.G j.M.r.jXpX=.I.m._.} l u e w 7 7 w y j H '.P.A c c M.u.l x c '.W u u y y t u F.b 3 2 < < > > < < 2 3 7 w e r l l x x x x x l l a r e w 7 4 4 2 < < < > > > , : - - - - - = # # @ @ @ + + O X X o o . . . . . o o X X X + @ B y = - - > f.n e H.j 7 7 e r l C R.H u.M.r.nXdX*.K.l.U.:.l l r r r j H M. XS c l >.F.l l l l x F .XW c W L.x r w 7 4 2 < > , , , > < 2 4 7 w e r j l x x x x x x l a e w w 7 7 4 2 2 < < < > > > > : : - - - - - # # @ @ + + O X X X . . . . . . . o X X X + & k h ",
"@ $ - < m.F w D.u 4 7 w e u c U.H j.m.~ ).P.( E.m.U.} u r w 7 7 7 w y x U.].%X,.c G W.} j l D %X<.u u y t t u F.b 3 2 1 < < < < 2 4 7 e r l  .K.J.J.J.J.J.K.I.I.l.n d r e w 7 7 4 3 2 2 < < < > > : - - - - - # , , @ @ + O X X X o o o o o . . o o X X X + + @ # = - > f.M w K.k 4 7 w r j c U.H u.M.%.'.).=.T.m.U. .l u r r r l P.Q.:Xu.z l <.S.u j j l l D .XG c W L.x e w 7 3 2 < < > > > < 2 4 7 w r j } I.J.K.K.I.I.I.I.I.s.c a r e w 7 7 4 3 2 2 2 2 < < > > , : - - - - > , @ @ + + X X X o o . o . . . o o X X X O O + ",
"& @ $ > B.M.f.M.w 4 4 7 w r c U.H k.N.W ~ %.D.:Xu. X[ u e 7 7 4 7 7 y x ].p.E.i.G R.i.l h u n '.<.e y w t 7 y F.b 3 3 2 < < < 2 3 7 e a x >.Q.,.! T T W W ! ~ %..X<.c f d r e w j <.F x x x k j j h h y y y t h w.i.3 & + + O X X X o o o o o o o X X X X X O + @ # - , m.v.s.D.e 4 7 7 e r x I.H u.J.Q / %.M.5Xi..X! r r e e e l U.p.Q.i.l l <.D.u r r j j n ].G l G I.x e w 7 3 2 1 < < < < 2 3 7 w r l <. X,.! ! ! ! ! ! ! ~ W.:.c f a r e w j  .F x x x x k j j j h h y y j i.h.3 @ & + O X X X X X o o o o o X X X X X X O ",
"+ & # - z.{ x y 3 3 3 7 7 e x U.H  ..X'. XXXOXi.'.m.c r w 7 4 3 3 7 t j 1.-XW.>.E.i.l j r y y l r w w 7 7 7 u F.b 3 3 2 1 1 2 4 7 w r c ,..Xr.W  .:.:.3.,./ Z T W.r.Z n f d r e F $XR.F.F.D.D.S.S.B.m.z.l.s.i.M.F.D.v + @ + + O O X X X X X o o X X X X X X X O + @ # , m.{ h t 2 3 4 7 7 w l I.G  ..X]. XXXOXy.].m.x r e w w w e  .-XR.U d a  .S.r e r r r b E.H l G I.l e 7 7 3 2 1 < < < 2 4 7 w a x <..Xu.^ ,.,.,.>.,.Q Z S W.i.A n x d r e F $XL.F.F.D.D.D.B.B.B.M.M.l.l.D.K.D.v @ @ + + O O X X X X X X X X X X X X X X X ",
"O + @ - l.n < < < 2 2 3 7 w l U.F l A G U T %..XN.C j e 7 4 3 2 3 4 7 y l K.f.R.p.x r e w w w 7 7 7 7 7 7 7 y F.b 4 3 3 2 2 3 7 w r l } :X:X;XL.=X-XW.I.$X#Xa.r.!.J.^ A c x d a j D n x d a r w w 7 7 3 2 1 < 7  .X.< @ @ @ + + + + + + + + O X X X X X o X X X + + @ - l.M > > < 2 3 4 7 7 j I.G c S T ! ! / W.N.C a e w 7 7 7 w y F.%.a r r <.F.e w e e e x R.F l G I.l w 7 7 3 3 2 1 1 2 4 7 7 r l } 5X:X;XT.>X9X.XL.OX.Xa.r.#XI.E A n c d a l A c f d a r e 7 7 6 3 3 2 2 7 1. .< # @ @ & + + + + + + + O X X X X o X X X o ",
"X O + - l.v , > < < 2 2 4 7 j P.D l c C ^ =.].F.A l r w 7 3 2 2 2 3 7 w j P.<Xi.l r e w 7 7 7 7 7 4 4 7 7 7 y F.b 7 7 3 4 3 7 7 e r l ,.$XM.N.^.L.!.8.( t.*X7X%XwXbXOX%.Z c c l l d f d r w 7 7 7 4 2 < > > , - = = # # # @ @ @ @ @ @ @ @ & + + + O X X X o o X X + & # l.n > > > < 2 3 4 7 h I.F f c S E *..XD.C l r w 7 7 4 4 7 w D.~ e e e i..Xj w w w e x R.D r G I.j w 7 7 3 3 2 2 2 4 4 7 e a x q.*XN.J.Q.W.-Xy.E r.*X7X%X8XbX.X/ Z n c x l d d d a r e 7 7 4 2 < < > > > , - = # # # $ @ @ @ @ @ @ & + + + O X X X o o o ",
"X X + $ s.x - - > > 1 2 3 7 u P.M j c T ].fXK.S x j e 7 3 2 < < < 2 3 7 M W.i.j r e w 7 7 3 3 3 3 3 3 3 7 7 y F.M 7 7 7 6 7 7 w r l x ,.L.J T Z.,XeX(.A.b.&XI.:X*XwX#XOX%.Z Z C S  ./ S D G F h 7 4 2 < < > , - = # # # # # # # = = - = # # @ @ & + O X X o o X X X + $ s.v - > > > < < 3 4 u I.D r x T !.fXI.A x a e 7 7 4 4 3 3 x K.D w w w b I w 7 7 7 w l U.D r F I.j w 7 7 3 3 3 3 3 6 7 w r l c r.U.T T J.,XeX,XA.v.5XR.9X:XwX.X.X/ Z C C G  . .S A W U j 7 4 2 < < > > , - - - # # # = = = - - = $ # @ @ & + O X X o o X ",
"X X O $ i.k = - - > > 1 2 3 y F.c r x ^ 0XjX*.c l r 7 3 2 < < < < 1 3 k F.q.r w 7 7 7 3 3 2 2 2 2 2 3 3 3 7 y F.M 7 7 7 7 7 w e r l x >.K.S T *.A.eXnXfXA.%X&.K.$X7.^ M.%Xr.R J d.:X.XF.M.!.$X>.7 4 2 < < > > - - = # = = - - - , > > > , - - # $ @ + + X X o o X X + $ s.k = - - - > < 2 4 u I.D r d T wXjX9.c d r w 7 4 2 2 2 j D. .7 7 7 7 7 7 7 7 4 7 7 l U.n r F P.j w 7 7 7 7 7 7 7 7 w e r l c r.E.J T *.A.2XnXfXA.5X7.E.:Xr.^ v.OX,.T S l.:XOXI.N.!.$X>.7 4 2 2 < > > - - - - - - - - , , > > > , - - # @ @ + O X X o o ",
"X X O $ i.h # = - - > > < 2 t F.b e l C D.].Z d r w 7 2 < > > > > < < X.M.w 7 7 7 3 2 2 1 1 1 1 1 1 2 3 3 7 y F.M 7 7 w w e r r G >.,.N..Xu.p.c.Y.2XkXgX^.^.v.n.XX5X .Z m.7XXXE.%XI.q.I.D.u.I.q.7 4 2 < < > , - - - - - - , > < < 2 2 2 < < > - = # @ + O X o o X X O @ i.k # # = - - > < 2 y I.n e a c m..XS f r w 7 4 2 < < < X.h.4 4 4 4 4 4 2 3 2 3 4 7 k U.n e F P.h 7 7 7 7 7 7 7 7 w e r G 2.i.I.&Xp.d.c.J.,XkXgX!.~.b.c.XXwX:.J M.7XoXL.$XU.u.R.D.9.P.q.7 7 4 2 < > > - - - - - , , > < < 2 2 2 < < , - = # @ + O X o X ",
"X X O @ u.h @ # = - - > < 2 t F.x w r d h.S.d r w 7 2 < > - - - , > < 1.1.3 3 3 2 2 1 < < < > < 1 1 2 3 3 7 y F.n w e e r r j [ .XF.N.D.P.F.I.W.!.!.!.!.!.!.R.K.J.'.oX} Z j.fX%XI.:X.Xl.i.E.].{ 7 7 3 2 < > > , - - : , > < 1 2 4 7 7 7 4 2 < > - - # @ + X X o X X O @ p.j @ # # = - , < 1 7 F.M w r r q.B.l a e 7 3 2 < > > > 1.1.< 2 2 1 < < < < < 2 3 4 j U.b e D J.u 7 7 7 7 7 7 w e r r U W.P.F.I.U.U.R.E.W.!.!.!.!.Q.R.K.D.'.3X:.J j.fXoXP.:X.XB.s.]. X{ 7 7 4 2 < > > > , , , > > < 2 2 4 7 7 7 3 2 < > - = # @ + O X X ",
"X X O @ u.h @ # $ = - - > < 7 D.x 7 w e q.M.r w 7 3 < > - - = = - - > 1.1.2 2 < < > > > > , , > > 1 1 2 3 7 y F.M e r r j l } =Xp.c l c c C S T ^ E E ~ ~ E ^ T S S j.%X:.L ,.&Xm.^ S c d l j e w 7 4 2 < > > > > > > > < 1 4 7 w r r r w 7 4 < > - - $ & + X X X X O @ i.h & @ # # = - > < 7 S.v 7 w w >.m.r e 7 4 2 < > , - - X.1.< < > > > > > > < 1 2 3 h I.b e D J.u 7 7 7 7 7 w e u j W #Xp.l c c C A S S ^ ~ ~ ~ Q Q ^ T S S j.3X>.Z ,.%Xd.! S c f x l r w 7 3 2 < < > > > > > < < 2 4 7 w e r e w 7 4 2 > - - # & + X X ",
"X X + @ i.h @ # # $ = - > < 7 N.l 4 7 7 1.l.w 7 3 < > - = # # # $ - - .. .> > > , - - - - - - , > < 1 2 3 7 h P.M e u j l ! Q.-Xr.c c c c C A S S T T T T T S S Z A C i.3X:.g ! ].p.f d r e w w w 7 4 2 < > > > > > > < < 3 4 w a A %.S a w 7 3 < > - # @ + O X X X + @ u.h & @ # # = = - > 6 N.x 4 7 7 <.l.w 7 4 2 < > - - = = X.1., , - - - - - , > 1 2 3 y I.b e D J.u 7 7 7 7 w e u l U T./.,.l c c c C A S S T ^ T T T J S S Z A j.3X>.g ! '.s.g d a e e e w 7 4 2 2 < > > > > < < 2 4 7 w a D ! D a w 7 4 < > - # @ + O X ",
"X O + # i.h & # # $ = - , > 7 B.j 2 3 4 X.x.4 3 < > - = # @ @ @ @ # #  . .- - - - = = = = = - - , < 1 2 3 7 h P.D u j l x 2. X.Xu.c c c c n C A S S S S S S Z Z C C C C u.%X} d D I.F.m.m.f.d.l.x.x.i.i.i.i.i.i.i.i.i.i.i.x.l.m.D.#XlXN.x r 7 7 2 < , - # @ + O O + + @ u.h & @ # # # = - > 3 B.k 2 4 4  .l.4 4 2 < > - = # # @ | X.= = = = = = - - , > 1 2 y I.b w D J.u w w w w w u j l >. XE.2.l c c c c A S S S T K S S S Z A A A Z u.%X .d D I.F.l.l.l.m.l.l.l.j.h.k.k.i.i.i.i.i.i.i.x.l.M.D..XfXi.l r w 7 2 < > - # & + X ",
"+ + & $ i.h @ # # # = - - > 3 M.h < 2 2  .h.2 < > - = # @ + + + + @ @  .{ # = # $ $ $ $ $ = - - , < 1 3 7 7 j K.D u l l c 2.tXOX! c c c c c n A G W W W T S S Z C C C V c 1..XU w x { { { } { { [ [ Y I I I I I F I I I Y [ {  .>.m.4Xt.x r w 7 4 2 < - # @ + + + + & # p.h & @ # # # = - , 3 B.h < 2 2  .l.3 2 < > - = # @ @ + { | @ # # # # # $ = - > < 2 y P.b w D P.u w w e e e u l c 2.tXOX! c c c c c C S W T ^ T W K S S A A C c c <..X{ e x { } } { { [ [ ` ` ` I I I I F F I I Y [ {  .>.m.3X,.x r e 7 7 2 < - # @ + X ",
"+ @ @ - s.h @ # # $ = - - , 3 M.y > < > { k.< > - = # @ + + O + + + + { [ @ @ @ @ @ $ $ $ $ = - , < 2 3 7 w l K.D u l l D F.XXQ C c c C C c H D.Q. X XQ.'.'.E.U.! C V c l u } R.G 7 4 4 7 4 4 4 3 2 < < > > > > > > < < 2 4 7 w r l n c l a r w 7 4 < , = # @ + & @ @ = p.h @ # # # = = - , 3 B.y > < <  .x.2 < : - = @ @ + + O ' { + + + + & @ @ $ - , < 2 y P.b e F I.j e e e e r j l A P.XX! c c c c c c H F..X X.X X XQ. XU.~ C c c l r } ].[ w 7 7 7 4 3 3 2 2 < < < > > > > > > < 2 3 4 w r l C c l j r e 7 4 2 > = @ + O ",
"@ # # , s.k # = = - - - - > 3 M.t - > - { w.- - = # @ + O X X X X + O { [ + & + + + @ @ @ $ = - , < 2 4 7 y x L.G l l x 2..X! C C C C C A G P.J.~ :.:. .:.:.:.M.%X! c l j u e ` U.F 4 7 7 4 4 3 3 2 2 < < < < < > < < 2 2 3 7 w e r j j l l d r w 7 2 > - # @ @ @ # # - s.j @ # = = - - - - 3 B.y - > ; { x.< > - # @ + + O O X ` { O O O O + + @ # = - > 1 y P.b e H I.j y u u u u l l 2.$X! C V c V C C H P.P. .:.:.:.:.:.:.M.oX! c l l u e [ '.[ w 7 7 4 3 3 2 2 2 < < < > > > > < < 2 3 7 w e r j l l a a r e 7 2 < - # + O ",
"# = - > d.k # - - - - , > > 7 D.9 - - - ` 0.- = # @ + O X X X X X X X { ` O + + + + + @ @ $ - - > 1 2 7 t j u.>XM.c x l u.M.c C C C A S Q '.I.S A Z A C C C C Z l.oXW a r e w 7 F I.U 7 7 4 3 2 2 < < < < > > > > < < < 2 3 4 7 w e r u j f g g a 7 4 < - = # # # # = < f.k # = = - - > - - 7 S.t - - = ` i.> - = # + + O X X X ] ` X X O O O + & # = - > 1 y I.D e M R.F u u l l l l l i.N.V C C C A Z W I.I.S A Z Z A C C C C j..XW d r r e 7 ] '.[ 7 4 3 2 2 < < < < > > > > > > > < 2 2 4 7 w e r a d d c c d w 4 < - # & + ",
"- - - < f.k = - - , , > > 2 0.i.< = - = ` q.= # @ @ + O X o o o o X X ' ` O + + + + & @ $ $ - , < 1 3 7 e b .XJ.XXG x l i.m.c c C Z J $. X'.^ S S S A A C C C C C h.].F w w 7 7 4 F '.{ w 7 3 3 3 3 2 2 2 2 < 2 2 2 2 3 3 4 7 w e u j l x C r.v.S e 4 < - = # # # # - 1 M.v = - - - > < > 2 1.i.< - - = ] q.- - # @ + O X o o . ] ` . X X X O + + # = - > 1 9 D.u.u u :.P.H l c c c c l i.M.c C C A S ~ ].'.W Z S S Z Z A Z Z C c i.].F e e w 7 7 G U.[ 7 4 3 3 2 2 2 2 2 2 2 < < 2 2 2 3 4 7 w e u j l c C &.b.~ r 7 < - # & + ",
"! ..t < p.k = - - , , > 3 q.l.4 = = = # I 1.# # @ + + X X o o . o X X ' ` O + + + + @ $ $ - - > < 2 4 7 e x M.=XU.A c l i.m.c c A S :.OX.X~ T ^ p.M.p.^ u.p.r.C c l 0.I.b 7 7 4 4 7 F U.D.M.v.f.m.m.m.m.m.m.m.m.m.m.M.B.B.B.N.D.F.P.I.I.L.Q.fXbXr.r 4 < - = = : F  .9 > i.x > > - - > < 7 q.l.3 = - - # F 1.# # @ + + X X o o . I ` . X X X O + + # = - > 2 4 v F.q.j u 1.R.! C C C c c i.M.c C A S :..XoX~ J K i.N.p.! u.c.u.C c l 2.).D w 7 7 7 4 N I.B.m.m.m.m.m.m.m.m.m.m.m.m.m.m.M.B.N.D.D.F.P.I.I.E.!.tXbXD.a 7 < - # + O ",
"P.B.B.U q. .1.q.q.w.k.k.B.s.3 = = = = 2 i.D.2 @ @ + + X X X o o X X X ' ` O + + + @ @ $ - - , < 2 3 7 w u l C T S c c c i.m.c C A ^ 4X%X$.R T %.0X:X<Xd.=XT.%XA l u u  .F.b 7 4 3 3 3 h v l B M k l k k k k k k k k x x v v v M M F G U ! / D.].T e 4 < - = # y F.z.S.I 1. .w.i.i.q.w.i.B.l.7 - # # = 3 i.F.7 @ @ + + X X X X . I ` . X X X O + @ # - , < 2 4 7 x P.J.D c i.OXp.r.J C c p.m.c V Z ~ 4X3X$.R T %.0X5X8Xc.*XR.*XA l u u X.U.D 7 4 3 3 2 y x x n n l k k j k k k k k x x x v v M M M F F I ! / M.%X,.r 4 < - @ + O ",
"R.I. .x q.` F F F F F F F 3 # = = = = ' M.l.F + @ + + X X X X X X X O { ` + + + @ @ $ = - , < 1 3 7 7 e j l c c c V c c i.Q.u.i.p.M.:XU.M.M.M.J.XXT.>Xc.$XN.%XC a e w 7 [ '.1.4 2 2 < < > < w.m.4 : - - - - - - - - - : > > < < 2 4 4 7 e a f f e 7 2 > - # # 7 G.R.1.j 0.' F ] I F N N F 7 - - = # # ` D.m.' + @ + + O X X X X I ` X O O + + & @ $ - , < 2 4 7 7 F L.W c A M.tXyXm.Z C p.!.u.i.p.J.6X_.M.M.N.P.XXU.>XN.$XM.$XC a r e w { .X1.3 2 < < < < < u.M.4 > - - - = = - - - - > > < < 2 2 4 7 7 e a c C a 7 2 > # @ + O ",
"y h - # - - - - - - - = = = = = = = - F ].F.v @ @ + + O O X X O O + + { [ + @ @ # # - - , < 1 2 4 7 w u j l c c C C C C } D.D.D.D.J.J.L.E.U.L.U.L.I.m./ F.P.i.l r w 7 4 7 1.2.4 < < > > , : q.D.2 - - = = = = = = - - - > < < < < 2 2 4 7 7 7 7 4 < > - # # # - y k - & # # - - , - = = = - - - - - = N ].G.M + @ + + + + O O O U [ O + + + @ # # - , < 2 3 7 7 e u l c V C 3.9X>XE.J S :.J.D.D.J.P.U.E.E.Q. X XE.U.N.3.P.F.i.l r w 7 7 7 1.1.3 < > > > > > q.D.2 - - = = = = = - - > > > > < < 2 2 4 4 7 7 w w 7 2 < - # & + O ",
"+ + @ # - - > < < 1 < > > - - - - - - < | B - # @ @ + + + + + + + @ @  .{ @ # # - - , > < < 2 4 7 w u j l c c C Z A A S S Z Z Z Z Z Z S T T T E ^ S Z Z C c a r w 7 3 3 3 7 4 2 > > - - - # I w.- # # # # # # # # = # = - > > > < < < < 2 3 3 2 < , - $ # @ # # # $ $ # # - , > < < < > > , > , , , - < { B - # @ @ @ + + + + + [ { & @ @ @ # = - > < 1 2 3 7 7 e j l c C Z T M.U.,.T J S Z Z Z Z Z S T T R ^ E ^ J S S C x d r w 7 7 4 3 3 2 < > , , - - = U p.- = # # # # # # # = - , > > > > < < 1 2 2 4 4 2 < < , = @ & + + ",
"O + & # - , < 2 3 3 4 2 < < > > , - - , , - - # # @ @ @ @ @ @ @ @ # =  . .= - - , < 2 1 2 4 7 7 w l D A C C S T W T ^ ^ ^ T S S S S S S S J a.XXJ.^ Z C c l r w 7 4 3 3 2 2 < > - - = # # @ I 0.$ @ @ & & & @ @ # # t ..7 : , > > > > > > < < > , - $ @ @ $ $ $ $ $ # % - , < 1 3 4 4 2 < < > > < > > , - - - = # # # @ @ @ # #  . .# # # = - , < 2 4 4 3 7 7 w a c G G A S ^ E E ~ ~ Q T J G S S S S J J J p.$XJ.T S C c l a e w 7 4 3 2 < > > - - - # # @ I w.# @ @ & @ @ @ @ # # y q.h > , , > > < < < < < < > , - $ @ @ @ & ",
"X O & # - < 3 7 w w 7 7 4 2 2 < > > > > , , - - = # # # # # # # = - : i.s.> , > < x l.j 4 7 7 w a m.!.#Xu.D.!..X.XOXXXXX$X$X.X!.Q.W.!.d.A S ].:X8X3.Z n f a e w 7 3 3 2 2 < > - - # $ @ @ + F 1.+ + + + + + + @ @ 2 f.T.q.- - , , , - - = - - - - $ @ & + @ 6 0 - # # - , < 2 7 7 w w 7 4 2 2 < < < < > , , - - - = # # # = = > s.l.> - - , > > 1 b m.x 4 7 w r x B.*X*Xu.D..X.X$XXX$X%XOXOX.X.XQ.W..Xm.S J .X:X8X:.Z n c l r e 7 7 3 2 < < > - = # @ @ @ + F q.& + + + + + + @ @ 3 f.I.i.< , - - , , - - - - - - - $ # @ $ 3 9 ",
"X O & # , 2 w D ! c r w 4 3 2 2 < < > > , - - - = = = = = = = = = - : {  .< < 1 2 l F.M.j w w r l R.p.E.D.*XR..Xc.r.t.p.M.7XN.9.3.:.M.U.C C r.5XtXc.A c d r e 7 4 3 2 2 < < , - # @ & + + X N 1.X X X X O O + @ @ 6 S.p.i.- = - , , > t y y h k k j h | 9 j M.I.B % - : < 4 w c ^ n r w 7 4 3 2 < < > > > , - - - = = = = = - > [ | , - > < < 2 4 x F.m.u 7 e a c  Xc.Q.D.*XT.#Xb.p.p.p.M.5XN.9.,.:.M.R.C Z i.5XtXp.Z c x j r w 7 3 2 < > > - - # @ & & + O N 0.+ O X X O O + @ @ 7 D.q.i.> - - - - , y j k j j j h j o.h k M.I.",
"X + & % < 3 x ).jXP.q.>.<.X.} } { { [ [ ' ` ` ` ] ] ] I ] ] ] ] ] ` ` { F 6 2 2 4 7 e q.D.b r a x P.#X:Xd.$XrXqX3.S T $.oX4X:.S A C ,.I.C C Z Q r.$Xi.g a r w 7 7 3 2 < < > - = $ & + + + X N ..X X o X X O + & @ # Y W.k - = = - , ` G.x.i.i.x.M.M.q.M. .s.v.D.U # - - < 7 d D.hXI.u.1.>.<.X. .{ { [ [ [ ' ` ` I I ] I I ` ` ` I I ` ' F 3 2 3 3 4 7 1.m.x r d c U.$X:Xd..XyXqX3.J T $.+X7X3.S A C ,.I.C C A ^ ,..Xu.c l r e w 7 3 < > > , - = @ @ + + + X M 1.X X X X X O + & @ - { W.k - - - - - ] P.l.l.l.l.l.l.q.F.>.x.D.M.",
"X + @ = < 3 x ].jX.XN.m.d.s.p.i.i.i.i.w.w.0.0.0.q.q.2.q.q.q.q.0.q.q.q.i.I.>.7 4 4 7 7 y q.P.D l c G ~ ~ G Q 3.:.J S ^ E.%X&.T S A C ,.I.c c C Z C ~ W.,.r e w 7 7 3 u M 3 , - # $ & + X X X M >.X o X X X O + @ $ $ h d.> - - - - ] F.v 2 < > > < 2 7 s.e 3  ...3 # - , < 7 f I.jX.XD.M.M.M.m.l.s.s.i.i.i.i.i.u.q.q.w.u.u.u.q.q.q.q.u.s.U.1.7 3 3 7 7 w q.P.A c c W / ~ G ! 3.%.J J Q I.%X3.T S C c ,.I.c c c C c ! W.q.l r e 7 4 2 7 v 2 , - # $ & + * X o M 1.X X X X X O + & @ # h f.< - - - - I F.v 2 < < < < < 4 s.h 7 1.h.",
"X + @ = > 3 r S %.A l a e w 7 7 4 4 2 < > > > , - - - - , > > > < < 2 3 k D.1.w 7 7 w w u j.R.G c c C C A A Z S A S P..X$.J S Z Z C ,.I.c c c c c f G I.>.e w 7 7 4  .=Xj - - # $ & + X X o M >.X o X X X O + @ # # j l.< - - - N D.j < < > - - - - 2 D.h # # @ @ # # - < 3 r S %.A d a r r e w 7 4 2 1 < > > > - , - > > > > < < < 2 4 x F.1.7 7 7 7 w u l.].W V C C C A A A Z Z S P..X$.S S Z C c ,.I.c c c c x l G R.q.u e 7 4 2 ! /.j , - = $ & + O X X M >.X X X X X + + @ # # j z.< , - - N F.x > > : - : - - < M.h - - - ",
"X O & # > 2 7 r a j j u r e e w 7 7 3 2 < < < > > > > > > < < < < 2 3 3 4 x F.2.w w e u u c m.].W V C C C C C C A M.E.^ Z Z A C C C r.U.c l l l d j r U R.l w 7 7 4 M R.7 , - # $ & + + X X M >.X X X X O + @ # - - x M.< , , > l.F - > > - - - - # < m.y - # @ @ @ # - > 3 7 r d d d a r r e w w 7 4 2 2 < < > > > > > > < < < 2 2 3 4 4 k S.0.w 7 w e j c M.].^ C C C C C C C A M. X! Z A C C C V ,.U.c l l l l j r U R.l w 7 3 2 n R.0 > - = $ @ + + O X M 1.X X X X O + @ # # = k m.1 > > > l.I > > : - - - - = < m.y - - = ",
"X O + # - < 3 7 w e y r r r r r e 7 7 3 2 2 < < < > < < < 1 < 2 2 3 3 4 7 7 x D.q.r r j l c C m.].u.u.u.p.i.i.i.P.U.K C C C C C C T '.F.c l l l a r u M I.j w 7 4 3 x F.7 > - - # @ & + + X N 1.O O O O + & @ = - , v D.3 > > < M.v - : - - - = # # , l.y # # @ @ @ @ # , < 4 w e r a a r r r r r w 7 3 2 < < < < < < < < < < 2 2 4 3 7 7 7 j N.q.e e u l c C M..Xp.i.i.i.i.i.i.P.U.W C C C V C C G '.F.c l l j r r u M I.j 7 7 3 3 x H.7 > , - # @ & + + O N 1.O O O O + & # # - - x B.2 < > < l.M > > - - = = = $ > m.y = # # ",
"X X + @ - > 2 3 7 7 w e u j b S x e 7 3 2 < < < > > > > > < < 2 2 3 3 4 7 7 7 x F.k.l l c c n A i.D.D.D.J.J.K.I.D.K V V c V V V S '.*XT c l a r r u y M I.j 7 7 4 2 x F.7 > , - $ $ @ & + O F 1.+ + + + @ # = - , < n F.7 < < < m.M , , - - = = # # , l.0 # @ @ + + @ # - < 2 4 7 e r r r r c A f r 7 4 2 < < > > > > > > < < 2 2 4 4 7 7 7 7 k N.k.l l c c n A i.F.D.J.J.J.K.I.D.K V V V V V V G '.*XT x d a r r e y b P.j 7 7 3 3 x H.7 > , - = # @ @ & + F 0.+ + + + @ # = - , , v D.3 < < 2 m.M , , - - = = # $ > m.t # # @ ",
"X X + @ $ - < 2 3 4 7 w u l s.0XS.u.2.1. .X.X. . . . . . . . .X.1.1.1.1.1.<.M e M I.m.C c c C D C A A A S S S S A C C c c c c Z I.9XD.c l l u u r e y b I.j 7 4 4 2 l F.7 < > - - $ # @ @ & F 0.@ & @ @ # = - > < 1 M G.7 2 2 2 m.M > - - = = # # @ , l.7 @ @ + + O + @ = , < 3 4 7 w e r d d.wXN.u.,.<.<.X.X. . . . . .X. . .<.1.1.1.1.1.1.M w x P.B.C c c C C C A A S S S S Z C C C c c c c S I.9XF.c l j r u e w t v K.j 7 7 3 2 x F.7 < > - - $ # # # @ F q.@ @ @ @ # = - > < < b F.7 2 2 3 m.M > , - - = $ $ $ > m.t @ @ @ ",
"X X O + @ = , < 2 3 4 7 e l p.wXF.i.q.2.>.>. . . . . .<.1.1.1.q.q.q.q.q.u.m.W.[ l G '.F.S C D A A S S S S J S S S A C V c c c W Q.N.m.c l u r y e e t b P.h 7 4 4 2 x H.7 < > , - - = = = $ I q.$ # # # = - > < 2 4 F I.y 7 3 3 M.M > > - = $ # # @ , l.7 + + + O O + + # - > < 3 7 7 w r d d.0XD.i.u.q.2.2.>.>.>.>.>.>.1.1.2.q.q.q.q.i.k.M.W.[ l S [.P.S C C A A A S S S J S S S A C V c c c ! .XN.B.c l r e e w w 7 x K.j 7 4 4 3 x F.7 < > > - - - = = # I q.$ # # # = - > < 2 2 M F.w 3 4 3 m.M > > - = = $ $ $ > m.9 @ @ + ",
". X X + & $ - , < 1 3 4 7 r x A l e 7 3 2 < > > > > > < < 2 4 7 7 7 w e r l <..X>.C W ].P.S A S S S T T T ^ W S S S A C c c c G T..X>.l u r e e w w w v P.h 7 4 4 2 x H.7 2 < > > , - - - - ` w.- - - - - > < 2 7 7 F I.u w 7 7 B.n > > - - = $ $ $ > l.7 + + O X X O + @ $ - > < 2 4 7 w r c A l e 7 4 2 2 < > > > > < < 2 4 4 7 7 7 e r l >..X,.C W [.I.S A S S S T ^ ^ T W T S S A C c c c W .X.X>.l r e e w w 7 7 x P.h 7 7 4 3 v F.7 2 < > > - - - - - ` i.- - - - - > < 2 3 7 F P.y 7 4 7 m.n > > , - = = $ # > m.9 & + + ",
". X X O + @ $ - , < 2 3 3 7 w w w 7 4 3 1 1 > > > > 1 1 2 4 4 7 w l b c x F [ p.*Xi.S Q '.I.^ S S W Q ~ ~ $.~ Q T S A C C c c W #Xq.j r r e w w w w w v P.h 7 4 4 2 x P.w 2 2 < < < < < < > { i.> ; - > > < 2 7 7 w G I.j e e e D.M < > > - - = $ $ < m.7 + + O X X X O + @ $ - > < 2 4 7 w e e w 7 4 3 2 2 < < < < < < 2 3 4 7 w j x l l D [ p.:Xp.S W U.I.T S S T Q $.%.%.$.~ Q T S A C c c ~ *Xu.l r e w w 7 7 7 7 x P.h 7 7 4 3 v P.t 2 2 < < > > > < > [ i.> - - > > < 2 4 7 w U U.l w 7 7 M.M < < > - - = = $ > m.9 & + + ",
". . X X + + @ $ - , > < 2 2 3 3 3 2 2 < 1 > > > > > < 1 2 4 4 7 v U.U.U.q. X*X XI.fXm.T Q '.OXK.K.L.T.!.!.XX!.Q.E.L.P.P.P.F.D..Xq.u e e w w w 7 7 w t v I.h 7 7 7 3 v P.t 4 2 2 2 2 2 2 2 2 } i.< < < < < 2 7 w r a ! U.x a r u D.D 2 < > > - - = = < m.7 + + O X X X X O + @ # - > < 2 3 3 4 7 3 3 2 < < < > > > > < < 2 2 4 7 x I.I.I.2.Q.%X X_.fXm.S W U.%XI.J.I.E.!.#X$XXX.X.XW.U.I.P.F.F..Xw.j r e w 7 7 7 7 7 7 v P.h 7 7 7 4 v P.t 3 2 2 2 2 2 2 2 2 { i.< < > < < 2 7 7 e a ! ].c r e w M.F 2 < < > - - - = < m.9 @ + + ",
". . X X X + & @ $ = - , > < < < < < > > , , , , > > < 1 2 3 7 7 F ]. .].m.M.M.6XF.'.7XN.T ^ '.9XD.d.L.!.gXlX(.Y.b.c.p. X.Xu.q.} j e e w 7 7 7 7 7 7 9 v I.h 7 7 7 7 b I.y 4 4 4 4 4 4 4 4 3 1.i.2 2 2 2 2 4 7 e d c 9..XA l a j F.F 2 2 < < > , - - 2 m.7 & + O X o o X X + + @ # - - > < < < < < < < > > , , > > > < < 2 2 4 7 M ].} W.m.M.m.6XP.].7XV.T ^ '.9XN.y.L.~.hXkX,XL.M.m.p.]. Xq.2.} j r w 7 7 7 7 7 7 7 7 v P.j 7 7 7 7 b P.y 4 3 4 3 4 4 4 4 4 1.h.2 < 2 2 3 4 w r d c 9.*XS l r r N.F 3 2 < < > > - - 2 m.9 @ @ + ",
". . . X X X + + @ @ $ = - - - - - - - - - - , > > < < 1 2 3 3 7 M OX]..Xj.%X%XP.Z Z 3.OXD.^ / T.%Xr.L.Y.0XkXeX~.n.^ J N.B.c l a r e w 7 7 7 4 7 7 7 7 b I.j 7 w 7 7 M U.u 7 7 7 7 7 7 w 7 U R.F 4 3 3 4 4 7 w r x T 3XjX&.x j l P.F 4 3 2 < < > > > 2 m.9 @ + + X o o o X X + + @ # # - - , , > > , , - - - - , > > < < 2 2 4 7 v W.U. Xp.XX%XI.S S 3.OXD.T ~ L.%X4.I.L.0XkXeX~.c.Q J M.M.x l r r e 7 7 7 4 4 4 4 7 7 v I.j w w w 7 M I.y 7 7 7 7 7 7 w w W R.I 3 2 2 4 4 7 e a c P 3XjX6.c d a D.F 4 4 2 < < > > > 2 m.t @ @ + ",
". . . o X X X O + + @ @ # # $ = # = = = - - , > < < < < 1 2 4 7 w n G F n T ~ H c n A ! I.!.%X*X!.%XQ.M.n.^.iXiX*X%.^ D.B.c l r e w 7 7 3 3 4 4 7 7 w n I.l e e e e D U.u 7 7 7 w e r r W .X .w 7 4 4 7 7 w r d c r.tX0X&.c d d F.I 7 4 3 1 < < 3 y h m.7 # @ + O X o o o X X + + + @ # # # = = = = = = - - - - > < < < 2 3 4 7 w v F A n T ! G c C A ^ I.R.oX*X!.&X XM.g.^.iXrX*X%.^ N.D.c l r e 7 7 4 3 3 3 3 7 7 7 b I.l e e e e D U.u 7 7 w w w e r ! #X:.e 7 7 4 4 7 w r f Z a.qXwX&.n l a D.I 7 4 4 2 2 < 4 w u M.t # @ + ",
"o X o o X X X X X O + + + @ @ @ @ # # # = - < 2 < < < < < 2 2 3 7 w e r a l l l l x c D W D.aXhX^.5X.XM.Q &.#X^.:XJ.E.*XB.f j r w 7 4 3 3 3 3 4 7 7 w n I.x r a a a G R.j w w w e r l } :X-XA r w 7 7 7 w r d c >.%Xc.=.T C c x P.U 7 7 4 3 2 2 <.I.F.W.7 # # + O X o o o o X X X O + + & @ @ @ @ # # # = - > < , > < < 2 4 4 7 7 w e r d l j l l x c C U D.aXjX^.8X.XM.Q ,.#XL.=XD.R.%XS.c a r w 7 3 3 2 2 3 3 4 7 7 n I.l r a a a G U.j w e e e r r } *X>XA r w 7 7 7 w r d c ,.;Xc.%.S C c l F.U 7 7 4 4 3 2  .K.D.Q.t = # @ ",
"X X o o o o X X X X X X O O + + + @ @ # = 1 ..l.M 7 7 7 7 7 7 t u j x b c D U l j l x c A P t.8Xy.r.D.:X]..X<X:XQ.W.7XtXi.f r e 7 4 3 2 2 2 3 3 7 7 7 n R.c a c ,.~ U R.l r e e r a :.%Xm.#XT d r w w w e r f >..Xa.Q Q Q T Z c P.W w w 7 7 4 3 x. .F T.7 = # @ + X X o o o o o o X X O O + + + + @ @ $ # <  .d.M 3 7 7 7 t y u h j x c C D I l j l x c A S t.qXy.a.F.5X]..X<X:X^.R.wXtXj.c a w 7 4 3 2 2 2 2 3 3 7 7 n I.x a c 3.~ W E.l e r r r a X.OXc.#XP d r w w w e r l :.XXy.%.~ Q U C c P.W w w 7 7 4 4 p.X.D ^.t = = # ",
"X X X X X X o o o o X X X X X O + + @ # # h D.M.R.l.m.m.m.B.S.D.F.P.I.U.U.].:XF y j l x c A / $X! C S ~ / %.%.:.T ~ #XS.Z d r w 7 3 2 2 2 2 2 3 7 7 7 M R.c d T 9XW.! W.x r r r a } OX9.M.yXN.A a r e e r a  ..Xp.P.%X$X$X*Xf.n P.W e w w 7 7 4 s.m.i.!.t : - # & + X X o o o o o o o X X X X O + + & @ # y D.v.R.l.M.B.B.S.S.F.G.I.I.U.R..X:XD e u l x c A ~ *X! Z T %./ / / / T ~ .XS.A l r w 7 3 2 1 2 1 2 3 3 7 7 n R.c d P 8XR.~ ].x r r a d } OX9.c.rXN.A a r e e r a ! Q.y.U.;X*X*X$Xd.C I.{ r w 7 7 7 7 l.N.i.!.y - - # ",
"+ O X X X X o o o o o o X X X + + & @ # - 1 | i.M y h h h h k k x x x x x M { j e u j l x b W !.:.! ~ }  .:.} } } F.m.D f a e 7 7 3 2 2 2 2 2 3 7 7 7 M R.b l Z W.v.! ].b d l l c R.,.P *XD.!.,.l r r r r x I.p.U.E.*.*.=.c.R.C P.! r e e w w 7 d.s.>.L.y > : = @ + + X o o o . . . o o o X X X O + & $ # < | i.M y h h h h j k l x x x x M ! u w e j l x c ^ XX,.~ ~ } } }  .}  .P.m.D x a r 7 7 3 2 1 2 2 2 3 3 7 7 n R.c l C T.v.! .Xc l l l c '.,.S *XJ.#X9.d r r r r l K.p.I.W.7.7.%.d.R.C I.} r e w 7 7 7 l.m.1.E.y > - - ",
"@ & + O X X o o o o o X X + + + & @ # % - , < 1 < 2 2 3 3 3 3 4 7 7 7 7 7 7 7 w y y u j j l x q.I.R.].]..X.X.XW.W.p.c l d r e 7 7 3 3 2 2 2 2 3 7 7 w M R.n x c D.9.W  Xn l l l C '.U S *XOX=X3.l j r r j c I.p.%X&.I.7Xu.r.U.n P.} a r e e w w d.N 7 F.h < > - # @ + O X o o . . . o o o X X X + + @ $ = - , < < 2 2 2 2 4 3 3 4 7 7 7 7 7 7 7 w e u u l l c i.'.R.W.W.].]..X.X.Xl.c l a r e 7 7 3 2 2 2 2 2 3 3 7 7 n R.n x c F.u.! .XC l x x C '.G Z $X$X:X:.l j r a j x I.i.XX%.I.wXi.r.R.A U.} a r e w w w x.F 7 F.u > > - ",
"] { $ + O X X X o o o X + + & @ @ # % - , < 1 1 2 2 3 3 3 3 3 4 4 7 7 7 7 7 7 7 w t y y u u h j x c n D D C C n n x l j u r e w 7 7 3 2 2 2 2 3 7 7 w M R.n x c D.9.! .XD c c c F '.W Z t.:XM.C l l j l l c L.u.XX=.oXsXM.r.P.n I. .d a r e e e m.F w D.u < < , F | # + O X X o o o o X X X X O + & @ # - , > < < 2 2 2 3 3 3 3 3 3 4 7 7 7 7 7 7 w w y u j l l c c n n C D D C C x l j r e e w 7 3 3 4 3 2 3 3 6 7 7 M R.n x c J.u.! .XD c c c A '.W Z 9.*XM.c l l a l l c L.i..X~ [.sXM.a.R.S U. .d a r e w w l.G w F.h < < > ",
"q.p.# & + O X X X X X + # < # # # - - , , < < < 1 2 2 2 2 3 3 4 4 3 3 3 3 4 4 7 7 7 7 w w e e r a l d l x x x f l a r e e e e l 9. .w 3 2 2 3 3 7 7 w D W.n x c D.9.! .XF c C C G .X^ Z ,.#X} c l l l l l c L.u.OX:.D.T.N.i.P.C U.:.l d r e e r M.U r F.y < < > 1.s.# & + O X X o o X X X + O + + & $ # - , , < < < 2 2 2 2 2 2 2 3 4 3 3 3 3 4 7 7 7 7 w e e u j l l x x c c x l l u r e w w 7 w G q.M 3 3 3 3 7 7 w M R.C c c D.q.! .XA c C C G ].T L 3.!.! l l l d l l c L.i. X! M.L.N.p.R.S U.:.l d r r e e d.I r P.j 2 < < ",
"X. .# @ & + + O X O + + x F.q.1.1.1.1.1.0.q.w.w.w.w.w.w.u.i.u.u.u.i.i.i.i.i.i.i.i.i.i.i.p.s.l.l.l.m.m.m.M.m.m.m.m.l.l.s.p.p.p.L.T.^.I 2 2 2 3 3 7 7 w D R.n c c D.u.! .XH C C A W .X! :.#Xu.c c l l l l l C E.p.OXd.%XM.%XN.F.C U.>.c l l r r r m.Y j P.u < < > { 1.# @ + + O X X X O M ............1.1.0.0.q.q.q.w.w.w.w.w.u.u.w.i.u.u.i.i.i.i.i.i.i.i.i.p.x.l.l.m.M.M.B.B.B.M.m.m.m.f.f.s.s.s.c.!.K.D.7 4 3 3 7 7 w M R.C c c D.q.! .XF C C A W  XT :.#Xu.c x l d l l l C T.p..Xp.XXm.$XJ.U.S U.:.c l d a r r m.U r P.k 2 2 < ",
">...- # @ @ + + + + @ @ 9  .F N N F F F F I I I U U U U I I I I U U U U U U U U Y Y Y Y ! { {  . . . . .>.>.>.<.:. . . . ./ ~ d.^.W.n 2 2 2 3 3 7 w y D R.C c c D.u.! OXG C A S ! OX,.*Xp.A c c l l l l z C E.p.OXd.J.S I.J.I.S U.>.c c l l u j N.U a P.j 2 2 < | q.- # @ + + + + + F i.N M M M N N N N F F F I I I I I I I I I I I I I I I I I I I I I Y Y ! { { {  . . . . . .} { ~ ~ ! ! ! !  .L.W.f.7 3 3 3 7 7 t M R.C c c D.u.! .XH C A S ^ .X,.$Xp.C c c l l l l l C E.p.OXd.D.Z I.J.I.S E.>.c c f d d l D.U r P.l 3 3 2 ",
"1.>.- - # # # @ @ @ # # = - - - - , , , , > > > < > > , - - - - - - - - - - - - - - - - > > < 2 4 4 4 7 7 7 7 7 7 4 4 4 4 2 2 7 I M 3 2 1 2 2 3 7 w y F R.C c c J.u.~ OXG A A S ! OXp.*XW C c c l l l l z C E.p.OXd.N.A I.L.U.T U.:.c c c c c u.D.l j P.j 4 2 <  .q., - # @ @ @ # ` s.3 + + + @ @ @ @ @ # # # = = # = # # # # # # # # # # # # # = = = = - - > < < 2 2 3 4 4 4 4 3 2 2 2 2 < < < 2 k ` h 2 2 2 3 7 7 w M R.C c c J.u.! OXG A S S ^ OXi.*XW C c x l d l l l C E.p.OXn.D.Z I.I.U.S E.>.C c c c c p.K.c j P.x 4 3 3 ",
"2.1.> , - - - - 3 7 6 6 9 9 9 9 9 9 t t t t 9 2 1 1 < > , - - = # # # # $ @ @ @ # # # = - - , < < 1 2 2 2 2 2 2 2 2 2 2 < < < < < < < < < 1 2 3 7 w y F R.C c c J.u.~ OXG A Z S Q XXp.%XW C c c l l l l z C E.p..Xd.R.,..XU.U.T E.>.C C C A m.I.n w l I.l 7 4 2 | w.< > - = # - ` z.7 # # # # # # # # = = = = = = = = # # # # @ @ @ @ @ @ @ @ @ @ @ # # = = - , > < < < 2 2 2 < < < < < > > > > < < < < < 1 2 3 7 7 w D R.C c c J.u.~ OXG A S S Q XXp.%XW C c c l l d l l C E.p.OXc.E.,..XL.U.T E.,.A A C A m.U.H r l P.x 7 4 3 ",
"0.q.< < > > > N M.l.l.l.l.l.z.l.z.z.m.m.m.m.D. .3 < < , - - # # @ @ + + + + + + + + + @ @ # # - - , , > > > > > > > > > , , , , > > > > < < 2 3 7 w y F R.C c C J.u.:.XXW A Z S ! OXp.=X%.K C c l l l l c C E.p.OX9..X.XQ.N.'.T E.,.S S W F.Q.G l r l U.x 7 7 3  .i.2 < > - - I z.y - - - = = = - - = = = - - = = = # # @ @ @ + + + + O O O O O O + + + @ @ # # - - - , > > > ; - - - - - - - - , , > > < < 2 3 7 7 y D R.C c C J.u. .$XW A Z S ! %Xc.:X%.W C c l l l l l C E.p.XXr..X.XQ.M.U.J Q.,.S S T D.!.K l j c I.b 7 7 7 ",
"u.q.3 2 2 2 G v.v 7 7 7 7 7 9 9 9 7 9 9 9 9 l M.>.3 < , - - $ @ & + O O X X X X X X X O + + & @ $ # # = = = - = = = = = = = - - - - - , > < 2 3 7 w e F R.C c C J.i.%.$XW A A S ! %Xm.tX:XOX^ c l l l l c C E.p.%X/ I.XXM.u.E.T Q.2.Q *.U.$X! c l r x U.b w w 4 1.i.3 2 2 3 W f.t , > , - - - - - - - - - - - - - $ # # @ @ + + O O X X X X X X X X X O O + + @ @ # # $ = = = $ $ $ $ # # # # $ = - - , > < 2 3 7 7 y D R.C c C J.p.:.*XT A Z S ! %Xc.tX:XOX^ c l l l l l C E.p.%X%.I.XXN.r.'.T Q.u.~ -.L.$X! c l l c U.M w w 7 ",
"k.i.7 4 u u.D.v < < < < < 1 1 1 1 1 2 2 2 2 3 k B. .2 > , - = # @ + O X X . . . . . o X X X O + + + & @ @ @ @ @ @ @ @ @ @ @ # # $ = - - > < 2 3 4 7 e D R.C c c J.i.p.9X:.A A S ! %Xm.rXY.>X} c c l l l c A W.p.XX3.5X8XoXi.U.T Q.u.b.aXrX,.A c x l b '.b e e 7 1.i.4 3 w d.K.j > < > > > > , > , > > > > > - - - - = # @ @ + + O X X o . . . . . . o o X X X + + + & @ @ @ @ @ @ @ @ @ @ @ @ @ $ $ - - , < 1 2 4 7 t D R.C c C P.p.p.qX:.A A S ! %Xc.rXY.>X~ c l l l l l C E.p.%X9.5X6XOXa.'.T Q.p.b.fXrX,.Z c l l b U.D e e w ",
"k.p.w 7 D W.G 3 2 2 2 2 2 2 2 2 2 2 2 2 2 3 3 3 h z. .2 > , - $ @ + O X X . . . . . . . . o o X X X O + + + + + + + + + + & & @ @ # = - , > < 2 4 7 e D R.C c c F.p.n.9X,.A C A Q %Xc.uX>X=X! c c l l l c A  Xu.u.Q I.gXP.a.U.S Q.y.W.nX*X~ A c c l M '.b e e e q.j.4 4 u M.U 3 2 < < < < < < < < < < < < < > > , - - # # @ + + O X o . . . . . . . . . . o o X X X O O O + + + + + + + + + + + $ $ $ - - > 1 2 3 7 w D R.C c C P.p.d.8X3.A A A ! %Xc.iX>X=X! c x l l l z C E.u.i.~ I.fXI.a.E.S W.d.^.nX*X~ A c l l c _.D r r e ",
"j.s.w w u j 7 4 3 3 2 2 2 2 2 2 2 2 2 3 2 3 3 3 3 h z. .2 < , - # @ + X X . . . . . . . . . . o o o o X X X X X X X O O O + + & @ @ # - - > 1 2 4 7 y F W.C c c F.p.T %.S A C C W oXc.6Xu.~ Z c c l l l c A .X,.Z S $.%X%.y.R.S E.p.7.9Xn.S Z c c l D '.n r r r q.l.7 7 7 e 7 4 4 2 2 < < < < < < < < < < < < < > > : - = # @ + O X o . . .             . . . . o o o o X X X X X X X X X X O + + @ $ = - > 1 2 3 7 t D R.C c c P.p.S ! Z C C A ^ %Xc.8Xu.~ S c c l l l z C E.>.Z S $.*X&.p.Q.P T.y.8.9Xn.T A c c l n '.D u r r ",
"m.m.j j j u u y t t t t t t t t t t t t t t y t 7 3 h M.| 2 < - = # + O X X . . . . . . . . . . . . . o o o o X X X X X X X + + & @ # = - > 1 2 4 7 e F W.n l c P.p.C C C C c C G .Xp.5X$.S C c c l l l c C ].>.A Z ~ XX%.U.5XE W.r.^ #X,.Z C c c c D ].D r r j j.B.j u u u r y w 7 7 7 7 7 7 7 7 7 7 7 7 7 7 7 2 < > : - = # @ + X X o . .               . . . . . . . . . o o o o X o X X X O + & @ $ - , < 2 3 7 w M R.n c c P.i.c c c V C C ^ OXc.:X~ S A c x l l l c C E.>.C Z ~ $X%.I.6X( Q.u.E #X,.S C c c l C '.F l l c ",
"*X$XI.I.P.P.P.F.F.S.F.F.D.D.D.S.F.F.F.F.F.F.F.I.q.7 3 l B.X.3 > - # @ + O X o . o . . . . . . . . . . . . . o o o X o X X X + + & @ $ - - > < 2 3 7 w D R.b l c P.i.c c c c c c G .Xp.5X%.S C c c x l l c c '.<.V Z ~ XX=.n.I.g.-X%.S !.:.C C c c c H  XH l r { *X$XP.P.P.F.F.D.D.D.N.N.N.N.D.D.S.S.S.D.D.D.D.F.1.4 < > , - # @ + O X o . . .                   . . . . . . . . . . o o o X X X + + @ $ = - > 1 3 7 7 M R.n x c P.u.c c c c c C W oXp.:X~ S C c c l l c c c U.:.V A ~ XX%.p.J.y.:X3.T !.%.Z C c c l D  XH l l { ",
"F D D M n M b v x x x x x x l x x x x x x x l M S.w.w 7 x B.>.3 > - # @ + O X X o o o o o o . . . . . o o o o o o o X X X O + & @ $ $ - - > < 2 3 7 w M R.c l x F.M.c c c c c c S .X,.OXP.S A c c c c b F U '.} c A :.$X%.T r.*Xp.Z T .X~ V c c c c H .XG l d x D M D n n M v v x x x j j j l l k x x l l l l v f.9.7 < > , - # @ + O X . . . . .                       . . . . . . . . o o X X O + & $ $ - > < 2 4 7 n R.c l l D.l.l c c c c C G .X3.OXP.S C c c c c c G W ]. .c C ~ XX~ S ,.#Xp.S Q $X~ C c c c c D  XG c c C ",
"l j u u e w w 7 7 7 7 7 7 4 4 4 7 7 7 7 7 7 7 7 h f.i.u 7 l m.>.2 , - # @ + + + X X X X X X X X X X X X o X X X X X X X + + + @ # % - - , > < < 2 4 7 n R.b l l } $X,.l l l z c H .X~ ! oXB.A c c c c  ..XI.P.F c !  Xm.S 3.$Xp.S ^ R.M.C c c c c c G OXG c c l d a r r e e w 7 7 7 7 7 4 4 4 4 7 7 7 7 7 4 6 4 r f.i.7 < > - $ @ & + X o o . . . . . .                   . . . . . . . o o X X X + & @ $ - , < 2 3 7 n R.b a a W .X>.c c c c c H .X! ^ .XM.C c c c c  ..XL.I.G c W R.c.S :..Xp.Z ^ W.N.A c c c c c H .XW c c c ",
"l l j u r r e w w w 7 7 7 7 7 7 7 7 7 7 7 7 7 7 7 u M.d.y 7 h l.1.2 , - # # @ @ & + + + O O O O O O O X O O O + + + + + + & @ # - - , , > > > < 2 3 7 b W.c a j l } OX>.l l l c C '.l.C W oXm.A c c c u.U.A c l G R.m.S :.XXp.Z ~ OXD.C c c c c c c W XXW c c c x l d a a r e w w 7 7 7 7 7 7 7 7 7 7 7 7 7 7 7 7 r f.p.3 < > - # @ + + X o o o o . . . . . . . .       . . . . . . . . o o X X X + + @ $ = - > 1 3 7 v W.b r u u [ .X2.c c c c C '.p.c W oXl.n c c c 9.U.G A c G L.d.A :.XXp.Z ^ Q.N.A c c c c c c G OX^ V V V ",
"x l l j r r r e w w w 7 7 7 7 7 7 7 7 7 7 7 r r 7 7 M T.h 7 3 y x.1.2 , - - = # $ @ @ @ & + + + + + + + + + + + + & & & @ $ # - , v 1.M < > > < < 2 7 h G.i.j r u j } OX,.l l l c { .Xi.c ! oXm.A V c q.P.c c H K.i.c } .Xu.C ^ .XF.S c c x c c c c W $X^ Z Z C c c l d a r r e w w 7 7 7 7 7 7 7 7 7 7 7 7 r r 7 4 v L.w 1 < - - # @ + + X X o o o o . . . . . . . . . . . . . . . . . o o X X X + + & @ $ - , < 2 3 y F.i.u e u l } XX2.c l x x [ ].i.C ! oXj.c c c 9.I.A c G K.p.C } .Xp.Z W W.M.C c c c V C C C ^ %X! Z Z C ",
"`.G.G.S.S.V.B.B.B.B.B.B.M.M.M.m.l.l.l.z.z.z.].S.e 7 n R.h 7 4 3 t i.l.q.q.q.0.0.0.1.1.1.1.1.o.o.......o...o.o.o.o.o.o.o.1.0.0.q.i.R.d.D.6 > > < < 2 3 7 v P.i.r r u j } OX>.l l l l W .Xs.Z } %X_.P.D.Q.F.c W I.i.c } .Xr.V W W.M.Z Z p.I.F.D.J.J.I.E.9X X'.'.'.).I.G.F.F.S.B.B.B.B.m.m.l.l.l.l.l.l.l.l.l.l.W.D.e 7 x K.y 2 < > - - # @ & + + + X X X X X X X o o o o o o o o o o o o o o X X X X X + & $ $ - , > 1 3 7 x S.i.u u l l } XX,.l l l l W .Xm.A !  XP.N.D.!.P.A W I.i.c } .Xi.C T W.f.c c u.I.I.I.U.U.U. XrX XU.U.R.",
"k.i.u.q.q.2.2.1.1.1.<. . . .X. . . . . . . .l.w.e 7 M I.h 7 4 3 2 9 N F F F N N N N N N N N N N N N N m m m m m B m m m m N N N I D.H.l.2 , , , > 1 2 3 7 x I.i.u r u l } .X>.l l l c ! %XB.S ! >.>.:.:.G G L.p.C } !.,.c W R.d.C C l..X,. .}  .:.:.,.,.u.i.i.i.u.q.q.2.,.>.>.<.<.X. .} } { { { [ [ [ [ { } i.u.e 7 v K.u 4 2 < > - - # # @ & & + + + + + O O O O X X X X X X X X X X X X X X X X X + + @ $ $ - , < 2 3 7 l D.p.j u l l } XX>.j l c c ~ OXD.S G  . .X.X.G W L.i.c } !.r.C ^ W.s.c l p.].>. .:.>.,.,.,.,.q.u.u.u.",
"c c l l l l u u e e w 7 4 4 3 3 4 4 3 3 3 7 7 7 7 w D I.u 7 7 3 3 2 < < > , , - - - = $ $ $ $ $ $ $ $ $ $ $ $ @ @ & & @ @ @ $ = - 7 M 7 - - - - , < 1 3 7 7 x P.p.u r j l } .X:.j l c C  .%X.Xm.l.l.m.l.j.K.i.C >..X,.c W W.i.c c p.].W c c z c c c V C A A C C c c c l l l a r r e w 7 4 4 3 4 3 3 3 4 4 7 7 w w 7 b P.u 4 4 2 < < , - - = # # # $ @ @ @ @ & & & & & & + + + + + X X X X X X X X X + + & $ # - , > 1 3 7 7 l D.l.l u l l } .X<.l c c A %.$XOXM.l.l.l.j.p.L.i.c :.!.,.V ^ W.p.c x p.].G l z c c V C C A Z S S S ",
"c c c c c l l j u e w 7 7 7 4 3 4 3 3 3 4 7 7 7 w w D I.j w 7 7 3 3 2 2 < < < > > , - - - - - - - - - $ $ $ $ $ $ $ $ $ $ $ $ $ # # # # $ $ $ - - , < 2 3 7 7 x P.p.j u j l }  X<.l c A S d.gXW.d.j.l.m.l.>.c >..X,.c ! W.u.x x p.R.G l c c c c c V C A A C C C C c c c c l l l u r w 7 7 4 3 3 4 3 4 3 4 7 7 7 7 7 M P.u 7 7 4 2 1 < > > - - - - - - = = # # # # # # $ $ @ @ & + + + O X X X X X X + + & @ $ $ - , < 1 3 7 7 l N.l.l u j j { .X>.c c A T n.hXXXM.m.p.p.p.:.x } Q.,.c ! Q.i.c c l.R.D l l l c c C C Z S S S S S ",
"C C V c c c x l j u w 7 7 4 3 4 4 4 3 3 4 7 7 w w e F U.l e w 7 7 7 7 3 2 2 2 1 1 1 < > > > > > , , , , - - - $ $ $ $ @ $ @ @ @ @ @ @ $ $ @ $ $ = - , < 2 3 7 7 l D.p.j u j j { .X>.c A T I.kXc.C V c V V c >.!.3.c ~ !.u.c c p.I.D j l l z c c C C A A A A C C C c c c c c c l l u e w 7 4 3 4 4 4 4 3 4 7 7 7 7 7 M I.j w 7 7 7 4 3 2 < < < < > > > > , , - - - - - - - - $ # @ @ & + + X X X X X X + + & @ $ $ - , < 2 3 7 7 l N.d.j r j j } XX,.C S ^ I.bXD.S C c c l l } W.:.c ! ^.r.c c m.U.D l l l l c c V C Z S S S S S ",
"A A C C C K T S l u e w 7 7 3 3 3 3 3 4 7 7 7 w e e G R.l r r e e w w 7 7 4 3 3 3 2 2 2 2 2 < < < < < > > > , - - = $ $ $ @ @ @ & & & & & & @ $ $ = - > 1 2 3 7 7 l D.p.j u j l  ..Xp.W J M.7X~ A V c c c 2.!.:.V ;.!.u.C D v.K.n u u l l z c V Z G G S S Z A C C C C A Z T ^ S c a r w 7 7 3 4 4 4 4 4 4 7 7 w w w D U.l e e w w w 7 7 4 4 3 2 2 2 2 2 < < < < < < < < > > , - - # # @ + + + X X X X + + + & $ $ = - > < 2 3 7 7 l D.l.j r d l :.*Xm.W T m.8X%.S A V V c :.W. .x ! ^.9.c C M.I.C l l l l l c c C S K J J J J T ",
"S S S A W .X*X.XD j e w 7 7 4 3 3 3 4 7 7 7 w e u u G E.c j a a a r r e w w 7 7 7 7 7 4 4 3 4 4 4 3 2 2 2 < < > , - - $ @ @ & + + + + + + + + @ $ $ = - > < 2 3 4 7 x D.i.j u l l q.8X:.S u..XS C V V c 2..X:.V :.XX9.C S N.J.c u u u u l l c C S N..XN.K S S Z Z Z S S Q XX$X!.H l r e w 7 4 4 4 4 4 4 7 7 w e e e F R.x r r r r r r e w w 7 7 7 4 4 3 4 4 4 4 4 3 2 2 2 2 < < > - - # @ & + + O X X + + + + & $ $ - - > < 2 3 7 7 l D.l.l a l c u.<X:.S r.OXS A C C C 2..X:.l ~ !.,.c S v.J.C l l l l l l c C S M.XXJ.Q T ^ Q ",
"^ W S S ~ :XC.$XG l r e 7 7 4 4 4 4 7 7 w e r r j l W W.c l l l c A x j r r e w w w w 7 7 7 7 7 7 7 4 4 4 3 2 2 < > - = $ @ & + + + O X O O + + @ $ $ = - > < 2 3 7 7 l D.p.l j l A ~ S C ,.'.A C C C 2.Q.} c :.XX9.A i.!.=XD u u r u u l l c C T *X.X=X! K G J W K K K %.:Xb./.^ l a r e w 7 7 7 7 7 7 7 w e r r r G ].c l l l c A c d r r e w 7 7 7 7 7 7 7 7 7 7 7 7 4 4 2 2 < > , - # @ & + + X X X O + + + $ $ $ - - > 1 2 3 7 w l D.l.x l c A Q S A ,. XA C C C u.#X>.c ;.!.,.D d.^.=XH l l i l l l l c V S $XQ.:X%.Q ~ %.",
"N.~ T J %.<X-X>XW l j r w 7 7 4 7 7 7 w e r u l l l {  XC c c c 9.8XF.m.l.p.j.h.k.k.i.i.i.u.u.w.w.q.q.w.w.w.q.>.y > > - = # @ + + O X X X X O + + & $ $ = - > < 2 3 7 7 x J.l.l l c c c c >.U.c C S p.XX~ l } !.,.c i.!.9.].V l u r r u l l ! p.c.>XN.*X$.K ~ P.D.$.Q T %.>X=X,X^ c f a r e e w w w w w e e r a d l W  XC c c c r.8XJ.m.m.l.j.j.h.h.h.h.k.k.i.i.i.i.i.i.i.q.q.1.h < < , - # @ & + + X X X O + + + $ $ = - - > 1 2 3 7 w x D.M.c l c c C C ,.'.C V C u.#X:.c :.XX,.c i.T.:.E.c i r r l l l c W u.y.-XM.=X%.~ 7.W.",
"uXy.%.~ %.$Xp.$X~ c l r e 7 7 4 7 w e e r j l c c c }  XC c c c ,.OXc.i.u.u.u.q.q.q.2.2.2.q.2.2.2.1.>.>.1.,.,.d.S.h < > - # @ & + + X X X X X + + + @ $ $ - - > < 2 3 7 w b P.m.c l c c c :.P.c S [.=X3.c ~ !.<.c c F.i.D E.W i j u u u l W .XI.J.J.p.&X%.$.y.gXfXg.3.$.~ XXt.~.Q c c l d a r r r r e w e r d l l c !  XA c V C :..Xd.u.u.u.u.u.q.q.q.q.q.q.q.q.q.q.u.q.q.1.>.d.D.h < > - - # @ + + O X X X + + + & $ $ $ - , < 1 3 7 7 e x F.N.c l c c c :.'.c S ).$X:.c :.$Xq.c x N.9.c R.W r r r d l z { .XK.D.D.u.*X&.*.Z.lX",
"iX8X8XE.a.9Xp.*X$X>.l a e 7 5 5 n P.I.W a l c c C C ~ *X} c c C A S C c c c z l l l l l l l l j j u u M F D a u ,.S.h > - - # & + + X X X X X X O + + $ $ $ - , > 1 2 4 w e c P.N.G c l l  .F.l G oXi.C :.!.<.l l l D.u.z >.I.W l l l l F R.i.C A S :.%Xr.:X8XfXgXqXqX_.*.<Xp.~.T.J.F.D.D.D.D.N.N.N.M.D r d l c c c ! :X>.Z C C C A c c c z z l l l l l l l l l l l x H G F l l >.M.h < > - $ @ & + + X X X X O + & & $ $ $ - , < 1 3 7 w e b F.F.W c c c :.U.c H ].u.c ~ !.2.c c l M.2.l } J.G r r r l G  Xp.Z A S ~ $Xa.5X9XfX",
"r.r.M.XXc.aXp.~ i.*X>.d e 4 5 5 s ! i..X! l c S i.~ S m.XX} C A A C C C V V c c c c c c c c c c x l n U.F.W.n e w >.M.3 , - # @ & + O X X X X X X O + + & $ $ - , < 2 3 7 w e n OXP.x l j } F.l c A c ! XX,.l l l l N.2.l z >.E.! l l F I.u.c c C A ! .Xu.*Xa.r.a.a.N..Xt.fXd.~ 3.:.:.} } } { ! W W q.L.W l c S r.! S M.*X:.Z C C V V c c c c c c c c c c c c c c x G ^.T.^. .W e  .M.7 > , - # @ + + X X X X X X + + & @ $ $ - , < 2 3 7 w e c .XR.c l d ~ P.l l D c W !.,.l l l l N.q.l l } K.G r u D I.p.C C C A ~ #Xp.=Xa.,.",
"J S 3..X%.3.T Z C 9.$X:.e 5 5 5 8 r d 2.XX~ C %.qXOXQ S m.XX:.A A C C C C V c c c c c c c c c S A c F U.} L.n w 7 h S.t , - $ @ & + O X X X X X X X O + + @ $ $ - , < 2 3 7 w e F G j j a } I.l l l l ,.U.l l l j l N.,.l l l m.i.l H K.u.l c c c C ! !.2..X~ R ^ T ,.'.^ 3.S C V c l l r r r r r y u <.^.~ V ~ <X.XQ J m.$X:.C C C C C V V c c c c c c c n n S A c W W.:.R.N.M.y j D.y < > - $ @ + + X X X X X X X + + + @ $ $ - > < 2 3 7 w e F W l l a ! F.j l l c ,.P.l j l l l N.u.l l l p.2.r n F.i.c c V C A ~ $Xu..XT S ",
"P.P. X.XW  .M.N.,.C :.!.m.l 7 w e a l c u.$X:.T d.9X].Q S m.*XF.N.N.N.N.N.N.M.M.M.M.M.M.M.B.N.OX'.A D P.I.F.x w 7 h B.y > - # $ & + O X X X X X X X X X + + @ $ $ - , 1 2 3 7 7 w w e r a  .I.l l l l >.F.l j j j l M.,.l l l j.p.l c.M.l l l l c c ! !.,.:XU.U.L.I.Q.E.A ! c.M.,.C c l j u r r u u u l >.!.3.J a.<XW.Q S c.$XN.N.N.N.N.N.N.N.N.N.N.N.D.F.F.F.%X].A G R.L.D.l.v.u x G.h < > - # @ + + X X X X X X X X O + + & $ = - , 1 2 3 7 w w e r r r Y F.j j l x 9.F.j u u j l N.u.c l l u.q.r i.M.c c c c V C ~ XX,.:XL.K.",
"m.m.m.,.S m..XI.'.c l ~ :X2.r r u j l l c u.*X,.T r.:XE.Q K p.M.M.m.m.m.m.m.M.M.M.m.m.m.m.m.M.].).A x x x l e w 7 h D.y < , - $ & + O X X X o o X X X X X + + & $ $ - , < 1 2 3 7 7 w e r } P.l r r u  .F.j j u u u M.,.l c c l.p.c Z.,.l l l l c c ! =X:.p.m.m.m.d.p.:.c p.Q.P.'.C l l r r r r u u u j l 2.*X4.T *.:XW.T S u.m.m.M.M.M.M.M.M.M.M.M.M.M.N.D.N.oX].H n A C D D.D.l b P.j 1 > - $ @ + + X X X X X X X X X O + + & $ $ - , < 1 2 4 7 w w e w U F.j a d d 9.D.j r r u j N.u.c c l i.u.l v.,.c c c c c C ~ :X:.u.d.f.",
"C C c C C m.'.M.U.c l d C c r a j j l l c c u.*X,.T =.$X'.Q S Z Z Z A A A Z Z A Z D C C C n n A A c x l u e w 7 7 h D.y > , - $ + + X X X o . . . X X X X X + + & $ $ - , > 1 2 3 7 7 w r q.$Xc e r r  .D.u r r u u M.9.T 3.W N.d.A J.i.c C D c l c 3.tXy.A C C n c c c c i.L.M.'.C l l r r e e u u u j l c u.*Xa.^ %.!.E.W C C Z Z Z Z Z Z Z Z Z Z C C A A D S S c b x l ~ -XM.l b P.k 1 > - $ @ + + X X X o o X X X X X X + + & $ $ - - > < 2 3 7 7 7 7  .#Xn r a a ,.D.u r r u j N.i.T &.W c.p.C D.p.S S S C c c %.1Xr.c C C ",
"c c c c c } D.N.>.l d r r r r r u j j l l c c u.*X,.J $. XE.T Z Z Z Z S S S S ~ ~ A C C C c c c c l l j u e w 7 7 y S.t > , % $ + + X X X . . . . . X X X X X + + @ $ $ - - > < 2 4 4 7 w 1.W.v w e e } D.u r r r u M.r.D.gX$X9X>XT.,X$XI.L.W.M.C c G ,.T C c c c c c c x ! N.J.q.c l u r e e e e u u j l c C u.:Xa.J Q L.R.W Z S S S S S S Z ^ ~ S A C C C c c c c l l l c S c r l H.h < > - # @ + O X X o o . o o X X X X O + + & $ $ - - > < 2 3 3 7 7  .W.D r r r >.N.u r r r u M.r.a.iX*X<X-XT.,X-XQ.Q.!.J.Z c A ~ H c V V ",
":.:.:.:.:.:.%.%./ ~ ~ ! ! ! ! ! ! ! { } G l c C u.$X,.S T I..XL.L.L.L.R.T.T.T.<X=XT C n c c c c l l j j r e w 7 3 { z.3 , - # @ & + X X o . . . . . . o X X X X + + @ @ $ - - > 1 2 3 7 7 r a w 7 w w } D.u e e r r M.9.! i./ D.d.D D.u.D F W D.I.>.:.:.:.:. .} } } } } }  .:.%.%. .~ ! W U U U U U W ! G c n A u.*X,.Z J I.XXL.L.L.L.L.L.R.T.:X:XQ A C c c c c x l l j j j a r w { S.7 < , - # @ + X X X o o . . o o X X X X O + & & $ $ - - > < < 2 4 7 w j e w e e  .N.r e e r r m.9.S u.~ D.M.A K.s.G U ! D.J.;.:.:.:.:.:.:.",
"U.I.I.L.L.K.L.L.L.L.I.P.P.I.I.I.L.P.I.U..X:.x c C u.$X3.C S ,.u.u.u.i.i.i.i.i.P.I.U n c b c c l l j u u r e w 7 ' S.h , - - # @ + + X X o . . . . o o X X X X X + + + @ $ $ - , < 1 2 3 7 7 7 7 7 7 w  .R.j w w e r M.,.l l l ! U r v.3.j l c A m.E.R.R.L.L.L.L.L.I.I.I.I.I.L.L.I.I.I.K.K.K.K.K.K.K.I.R..X,.c c c ,.#X3.Z W r.u.u.r.r.r.r.t.t.J.K.^ A n c c l l l l u u r r u r ! D.v < < , # $ & + X X X o o o o o o X X X X O + + & @ $ $ - - > < 1 2 3 7 7 7 7 7 w <.L.j e e e e m.,.a d d / :.d D.q.l l l c p.L.L.L.L.L.I.I.",
"x x x l l l l l l l l l l l l l l j l l { !.:.c c C u.#X,.S S S S S S S G G G W W H D D C n c c x x l j j u y { D.k , , - # @ & + O X X o o . . o o X X X X X O + + & @ $ = - , > < 1 2 3 3 3 7 7 7 w <.eXF w w e e M.,.r u u j j r c.>.r l l c c c c c b c b b c c x x x x x l l l j j j j j j j l l x  ..X>.x l c >.$Xr.J S S S S S S S S T ^ T S A D n c b c x l l l j j h { F.v < < , - # @ + + X X X o o o o X X X X X X + + + & @ # = - - > < < 1 2 3 3 7 7 7 w <.1XG w e e e l.>.r r r a l d N.2.j l l l l x c c c c c c ",
"l l l l l l j j j j u u u u u r r u u u u { .X3.c c c ,..XQ..X.X.X!.!..X.X.X.X.X.X.X XW.E.R.U.I.I.P.P.F.D.D.D.D.x > > - = # @ + + X X X o o o o o X X X X X + + + & @ @ $ - - , > < 1 2 3 3 3 3 7 7 w x T.G w w e e m.,.r e e e y w l.>.r j j l l l l l l l l l l l l l l l l j u u u u u r r r r r r j l } W. .l l c >.$X.X.X.X.X.X.X.X.X.X.X.X.X X].E.U.U.U.I.I.P.P.F.F.D.D.D.v < < , - = @ & + + X X X X X X X X X X X O + + + @ @ # $ - - , > < < 1 2 2 3 3 7 7 7 l R.W w w e e d.>.e e e r r r B.2.r u u u u l l l l l l l ",
"j j j j j u u u u u u u u r r e r r r u u u { !. .l l c G ! ! ! ! ! ! ! ! ! ! ! ! ! W W U G F F F D M M M v v t < > - - # @ + + X X X X X X X X X X X + + + + & @ @ $ = - - , > < < 2 2 3 3 3 4 7 7 w u D.G w e e e m.>.e w w 7 w 7 2.N.l u u u j l j l j j l l l l l j u u u u u u u r e r r r r r r u u u W R.~ j l c G ! ! ! ! ~ ! ~ ~ ! ! ! ! W W G G H F F D n n M M v x t < < > - = # @ + + X X X X X X X X X X + + + + @ @ $ $ = - - , > < < 1 2 2 2 3 3 7 7 w y F.W w w w w s.<.w w e e e e p.N.l t y u u u u u u u j l ",
"d.d.d.d.d.d.d.d.s.p.p.p.p.p.q.l e e e r u u u >.K.l l l l l l l l l f f f l f d d a r r e w w 7 7 7 4 4 2 2 < < > - - # @ + + + X X X X X X X X * + + + & @ $ $ $ = - - , > < < 1 2 2 3 3 3 4 7 7 7 w u F.G w w e e m.>.w 7 7 7 7 7 u m.J.d.d.d.d.d.d.d.d.d.l.m.m.l.l.d.l.l.d.d.d.d.s.s.s.d.i.n r r r e r u y X.J.j l l l l f f f f f f l l f d d a r r e w w 7 7 7 4 4 4 2 < < < , - = # @ + + O X X X X X X + + + + & & @ $ $ = - - - > > < < < 1 2 2 3 3 3 4 7 7 w u F.W w w w w s.<.w w w w w w x M.N.i.p.p.s.d.d.d.f.f.c.c.",
"2.2.,.,.,.,.,.2.,.,.,.,.,.2.D.D.c e e e e y y W J.j u u l l l l l d l d d a a r r r e w w 7 7 4 3 3 2 2 < < > , - = # @ & + + X X X X X + + + + & & @ @ $ $ $ = - - > > < 1 2 2 3 3 3 4 4 4 7 7 7 w w u J.U e e e e m.>.w 7 7 4 7 7 w l :.,.,.>.>.,.,.,.,.,.q.q.q.q.q.q.q.q.2.2.2.2.2.,.,.q.F.I.n r e e e e e U P.j r a d d l d d d d d d d r r r r e w w 7 7 7 3 3 3 2 2 < < > , - = # @ + + + O X X X + + + & & & @ @ $ $ = - - , > < < < 2 2 2 3 3 3 4 4 7 7 7 w w u J.W e e e w s.<.w w w w w w 7 j  .>.>.>.,.,.,.9.9.9.q.u.",
"u u u u u u u u r r r r r r l M.l.y e e e y y W J.u u r r r u r r r r r r r e e w w 7 7 4 3 2 2 1 < < > , - - = $ @ @ + + + X X X X O + + & & @ @ $ $ $ - - - , > < 1 2 2 3 3 4 7 7 7 7 7 7 w w w e e u K.U e e e y m.<.7 7 7 4 7 7 w e e e e e r r r r r r r u r r r u u u u r r r r r r r x N.m.e w w w e e U P.u r r r r r r r r r r r r e e w w 7 7 4 3 3 2 2 1 < < > > - - = $ @ @ + + O O O X + + + & & @ $ $ $ = - - , > < 1 1 2 2 3 3 3 7 7 7 7 7 7 7 w w e y j J.W e e e w s.<.w w w 7 7 7 7 7 7 w w w e e r r r r r a ",
"l u u u u u u u r r u r r r r } F.u e e e t t U J.u e e e e e e e y e e w w 7 7 7 4 3 3 2 < < < > , , - - = $ $ @ + + + O O X X O + + + & @ # $ = - - - > > < < 2 2 3 3 7 7 7 w w w w e e e e e e r r j I.W r r u y l.>.4 7 4 4 4 7 7 w e e e e r r r r u u l d i i i r u u u r r r r r r u u } N.w w w w w w W I.u r e e e e e e e e w w w w 7 7 4 3 3 2 2 < < > > , , - - = $ $ @ + + + O O O O + + & & @ # $ - - - > > > < < 2 2 3 4 7 7 7 7 w w w w w e e e e r u l P.W e e e e l.,.e w 7 4 4 4 4 7 7 w w w e e r r r r r d ",
"! ! ! ! W ! W W W W W W F j r } F.u y e e e e U J.u e e w w w w w w w 7 7 7 4 3 3 2 2 1 < > , - - - = $ $ $ @ + + + O O X X X O + + & & @ $ - - - > > < < 2 2 3 3 7 7 7 w w e e r r r r r r r r r r r l I.} r u u y } J.U F H H H H G G U U U W W W W ! ! ! { } ! ! ! ! ! ! ! ! W W W ! H u u } N.w w w w w w U P.u e e w w w w w w 7 7 7 7 4 3 3 2 2 1 < > > , - - - = $ $ $ @ + + + O O X X O + + & @ $ $ - - , > < < 1 2 3 3 4 7 7 7 w e e e e r r r r r r r r r u l I.} r u u r X.L.! G H H F F F H H G G G U U W W W W ! ! ",
"I.K.K.Y.K.J.J.J.J.J.J.J..X1.l } F.u u e e e e U P.u e e w w w w 7 7 7 7 3 3 2 2 < < < > - - - = $ $ $ @ & + + O O X X X X X X O + & @ $ $ - - , > < 2 2 3 3 4 7 7 w w e r r r r j j l l l l l l d d j d p.R.A u u y y <.N.D.D.N.N.N.D.D.D.F.F.F.K.K.K.I.I.I.I.L.L.L.L.L.L.L.I.I.K.K.K.K..X>.u } N.t w w w w w U P.u e w w w w w 7 7 7 4 3 3 2 2 1 1 < > , - - - $ $ $ @ @ + + + O O O X X X X O + & @ $ = - - > > < 2 2 3 4 7 7 7 w w e r r r u r j a a l l l l l l l l p.I.n u u u j >.D.D.N.N.N.N.N.N.D.D.D.F.F.J.J.K.K.K.K.K.",
"c c c c l l l l l l l l }  Xc  .F.u u r e e e U P.u e e w w w 7 7 7 4 3 3 2 2 < > > , - - $ $ # @ & + + + O X X X X X X X X X + + @ $ $ - - , 2 t t y u h j k l l x c b n n C D D D D D D D D D A n l d c N.U.n u u u y u u u e e e e y y y u u j l x c c c c c c c c c c c c x l l l l }  Xb } D.y e e e e e U P.u e w w w w 7 7 7 4 3 3 2 2 1 > > , - - = $ $ @ @ & + + + O O X X X X X X O + + $ $ = - , > 3 t y y h j l x x x b b n C D A D D D D D D D D H H A c l c m.I.C l j u u u u e e w w w w w e y u u u j l l l l c ",
"z l l l l l l l l l l l D E.D :.F.l u r r r e U P.u e e e w w 7 7 7 3 2 2 1 < < > , - - $ $ @ @ + + + O X X X X X X X X X X O + & @ # - - - 9 s.F.F.J.K.K.I.I.I.L.R.T.W.W.W.Q. XQ.Q.Q.Q.Q.Q.Q.Q.!.!.>.l c C m.I.c u u u r r e w w w w w w w e y u l l c c c c c c z l l l l l l l l l l D E.M } D.u r r r e e U P.u e e e e w 7 7 7 3 3 2 1 1 > > - - - = $ @ @ & + + O O X X X X X X X X X + + & @ $ - , > 9 i.F.D.F.F.K.K.L.L.L.R.R.T.T.W.Q.Q.Q.Q.Q.Q.Q.Q.Q.!.!.XX9.l l c M.U.D l j u r e w 7 7 7 7 7 7 7 w w e r u u j l l x ",
"z z l l l l l l l l l l D E.Z :.P.l l l j r r W P.u e r u l e w 7 7 3 2 2 < < > , - - = $ $ @ + + O X X X X X X o X X X X X + & @ # - - - 3 s.1.h l x x b b n n D F H G G U W T T T T T T T T S S :.~.u.V c c l.I.C u u r r r e w w w w w w e e u l c A C c c c c c c l l l l c c c c c H L.C X.P.l l d a r e W P.u e r u x r w 7 7 3 3 2 1 < > , - - = $ $ @ & + + O X X X X X X o X X X X + & @ $ - - , 3 i.9.u j j l x v b n C D A A S S T W T T T T S S S S S 3.~.r.c c c M.U.D l l r e e w 7 7 7 7 7 w w e e r u j l l l c ",
"d.p.p.p.d.d.d.d.:.V c x D T.A :.I.c c c l j r W P.j r u G .XU w 7 7 4 3 2 < < < > , - = $ @ & + + O X X X X X X o X X X X + + & $ $ - , 3 u.1.4 4 7 w w e u u l l l c c c ^ p.:.~ ~ Q Q Q Q Q Q W L :.=Xi.c c c d.L.D d d r r e e w w w w w e u j l W .XU.M.m.m.m.c.c.c.d.d.d.c.3.C c c S T.D <.I.c c c l a r W P.j r r H  X{ w w 7 4 3 2 2 < > > , - = $ @ @ + + + X X X X X o o o o X X X + & $ $ - - 3 q.1.7 7 7 w e r r a d l x c c c ^ p.3.~ ~ ~ ~ ~ ! ! ! ^ C :.$Xi.V c V M.U.H l j r e w w w 7 7 w w w e r u j l l l c c ",
"l.d.c.c.c.c.c.m..Xp.W G ! !.~ r.W.~ a./ c l j ! I.j a j G :XW w w 7 7 3 3 2 2 < < , , - $ $ @ & + + X X X X X X X X X X X + & @ # - , 2 q.1.3 4 7 7 w e r h l l c c c n C d.gX:X$XXXXX.X.X.X.X.X$Xn.S 3.$Xu.c c z j.].K l d r r e e w w w w y u j l T XXL.c.c.m.d.d.p.p.p.i.i.m.XXp.^ W :.XX! u.Q.~ p.,.c l r W I.j r a H =X} e w 7 7 4 3 2 2 < < > , - $ $ @ & + + X X X X X o o o o X X + + & $ - - 1 1.q.7 4 7 w e r r a l x c c c n C p.iX:X$XXXXXXXXXXX.X.X$Xp.C :.*Xp.C c c m.U.D l u r e e w w w w w e r j l l l l x c C ",
"C C C Z Q G C C } '..X X.XeXQ.XX2X!.eXJ.c l l { I.l d l b L.F r e w 7 7 7 3 4 2 1 < > , - $ $ @ & + O O X X X X X X X + + & & $ $ - , y D.y 4 7 7 w e r u j l c c C C D A ^ a.%.^ ^ T T T T T T 3.=Xc.S :.#Xu.c c V m..X! z l a r r w w w e u l u.c.d.^ S Z Z C C C n n U F c c :. X.XQ.!.yX^.$XyX$XrXE.C l j { I.l j j c U.U y e w 7 7 4 3 4 2 1 < > , - $ $ @ & + + X X X X o o o o X X + + @ $ - , 9 M.y 4 7 7 w r a l l x c n C Z Z Z ^ r.%.Q ^ T T T T T S :.XXd.Z 3.-Xp.V c V m.U.D l u r r e w w e e u x u.c.p.C c c c C ",
"C A C Q :XM.Z C C H W W  ..XW ,.R.W / W c l l { U.l l l c R.H r r e e w 7 7 7 4 3 2 1 < , - $ $ @ + + + X X X X * + + & & @ $ $ - - > y S.y 7 7 7 w w r j l n Q T S Z S S S S S S S S Z Z Z Z S S 3.*Xy.C } #Xp.Z C Z m.$XI.P.P.F.D.q.u e r r F .Xd.$X! Z Z A A A A A ^ =Xm.C C C H G G ;.OX! u..XQ %.^ c l l } R.x l l x U.W u r r e w w 7 7 3 3 2 < < , - = $ $ & + + * X X X X X X X X + & @ $ - > t m.y 7 7 w e r a l c C ~ ^ Z Z Z Z S S S S S S Z Z Z S S Z :.#Xc.S :.*Xp.Z C C p..XF.F.F.D.N.u.j e r r F !.p.$X! c c C C ",
",.,.r.3.:Xm.S C C V C C T Q.D :.J.c c c x l l } U.c l l C E.G a a r r r r e w 7 7 3 3 1 < , - = $ @ & + + + + + + & & $ $ $ $ % - , < y S.y 7 w e M F n l x ! :X=XE.E.E.E.E.E.U.U.E.E.E.E.E.T.E.I.~ ~ !.p.V :.*XI.a.G A  .>.>. . .} D.B.b r d H .Xj.*X~ T ,.r.r.a.u.u.,.>XM.D C c c c C Q .XG u.R.C c c x l l } R.c l l x L.W l l l j r r e w 7 7 3 2 < < > - = $ @ @ + + + X X X X X X X + & @ $ - > 9 M.u 7 7 r F Y G x c ~ 9X:XT.U.U.U.U.L.L.L.L.U.R.T.T.T.E.L.$.%.#Xm.C / *XU.t.S c  .>. . .} } D.N.b a d H .Xp.#X! S %.3.,.",
"Q.Q.-XK.E.p.A C V V V C d.I.c :.D.x x l l l l } R.b c c A  XU l l l l l l l j h r 7 6 2 1 < , - = $ @ & & + & & & $ $ $ $ % - - - , > y S.u 7 w M E.K.W.C l S P.M.r.r.u.u.r.u.u.u.u.u.u.u.u.i.i.J.!.G ^ ^.c.W 9.hXjX,.C l d r r e w l l.I.F d C d.D.m.G r.=XL.L.E.Q.-XU..Xp.H C c c c C m.L.A u.U.c c x l l l } W.c l l c L.W l c c c c x l a r w 7 3 3 2 1 > - = $ @ @ & + + X X X X X X + & $ $ - , 9 m.h 7 7 v W.I.!.G x U I.N.r.9.9.r.r.r.r.r.r.r.r.r.r.r.i.J.XXQ ! !.M.^ 3.hXjX,.c f d r r e e j d.L.H f C i.v.p.S :.-XQ.Q.",
"T ^ v.U.Q.p.Z C V c V p.E.G l >.I.l l l l l l } R.c c c S .X! c c c W P.I.I.P.F.F.>.7 3 3 2 < > - = $ @ @ & & @ $ # , j M 3 : , , , > t S.u 7 w F '.[ L.D l c C C c c c c c c c n n n n C C Z Z Z c.L.S W -XJ.^ K.aXI.A l j r e e e e j i.W.W c c c C C r.K.S S P P n.T..Xm.H A C V c j.E.W c 2.'.c x l l l l }  XC c z c R.! x c C / '.R.P.F.D.F.1.w 7 3 2 < > - - $ # @ & + + * X X X X + & $ $ - , 9 M.h 7 7 n R.! E.G l c Z C n c c c c c c c n n C C C Z Z S M.W.G W =XJ.T v.0XU.Z c d r e e e e j u.W.^ c g c c C 9.R.Q Q ",
"%.%.J.T.Q.p.S A C C i. XK l l H T.,.l l l l l } R.c c c S XX! C C / $XD.! ! W Y ! K.>.7 4 3 2 < , - $ $ $ @ $ $ % - h D.D. .< , , , , 9 S.U w e n R.R.I.b j l x c c c c c c c c c c c n C C Z C c C c.E.^ %.%.S T 3.oXM.c a r e e e e r l q..X} c C C C ,.L.~ / ~ ~ b.T.Q.c.S H A C i.W.G l l S E.q.l l l l l } Q.C V c A Q.{ c C :.:XP.~ W I G W I.q.e 7 3 2 < > - - $ # @ & + + X X X X + + $ $ = - 2 m.! 7 w x P.U.I.n j l x c c c c c c c c c c c c C C C C C C d.E.^ ~ %.A Z %.OXD.A d r e w w e r j q.!.! c c C Z r.Q.&.*.",
">X-X1XL.Q.c.S Z C i..X! l l l l H I.u.l l l l } R.c V C p.=XQ Z 3.:XJ.A x l j j u D P.1.e 7 4 2 < , - - $ $ $ % - , B K.v.t.< , , , , > v S.Y w r x b x r r u j l l l l l l l c c c c c c C S C c c c M.*X! C C C C W U.oXD e w w w w e u l 2..XM.S C A ,.<X=X>X:X$X>XK.Q.c.J S G j..XW l l l l H I.u.x l l l { E.C C S u.*X! C 3.8XF.A c l j r e n I.u.e 7 3 2 < > , - = $ @ & + + X X X + + & $ = - , x D.! w e l x l e e r u l l l l f f f x c c c c c C S C c c c c./.W c c C C ^ R.%XF e w w w w e r j >.!.i.C C Z ,.1X>X<X",
"bX/.n.*.Q.M.p.m.V..X} z l l u u j F .XU l l l q.I.C S y.>Xu.S ,.8XI.S c x l l l l j D I.2.e 7 4 2 < > - - % % - - , 3 e.T.j > , , , , > > v D.i.w.i.h.h.h.h.j.x.l.l.l.m.m.m.m.m.m.m.m.M.M.F.:X:.c c c S #X:.c c c c l F m.n w 7 7 7 w w u u l <.>Xr.~ S ^ r.c.9XbX!.y.&.Q.N.c.M.I.XX! l l j l l l H .XW l l l 2.L.C J n.:Xp.Z 3.8XP.A c c l l j u u D I.q.e 7 3 2 < > , - $ # @ & + O X X O + & $ $ - , > k D.u.q.u.i.i.i.i.i.h.j.x.l.l.l.m.m.m.m.m.m.m.M.D.:X3.c c c C !.} c c c c x H M.D w 7 7 7 w w e u l <.-X,.~ S ^ t.D.eX",
"0Xb.%.~ Q.J.6XU.V.! c z l j u u j l I.! l l } Q.} S [.rXp.S %.*XN.S C c x l l l l l l D I.q.y 7 4 2 < > , - - - - > < M s.< , - - - - , > > k {  .<.1.1.1.1.1.1.1.1.2.2.q.q.q.u.u.u.u.i.i.m.*X:.l z c Z !.:.l l d l j r e w 7 7 7 7 7 7 e u j C $X~.-X:.S T ~ Y.5Xy.~ ~  XK.>XU.V.} c l l u u u l x U.} z z } Q.~ A _.tXc.J &.=XM.S V c c z l l l l u D I.q.e 7 3 2 < < , - $ $ & + + O O O + + & $ $ - , > h [  . .<.<.<.<.<.1.>.>.,.,.q.q.q.q.q.u.u.u.i.c.$X .l c c c E.} f l f d a r e w 7 7 4 7 7 w e u j c $X/.-X3.S ^ =.A.",
"*.%.~ Q E.Q.:X%.C c c l l u u j j C Q.W l }  X} c u.gXF.Z $.XXm.Z C c c c l l l i.i.x l F I.q.e 7 3 2 < > , - - , > < M s.< , - - - - - , > > < 2 2 3 3 3 4 4 4 7 7 7 w w e e e r r r r d d c l l l c C Q.} d a r r e w 7 7 4 4 3 4 4 7 w e u n !.c.-X,.S S T ~ %.Q ^ Q  XXX8X%.C c c l l u u u j D  X! z :..X} z 4.tXV.S ,.*Xm.Z C V c c c c c l l l u D P.q.e 7 4 2 < < , - $ $ & + O O O + + + @ # = - , > > < 2 3 3 3 4 4 7 7 w w w e e e r r r r a d f c l l l l c E.} d d r r e w 7 7 4 4 3 4 4 7 w e u c !.y.$X,.S T ^ %.",
"Q Q ^ T p..XI.W C c l l l u u u D P.p.x }  X:.z :.$Xp.S %.!.p.Z C C V c c c c c k.:X} l l D K.2.e 7 3 2 < > > , , < > M s.> - - = $ $ - - - > > < < 2 2 2 3 3 3 4 4 4 7 7 7 w w w e e e r r r r r l l c E.{ r r e w w 7 7 4 3 3 3 3 3 4 7 w r x D..X.X~ Z Z S S S G K K d.OXU.W C c l l l u u u c P.p.x } .X>.c :.$Xa.Z $.XXj.S C C C V c c M.M.c l l u u n J.q.e 7 4 2 < > - = $ @ + + O O O + + & @ $ = - - > < < 2 2 2 3 3 4 4 4 7 7 7 7 w w w e e r r r r r a d l c E.} r r e e w 7 7 4 3 3 3 3 4 7 7 e r l D..X.X~ A S J W ",
"W W K G S S Z C c c l l l u u D P.p.l !  X:.z } XXu.V $.!.u.C C C C A Z C c c c c 2..X} l l D J.q.w 7 3 2 < 1 < > < > n p., - $ # # # $ $ = - - , > > > < < < < 2 2 2 2 3 3 3 4 4 7 7 7 w w e e e r u l U.W e e w w 7 7 4 3 3 2 2 3 3 4 7 w e u c A S A C C A A A Z Z S S S S C c c l l l u u c F.i.j ! Q.:.c :.XXr.V ~ !.u.C C C C A Z C C i.=Xi.c l j u u b F.u.e 7 4 2 < > - = $ & + O O X O + + & @ $ $ = - - > > > < < < 2 2 2 3 3 3 3 4 4 4 7 7 7 w w e e e r u l L.! r e w 7 7 4 3 3 3 2 3 3 3 4 7 w e j c D A C C A S S ",
"S S S S Z A C c c l l l l u D I.i.l ! T.:.z } .Xu.V ;.!.u.C C C C A r.U.^ C V c c c 2..X[ l j D K.q.e 7 3 2 1 1 < < < n p., = # @ @ @ @ @ # $ $ = - - - - - > > > > > < < < 1 2 2 2 3 3 4 4 7 7 w e e j I.U w w w 7 7 4 3 3 2 2 2 2 3 3 4 7 w r a l c c c c C C C C C A A C V c c z l l l u M J.u.u W T.:.z ;.XXu.C :.!.,.V V V C C :.U.:.C C :.XXu.l l u u u c P.u.e 7 3 2 1 > - $ $ + + X X X O + + + & @ # $ = = - - - - > > > > < 1 1 1 2 2 2 3 3 3 4 4 7 7 w w e j I.W e w w 7 7 4 3 3 2 2 2 3 3 4 7 7 e r a l c c c C A A ",
"S Z Z Z C C c c c l l l l D I.i.l ! T.} l Q  X4.V :..Xu.V C C C C A c.8X$.A G W C c c 2..X! l l n D.q.e 7 3 2 1 1 < < n p.- # @ @ + + + + + @ @ @ # $ $ $ = - - - - - - , , > > > > < < 2 2 3 4 7 7 w u P.G 7 7 7 7 7 4 3 3 2 2 2 2 3 3 4 7 w e r a l l c c c c V C C C V c c c c l l l l D I.u.u W R.} l Q .X4.C 3.XX2.V V V V V C ,.;Xp.S C V }  X2.l l l l j C P.i.e 7 3 2 < - = $ & + O X X X X O + + + & @ @ # $ # = = - - - - - - , > > > > < < < 2 2 3 4 7 7 w u K.U w w 7 7 4 4 3 3 2 2 2 2 3 3 4 7 w e r l l l c c C C ",
"A A A C C c c c l l l l D I.i.j ! T.} l ! Q.4.V :.XXu.C C V S M.M.u.~ !.,.Z r.*X} V c c 2.!.! l u b F.q.w 7 3 2 1 1 < n i., # @ + + + O O + + + + + @ @ @ @ @ # # # $ $ $ = = - - - - > > < < 2 4 4 7 e G.F 7 7 7 7 7 4 3 3 3 2 2 3 3 3 4 7 7 w e r a l l z c c V V V V c c c l l l l l D U.i.l [ T.:.l W Q.4.V :.XX4.C V V S m.M.u.G ~ .Xm.C V c ! E.2.l l l l l C P.u.w 7 3 < > - $ @ + + X X X X X X O O + + + & @ @ @ @ # # $ $ $ = = = - - - - ; > > < < 2 4 4 7 e F.U 7 7 7 4 4 4 3 3 3 3 3 3 3 3 4 7 7 w e r a l l c c V ",
"! ! Q Q T W G G H H D W I.i.l W R.} i W Q.u.c ;..Xu.C Z S H S m.J.XXW q..X:.S P.$X! C c l 2..XW j j G I.j 7 3 2 1 1 > n i., # @ + O X X X X X X O O + + + + + + + + + @ @ @ @ @ $ $ # = - - > < 2 3 4 w F.F 7 7 F U l j j u u u u u u j j l x x b c C D D H S G W W W T W W G H D D D W U.k.x ! W.:.l W T.2.V :.XXu.C A S Z S M.P.$X:.Z ,.%Xu.V c l W E.u.c C W c l W R.l 7 3 2 < - = # & + + X X X X X X X X X O O + + + + & & & @ @ @ @ @ @ # $ $ = = - - > < 2 3 4 w F.G 7 7 F U l j j u u u u u h j j l l x b c C D F H G W ",
".X.XXXXX>X$XQ.E.E.E.R.W.u.c } W.X.l W E.u.V :.!.,.C C A M.p.C V W Q.W c 2..X} Z M.$X} c c c 2.Q.D l D K.l w 7 3 2 1 < n i., # @ + O X X X o X X X X X X X X X X X X O O O O O + + + @ @ # = - , < 2 3 7 D.F 4 w I.:XI.I.I.P.P.P.P.P.I.I.U.U.R.'.'.].]. X X.X.X.X.XXXXXXX<X#XW.R.L.I.I.W.u.c } !.>.z W T.9.c ;..X,.C C Z V.q.C C K !.#Xp.V >.%X9.c c c ! .X .%.>X:.c G L.l w 4 3 < > - # @ + + X X X X X X o X X X X X X X X O + O O O + + + + + + @ @ # $ = - > < 2 3 7 D.F 4 w I.<XU.I.P.P.P.P.P.P.P.P.P.I.U.U.U.R.E.'.W. X!..X",
"G G G ! $Xu.S S A C C n l :.!.:.z Q Q.i.C :..X2.V C C A I.p.:.3.:.Q.U c c 2.].~ Z m.OX! c c D !.W l H K.x w 7 4 3 2 < M s., # @ + X X o . . . . . o o o o o o o o X o X X X X X O O + + @ # = - > < 2 7 D.F 4 7 M D j j h h u u u u u h h h j l l x x b c n C A H G G W .Xu.A D c b c b l :.!.,.c ! Q.u.c } !.,.V C C Z '.p.:.3.%.Q.r..Xu.c >.$X,.c c c F.u.~ <X .c K L.x w 7 3 2 < , - $ & + X X X o . . . . . . . o o o o X X X X X X X X X X O O + & @ # = - > < 2 7 D.F 4 7 n F l j j h h u u u u u u h h j l l x c b n D D ",
"c c c C  X,.c c c l l l :.!.<.c } .Xp.Z :..X2.V V V C Z P.P.=X$XQ.Q.G c c c 2. X} A '.i.c c H !.! l G I.x e w 7 3 2 1 M s., # @ + X X o . . . . . . . . . . . . . . . . . . . o X X X O + @ # = - > < 2 x.s.w 7 7 7 7 4 4 4 4 4 4 4 3 3 3 7 7 7 7 w e e r r a d l c c C .X,.c c l d d l  .!.>.c ~ .Xd.A :..X,.c c V C Z U.J.:X$XQ.Q.T ~ .Xu.c i.I.c c C J.r.S .XW c W L.c e 7 4 2 < > - # @ + O X X o . . . . . . . . . o o o o . . o o . . o X X X O + + @ # = , > < 3 i.s.w 7 7 7 7 7 7 4 4 4 4 4 4 4 4 4 7 7 7 w e e r u l l ",
"c c c C W.>.c c c z z C T.<.c ! .Xm.J T .Xi.C C C W S S P.L.Q.n.!.E.G x x x x q..X} P.p.c V H !.! c G L.c r w 7 3 3 1 N s., % @ + X X X . . . . . . . . . . . . . . . . . . . . . X X X O + @ # - , > < t m.i.w 7 7 7 7 4 4 4 4 4 3 3 3 4 4 7 7 7 w w e r r r r l l c C .X,.c c x l l c E.>.x Q .Xm.S T !.p.c c c S S Z L.P.U.n.XX.X^ C ~ XX9.,.J.c V C J.r.S .X! V W L.c r w 7 3 1 < - $ $ & + X X . .     . . . . . . . . . . . . . . . . . . X X X O + + @ # - , < 1 y m.i.w 7 7 7 7 7 7 7 7 4 4 4 4 4 4 7 7 7 w w e r r l l ",
"c l x c E.<.c c c c c A L.G C U.N.$.&.~ #X:.C C G XXc.Z P.J.*X$XI.T.F l l c b c B.M.P.p.C C H .X! c G R.b r w 7 7 3 2 N s.> - @ + O X . . . . . . . . . . . .   . .           . . . o o X + & @ # - , < < t l.i.r 7 7 7 7 7 7 7 7 7 7 7 7 7 7 7 w w e e r r a a d d l c Q.>.c c c l l C L.G C L.M.~ %.~ XX:.D C S !.b.S I.N.$XXXL..X! Z C r.W.9.J.c C C J.r.S .X! V W L.b r w 7 3 2 < , = # & + X X . . . . . . . . . . . . . . . .           . . . o X X + & @ % - > < < t l.p.y 7 7 7 7 7 7 7 7 7 7 7 7 7 7 7 w w e e r a d x ",
"<.l l c U.:.l c c c c S T.! S .X:.J.=X&.XX>.A C S $Xu.C F.E.J.J.D.!.D l c c c C p.N.P.j.C C H .X! c U R.c u e 7 7 6 2 N s.> - $ + O X o . . . . . . . . . . .                   . . . o o X + & $ = - > < < t l.H.M.M.M.M.M.M.M.M.M.M.m.M.M.M.M.M.N.D.D.D.D.P.L.9.d l c E.:.l c c c c A L.W S !.%.D.$X%.XX>.A A A .Xp.C P.L.N.N.N.$X^ Z Z 3.W.i.K.c C C J.u.K .X! V W R.c r e 7 3 2 < , - # @ + X o . . . . . . . . . . . . .   .               . . o o X O + @ # - - > < < 7 x.P.B.B.B.B.M.M.M.M.M.M.M.M.B.B.B.B.N.D.D.F.F.I.R.",
"M a j l U.} l z c c C T Q.~ S !.%.J.Q./ XX,.S Z S W.,.C :.m.m.l.l.,.x l x c C A p.N.I.l.C C G .X! c W R.n j r w 7 6 2 F s.> - # + + X o o . . . . . . . . . . .                 . . . o o X O + @ # - - > < < 7 M M M M M n M M M M n n n n n M M D F F G G P.l.n r a x U. .f l c c V S Q.! S !.~ N.T.~ XX,.S S S E.,.V :.M.M.m.M.i.S Z A ,..Xp.I.C C A J.u.W .X! V ^ E.n a e 7 7 2 < > - # @ + O X o . . . . . . . . . . . . . .   .           . . . o o X + + @ $ - - > < < 7 M M D M M M M M M n n M n M M M M D F F G U H.F.",
"r r r l I.} d l c c A %.$X3.^ !./ c.N.~ =Xd.^ :.:. X,.C c c l l l j j l x n i.I.%XJ.I.m.C A G .X! c W W.n j r w 7 6 2 F s.> - # @ + X X o o o o o o o o o o . . . . . . . .     . . . . o o X O + @ # - - > < < < < < < < < < < < < < < < < < < < 2 3 4 7 7 l.} 7 e r j U.} d l c c Z $./.3.^ !.~ c.b.~ =Xp.^ :.%.'.,.V c c c c c c n r.I.OX$Xc.L.C C Z J.u.W !.! C ! E.n a e 7 7 2 < > - $ @ + + X o o o o o o o o X X X o . . . . . .     . . . . . . o X X + & @ $ - - > < < < 2 2 2 2 2 2 < < < < < < < < < 2 2 3 4 7 w p.q.",
"e e r j I.{ r l c V T A.gXZ.%..X~ c.v.m.rX6Xy.E.M. X,.c c l l j u u j l c A ].K..XI.U.m.A A G .X! V ! W.n j u w 7 7 3 F s.> - # @ + + X X X X X X X X X X X X o o . . . . . . . . . . . . X X X + + @ # = - > > < < < < < < < < < < > > > > > < < < 2 3 4 7 l.X.w e e u I.} d l c C ^ A.iXZ./ .X~ c.M.c.rX>Xp.L.m. X,.c c l l l l c n U.J.E.*Xc.R.C C Z J.u.W !.Q C ! E.C j r w 7 3 < > - = @ & + O X X X X X X X X X X X X X X X o . . . . . . . . . . o X X O + @ @ $ - - > > < < 2 2 2 < < < < < < < < < < < < 2 2 3 7 7 p.u.",
"w w e u P.[ r d l C $.1XbXT.%..X~ c.M.M.1X6Xc.Q.M. X,.c c l u u e e r j l C '.$X:XL._.m.A A G .X! V ! W.n j u w 7 7 2 F x.< - $ @ @ + + + + + + + + + + + O X X X X o o . . . . . . . . . . X X O + + @ # = - , > > > > > > > > > , - - - - - > > > < 2 2 4 l.X.7 w w e P.} r d z C $.1XbXT.( .X~ d.M.M.1X1Xc.U.M. X,.c x l l l l l c U.$X=X%Xv.E.C C A P.u.T !.Q C ! E.C j r w 7 3 2 > - = # @ + + + + O O + + + + + + + + + O X X X X o . . . . . . . . o X X O + @ # $ = - , > > < > > > > > > > > ; - - - - > > < 2 2 3 i.q.",
"7 7 w y F.W e r l c m.<XA.7.~ .X~ m.N.a. XU.r.Q.M. X3.c l j u e w e e u l c :.m..XI.I.m.A A G .X~ V ! W.n j r w 7 7 2 F x.< - = # @ & & & & & & @ @ @ @ @ & + + + O X X X X o . . . . . . . X X X O + @ @ # = - - - , , , , - - - - = = = = = - - - > < < 4 l. .7 7 7 w P.[ e r l C c.<XY.6.! .X~ d.N.a..XE.,.U.M. X,.c l l j j j l c :.c.U.$Xc.U.A C A P.t.T .X! C Q E.C a r w 7 3 2 > - = # @ @ + + + & & & @ @ @ @ @ @ @ & + + + O X X X X o . . . . . o X X O + + @ # # = - - - > > , , - - - - - = = = = - - - > < < 2 u.q.",
"3 4 7 w F.U w r l u.$X,.T T ^ .X~ m.P.XX.XXXI.U.m. X>.c l u y w w w e u l c C Z m.J.I.m.A A G .X! V ! W.n j u w 9 7 2 F l.< - - # @ @ @ @ # # # # # $ $ $ $ # @ @ + + + O X X o o o . . . o X X X O + + @ @ # $ = - - - - - = = $ $ $ # # # $ # $ - - , < 2 x.{ 4 4 4 7 D.U w r d u.$X,.T T W Q.~ l.P.XXXX$XJ.U.M. X3.c l l u u j l c C Z u.OXc.U.C C A I.p.^ XX! C Q E.C l r w 7 3 2 > - = $ $ @ @ @ @ @ $ # # $ $ = = = = $ $ @ @ + + + O X X o o o . X X X X O + + @ @ # # $ = - - - - - - = = $ $ $ $ # # # # = - , > < q.1.",
"2 3 3 w S.G w r 1. X! V Z Z S .X~ l.L.XX%.p.E.L.m. X>.c l u e w w w w u j x c C m.J.P.m.C C G .X! c ! W.n j u t 7 4 2 F l.< , - = # # # # - - - - - , - , - - - = # @ @ & + + O X X X X X X X X O O + + & @ @ # # # # # $ # # @ @ @ & & + + + @ @ # $ - - > h.[ 2 3 4 7 D.G 7 r >.Q.} C A Z S Q.! p.L.XX%.p.E.U.m. X3.c l l u u u l l c C u. Xp.U.C C C M.%Xa.XX^ C Q W.C l r w 7 3 2 > - - $ $ # # # $ = - - - - - > > > - - - - $ # @ @ + + + X X X X X X X X O + + + @ @ # # # # $ # $ # $ # @ @ @ & + + + @ @ # $ - - > q.1.",
"< 2 3 7 N.F 7 <.U.U l l c V S  X! l.U.XX! a.L.J.c.'.>.z l u e w 7 w w u j l c C N.N.P.m.C C G .X! c W W.n u y t 7 3 2 F l.< , - - - - - , , > < < < < < < < < > , - - # # @ @ + + + O O O O O O + + + + & @ @ @ @ @ @ @ @ @ @ + + + O O O O O + + @ @ # = - i.` < 2 2 7 D.G 7  .I.G l x c V S Q.! p.L.XXQ r.L.U.m. X>.z l j u u u l l c C m.U.p.U.V V C G V.8X>X^ C ! W.C j r w 7 3 2 > - - = $ $ $ - - - > > < < < 2 2 1 < < > > - - - # # @ & + + O O O O O O + + + + @ @ @ @ # # # # # @ @ @ + + + O O O O + + @ @ # = - 9.>.",
"> < 2 4 M.F r U.G r a l l c A  XQ j.U.OX~ a.L.J.c.'.>.l l r w w 7 w e u j l c u.XX:.F.m.C C H .X! c W E.c u y t 7 4 2 F l.1 > - - - , > < < 2 2 4 4 4 4 3 4 3 2 < < > , - - # # @ @ @ + + + + + + + & @ @ @ @ @ @ @ @ @ & + + + O O X X X X X X O + + @ # = w.I ; < 2 4 D.G r I.G r r l l c A Q.! l.U.OX~ a.U.I.m.[.<.l l j u u r l z V u.XX .u.I.c c c C A u.-X^ C ! E.n j r w 7 3 1 > - - = = - - , > < < 2 2 3 4 4 4 4 3 3 3 2 < > > - - = # @ @ @ @ + + + + + @ @ @ @ @ @ @ @ @ @ @ @ + + + O O X X X X X X O + + @ # = 1. .",
"- > < 3 M.F u P.x e r r l l C  X! l.U.&X XXXP.J.m.'.>.l j r w 7 7 w e u l x 2..X:.C F.l.c c H .X! c W E.b u y 7 7 3 2 F l.1 > > , > < < 2 4 7 7 7 7 w w 7 7 7 7 4 4 2 < < > - - = # # # # # # # @ @ @ @ @ @ @ @ @ @ @ + + + O X X X X o X X X X X O + + @ # q.F - > < 3 N.F u P.x e r r l l C E.! j.U.&X XXXP.I.m.[.>.l l j u r u l c u.OX>.c 2.I.c c c c c G !.^ V ! E.c r e w 4 2 1 > - - - - - , > < 2 4 7 7 7 w w w w w 7 7 4 4 2 2 < > , - - = # # # # # # # # @ @ @ @ @ @ @ @ @ & + + O O X X X X X X X X X O + + @ # 1. .",
"- - > 2 m.M r P.l w e r j l C ].! l.D.r.K.J.%.J.l.'.:.l u e w 7 7 w e u l 2..X! c V N.l.c c F .X! c W E.b u e 7 7 3 2 F l.1 < < > < 1 2 4 7 w e r r r r r r e e w 7 7 4 2 2 < > > , - - - - - - = = = # # # # # @ @ @ + + O X X X o o . . . . o X X X + + - D. .= - > 2 M.F r I.x w w r u l n E.! j.D.r.K.b.$.I.l.'.<.l l u r r j l } $X:.c c ,.P.c c c c c H !.W c ^ E.c r e 7 7 2 < > , - - , > < 2 4 4 7 w e r r u r r r r e w 7 7 4 4 2 < < > > , - - - - - - = = = # # # # @ @ @ & + + O X X X X o . . . o X X X + + = v.i.",
"# = - < m.M w F.l 7 w e r j c '.! j.N.a.jXsX=.J.m.E.X.l u e 7 7 7 w e j H _.I.C c c N.j.c c D .X! c U R.c e w 7 7 3 2 F l.2 < < < 2 4 7 7 e r l x x c x x x x x a r e 7 7 4 4 2 2 < < < > > > , , - - - - - = # # @ @ & + O X X X o o . . . . . o X X X + @ v t # - - < M.F e P.l 7 w w r j c U.T p.N.r.bXpX%.J.p.R.X.l j r r r u D M.E.C c c ,.P.l l l l x A !.W c W R.c r w 7 4 2 1 > > , > > < 2 4 7 w e r l c c c c c x x l a r e w 7 7 4 3 2 2 < < < > > > , , - - - - - = # # @ @ + + O X X X o . . . . . X X X X + @ v k ",
"@ # - > m.F r F.j 4 7 w e u b '.W p.M.%.[.I.$.L.m.'.} u r w 7 7 7 w e l I.E.#X>.z G .X2.l l C .XW l G R.x e w 7 7 4 3 F l.3 2 2 2 4 7 w e j  .I.K.I.I.I.I.I.I.L.l.c a r e w 7 7 4 4 3 2 2 < < < > > , - - - - - < > # @ + + X X X o o o . . . . o o X X O + + + @ # - < M.F r F.j 4 7 w e u c U.U i.M.%._.I.( L.p.'.} j u r e r l D.E.XX:.l l >.F.l l l l l D Q.G c W R.c r w 7 4 2 1 < > > > < 2 4 7 w r j } J.J.K.K.K.I.I.I.I.s.c d r e w w 7 7 4 4 3 2 < < < > > > , : - - - > > # @ + + O X X X X o . . . . o X X X O + + + ",
"& @ # > B.D.l.N.t 3 4 7 w y x U.G i.N.! %.&.N.*Xu..X[ u e 7 7 4 4 7 w l E.d.L.r.H R.m.c l l n ].W l G U.x e w 7 7 4 3 I m.3 3 4 4 7 w r d >.E.>.! ! ~ ~ ~ ~ ~ / ]. .x d a r e w j <.F x x k k j h h h y y y t k i.i.3 @ & + O X X X X X X o o o o X X X X X O + & @ = , B.D.f.F.e 4 4 7 w r x U.G u.D.Q %.=.N.=Xr..X[ r r e e e l U.c.I.,.r d :.F.j r r a l n Q.G l U R.x e w 7 4 3 2 < < < < 2 4 7 w r l <.Q.,.! ! ~ ! ! ! Q ~ !.:.c l d r r e l >.H x x x l k k j h h h y y k i.h.3 @ @ + O O X O O X X o o o o X X X X X O O ",
"+ @ # - M.{ l t 2 3 3 4 7 e x U.H } ].'..X$XXXp.'.m.c r w 7 4 3 3 4 w u >.$X!.3.R.l.x l j j b ].U l G U.l w w 7 7 7 3 ] m.7 3 7 7 w r l <.!.,.S :.,.9.r.u./ L A R.r.C c f d a r G $XI.D.D.D.M.M.B.m.m.l.x.x.p.N.J.N.x @ @ + + O X X X X X X X X X X X X X X X O + @ # - m.| x y 3 3 4 7 7 e l _.H { ].]..X%X$Xp.'.m.x r e w w w r <.-XK.D r r } F.u r r r r c ].H l G R.x e w 7 7 3 2 1 < < 2 4 7 w r l >. X,.^ 3.,.,.,.,.! L Z W.i.Z C c d d r G $XL.J.F.D.D.D.D.B.B.m.m.l.l.F.K.F.v @ @ @ + + X q q X X X X X X X X X X X X X ",
"O + @ - l.n > < < 2 2 3 7 w l I.D l A G T Q %. XN.C a e 7 4 3 3 3 3 7 e a v.N.R.s.l r r r u b '.G l H U.l w 7 7 7 7 4 ` m.7 7 7 w r a { :X*X$XK.=X9X$X X&XoXr.&.^.Z.T Z C c f d l A c d a a r w 7 7 6 3 2 2 < 7 >. .1 # @ @ & + + + + + + + O X X X X X X X X X O + @ - z.M > < < 2 3 4 7 w l _.H d D G ^ ~ &..XD.C a e w 7 7 7 w u F.~ e e e } F.u e e r r b '.H l G U.l e w 7 7 3 2 2 2 2 3 7 w r a ! :X%X%XL.=X<X!.R.OX.Xr.7./.K.E S C c f l l A c x l d a r w 7 7 3 4 2 2 7 1.1.1 # # @ @ & $ #.#.& + + O X X X X X X X X X ",
"O + + = x.v - > < < 2 2 4 7 j I.D l c C T =. XF.A l r w 4 3 2 2 2 3 4 7 r v.<Xi.l r r e e u x R.G j F I.l w 7 7 7 7 7 ` M.7 7 w e a l 2.XXc.v.T.T.-XC.&.d.*X&X].:XjXOX%.Z C c c c f d r e w w 7 7 4 2 < > , - - - - = # # # @ @ @ @ @ @ @ & + + + O X X X o o X X + & # l.B - > < < 2 3 4 7 j I.F d c C ^ *.OXP.S l r w 7 4 4 4 7 w D.! e w 7 2..Xj w w w e x R.A d G L.l w w 7 7 3 3 2 2 3 7 7 e r d ,.$Xc.b.T.L./.y.E r.%X:X$XwXbXoX%.Z C c c l d f d a r e w 7 4 2 < < > > - - - = # # # # @ p }.}.p & @ + + O X X X X o o X ",
"X O + # x.x - - > > < 2 3 4 u I.M r c T R.qXP.S x a e 7 3 2 1 1 < 2 3 7 v W.i.j r e e w w e l R.F u F I.l w 7 7 7 7 7 ` M.w w e u l c 9.J.Z S N.1XiX2XT.b.%XL.:X=XpX=X*X%.Z Z C T :./ D c G F h 7 4 2 < > , - - - - = # # # # # - - - $ $ # @ @ & + + X X o o X X + + # s.v = - > > < 2 4 7 u I.D r x P W.fXR.S c a e 7 4 3 3 3 3 x L.F w 7 7 l F w 7 7 7 w l R.D r H I.l w w 7 7 4 3 3 3 7 7 w r l x ,.I.S J b.,XeX(.Z.n.&XL.8X:XpX$X$X%.Z C n S }  .S A W I j 7 4 2 2 < > > - - - = = = = = q 5.xXxX@.q # @ @ + + O X X X o o ",
"X X + $ p.k = - - , > < 2 3 y I.n r l ^ wXjX&.c l r 7 3 2 < < > < < 2 k F.q.r w w 7 7 7 7 w j U.F r D I.j w 7 7 7 7 7 [ D.e r r j l c r.I.Z S =.L.eXnXfXA.OX=.E.5Xg.=.D.%X,.T J m.:X.XM.c.W.#X>.7 4 2 < > > - - - - = = - - , , , , , , , - - # # @ + + X X o X X + + # s.k # - - - > < 2 4 y P.M r l T wXjX9.c l r 7 4 2 2 2 2 j F.<.w 7 4 4 4 4 3 7 7 7 7 l U.D r F I.l w w 7 7 7 7 7 7 7 w r a l c ,.K.Z S =.A.2XnXfXA.;X*.Q.5Xy.E v.XX,.T S p.:XOXK.N..X$X<.7 7 4 2 < > > - - - - - - < ) 5.zXxXxXzX5.) , # @ & + O X X o . ",
"X X O $ i.j # = = - - > < 2 t P.b e j n D.].A l r w 4 2 < > > > > < < >.m.w 7 7 7 4 4 7 7 7 h U.F r D I.j w w 7 7 w w { D.j a l U 2.q.I.%Xu.p.c.Y.2XkXuXT.^.c.b.5X0X,.T l.:X XL.$X'.u.P.D.q.P.q.7 7 2 < > > - - - - - - - > > < < 1 1 1 < < , - - # @ + O X X X X X + $ s.k @ # = - > > < 3 e P.M e a g M..XA l r w 7 3 < < < > X.l.7 4 4 3 2 2 2 2 3 3 4 7 j U.n r F I.j w w 7 7 7 7 7 w w e r U 2.u.P.$Xu.p.y.Z.(.lXiX^.~.b.c.=X7X3.T m.5X.XL..XU.q.I.D.q.P.q.7 7 4 2 < > > - - - - < ) @.xXzXzXzXzXzXzXxX@.) - @ @ + O X X . ",
"X X O $ i.h @ # = = - > > < 7 F.v w u d i.N.l r w 7 3 < > - - - - > > 1.1.4 4 4 3 3 3 3 3 7 u I.D e D I.l w w w w w t { F.l l }  XI.P.U.U.L.L.R.R.T.W.W.W.R.R.R.I.oX4X:.L i.aX.XF.:XOXm.s.]. X! 7 4 3 < < > , - - - - > > < 1 2 4 7 7 7 4 2 < > , - # @ + O X X X O + @ s.j @ # # = - > < 2 w F.b w e r u.S.f r e 7 3 2 > > > > X.1.< 2 2 < < < < < 2 2 3 7 j U.n e D I.j w w w 7 w w w e r r W  XP.P.U.U.I.I.L.R.T.^.!.!.!.T.L.J.'.3X:.S p.aXOXJ.*X Xm.p.R.].{ 7 7 4 2 < > > > - - - < ) @.xXzXzXzXzXzXzXxX@.) , # @ & + X X X ",
"X X O $ i.h & # $ = - - > < 7 F.x 7 w e q.M.r w 7 4 < > - - = = - - - 1.>.2 2 < < < 2 2 3 3 y I.n e M I.l e w w e y y } F.c } *Xp.c c C Z S S W T T T ^ ^ ^ ^ ^ T T m.OX .L :.OXp.T S c g n x r 7 4 3 2 < > > , - , > > < 2 4 7 w e r e w 7 4 < < - - # & + X X X O + @ d.j & # # = - - > < 7 F.v 7 w e 2.B.r e 7 4 2 < > - - - X.1.> > > > > > > < < < 2 3 u I.b e D P.j e w w w w e e r j W $Xp.c V A Z S S P T ^ Q ~ ~ Q ^ ^ T S j.%X:.L 3.%Xm.W A g f x l r w 7 4 2 2 < > > > > > > < 3 ) }.cXcXcXcX}.) 3 < > - $ @ + O X X ",
"X O + # i.h & # # = = - > > 7 S.l 4 7 7 1.l.w 7 3 < > - = # # # # = - X. .> > > > > < < 2 3 y I.n w M I.l e e e e u u X.F.W Q.=X,.c c c C A S S S S S S S T J S S S S i.%X .f G R.p.g f d a r w 7 4 3 2 < > > > - - > < 2 3 7 w a Z ! n r w 7 4 1 > - # @ + + O O O + @ d.j & @ # # = - > > 7 S.x 4 7 7 1.M.e 7 4 2 < , - - = = X.1.- - - - - - - > > < 2 3 u I.b e D P.j e e e e e r u u H T.$X,.l c V C Z S S S J T T T T J S S S A i.%X:.g ! ].i.f r r e e e 7 4 3 2 < < > > > > > < 2 3 4 m }.vXvX|._ w 4 2 < > - # @ + X X ",
"X O + # i.h & # $ $ = - - > 7 V.k 2 3 3  .x.7 3 2 > - = # @ @ @ @ # # X. .- - - - , > > < 2 y P.n w M I.l y y u u j j <.F.:.T. X2.l c c n C A S S S S S S S S S A A C C 2..X! r n I.F.m.M.m.l.x.j.h.k.i.w.w.w.w.q.w.w.i.i.i.s.c.b.#XfX9.l r w 7 3 < > - # @ + O O + + # s.j & # # # = - , > 4 N.l 3 4 4  .l.7 4 2 < > - = # # # { X.# = = = = = - - , > < 2 y I.b w D I.l y e e u r u j j  .E.E.2.l c c C A Z S S S S S J S S S Z A Z C q.OX .f F I.F.l.l.l.l.x.j.h.h.k.i.w.w.w.w.w.w.i.i.i.l.m.{.mXmX{.f e 7 3 2 < , = @ + O X ",
"+ + @ = s.j @ # $ $ = - - > 3 B.h < 2 2  .h.3 2 > - = # @ + + + + @ @  .{ # = = = - - > < 2 y P.b w n I.l y u u j l l <.J.:.9X XW c c c c C A S W W W W W W G S C C V c c <.].U e x } } } { [ [ ` ` ] I F F F F F F F I Y ! {  .,.G.5X%.f r e 7 4 2 < - # @ + + + + + # s.j @ # # # = - - > 3 B.k 2 3 3  .x.3 2 < > - # # @ @ + { X.@ @ @ @ @ $ $ = - > < 2 y P.x w D I.l u u u u u j l l  .yX'.U c c c V C A S W T T T W W T S Z Z C c c <.].! e x } X.} } { [ [ ` ` ] I G F F F I I I ` [ {  .2.|.mXi.c r w 7 4 2 > - # @ + X ",
"+ @ @ - s.k # # $ = = - - > 3 B.u < < < } k.< < - = # @ + + + O + + + { [ @ # # $ = - , < 2 t P.b w M I.x u u j l l c ,.L.D.OXW c c c c c V G P.OX.X.X.X.X X XU.! c c x l j } '.W w w 7 4 4 3 3 2 2 < > > > > ; ; > > < 2 4 7 w a n Z c d a r w 7 4 < > - # @ + + @ @ = s.j @ # # $ = - , > 3 B.j < 2 2 { x.< < > - # @ @ + + O ' X.+ + + + & @ $ $ - , < 2 y P.x w D I.l u u u u l l l c M.Q.G c c c c V C K I.OX.X.X X X XQ.L.! C c c l d } '.U w w w 7 4 4 3 3 2 < < < > > > > > > < 2 3 4 w r +.+.c l a r w 7 4 < > = @ + X ",
"@ @ # - s.k # = = = - - - , 3 M.y > < > { i.> - - # @ + O X X X X O + { ` + @ @ # $ = - > 2 t P.b w M I.x u j l x b C r.<X*X~ c c c c C C G I.I.>.3.3.>.:.:.} m..X! l l j u r { '.U 7 4 4 4 3 2 2 2 < < > > > > > < < 2 2 4 7 w r a d d a a a r w 7 2 < - # @ @ @ # # - s.k # # = = - - , > 3 B.h > < < { h.> > - = @ + + O O X ` { O O O O + + @ $ = - < 2 y P.x w D I.l u u l l l l x 2..XW c c c c c C G I.U.:.:.:.:.:.:.:.M..X! c l d r e [ ).` w 7 7 4 4 3 3 2 2 < < < > > < < < < 2 3 7 w e j l l d a a r w 7 2 > - # + O ",
"# # = , s.k # = - - - - - , 7 S.t > > - [ w.- - = # + + X X o o X X X ' ` O + + @ # = - > 1 t P.n w M W.H j l x c n ! XXgXU.S C n c C A W U.U.K S S S S Z A C C p.].G r u u r e ` ).U 4 4 2 2 2 < < < > > > > > > > < < 2 3 4 7 w e r a a d f f a w 4 < - = # # # = = : d.k # = - - - - , > 7 D.y ; > > [ i.- - = # @ + O X X X ] { X X X O O + & # = - < 2 y P.b w M E.H j l l l l c c j.D.c c c c V C G I.U.W S S S Z A A C Z l..XG a r r e w _ ).[ 7 7 4 3 2 2 2 < < > > > > > > < < 2 3 4 7 w e r j a d f f a w 4 < - # + + ",
"# = - > l.x = - - - - > > 1 1.i.< - , - ` q.= = # @ + X X X . . o X X ' ` O + + @ $ = - > 1 7 l.p.j l u.I.H x c c C u.:X=X].S A C C A W U.R.W S G K S S S C V c c q.'.F e e w w w F I.I 4 4 3 2 2 2 2 2 < < < < < < 2 2 3 4 7 w e r a d x C 6.n.S e 7 < - = # = = - - > f.x = - - , > > , < 1.i.< - > - ` w.- = # @ + O X X X   ] { X X X X O + + # = - < 2 7 m.u.u u q.U.H l l c c c c j.J.C C C C A W I.L.T G K K S S A A C C c u.R.D e w w w 7 F I.[ 7 7 4 3 3 3 2 2 2 < < < < 2 2 2 3 4 7 7 w r r a l n &.v.P r 4 < - # & + ",
"Y | 9 > u.j = - - - > > 2 >.x.3 - - - = I 1.# # @ + O X o . . . . X o ' ` O + + & $ $ - > 1 3 h M.m.b l u.U.U b c A :.=XtXU.S S A A ! U.E.W S T j.F.m.%.p.p.,.c l u 1.R.D w w 7 7 4 M F.m.f.d.f.m.m.m.m.l.l.l.l.l.l.M.M.M.B.B.N.D.D.F.K.L.^.fXbXr.r 4 < - = # , F >.y > i.x - - - > > > 2 1.l.3 = - - = Y q.= # @ & + X X o . . F [ . X X X O + + @ = - < 2 3 l N.j.c c u.R.U c c c c c j.J.C A A Z ! U.R.K S T l.F.m./ p.l.2.C x l 1.I.M 7 7 7 7 4 M G.B.m.m.m.m.m.M.M.M.m.l.l.m.m.m.M.M.M.B.N.D.F.F.P.I.W.tXbXv.a 4 < - # + + ",
"U.M.M.I 2.{ 1.q.q.w.w.w.l.i.2 # = = = 2 i.F.3 @ @ + O X o . . . . . . ' ` O + + @ @ = - > 1 3 7 j N.].G x k.W.>.} S G $.I.J.S S Z W @X.XW S K %.pX0XtXN.:XI.OXC j e e  .I.F w 4 3 3 2 y x l v v j j j j j j j j k k x x v v M M n F G U ! %.I.%X! w 4 < - # # 9 F.m.F.^ q. .q.w.w.i.h.k.M.s.3 # = # = 3 x.I.7 # @ + O X o . .   F [   X X X X + @ # - , < 2 7 7 x P.R.G c k.].:.~ A C C p.D.Z A S T @XoXW Z S %.pX0XtXN.:XL.%XD l r r  .I.D 7 7 4 4 2 y x j v B j j k j j j j j j k k k x x v M n D F I T ~ M.&X%.e 4 < - @ + O ",
"R.G. .x 0._ M N F F F F N 1 # $ # $ # ` B.z.] + + + X o . . . . . . . ' ` O + + @ $ = - > < 2 7 7 b N.U l b m.9X<Xu.H S M.%Xm.m.m.M.=XF.p.p.m.D.XXQ.8XN.%XM.OXb r e w 7 ` ].1.3 2 < < < > < q.s.< - - - - = = = = - - - ; > < < 2 4 7 w e a g n a 7 2 , = # @ 6 D.I.1.x q.' N N F F F F F 3 # # # # # I N.M.' @ & + X X o . .   F '   X X X O + @ $ - , < 2 7 7 e H U.W c c l.9X8Xj.C C p..Xp.p.c.M.=XP.p.p.c.N.XX^.8XD.&XM.%Xc r e e w { '.1.4 2 2 < < > > 1.m.4 - - - = = = = = - - - > > < < 2 4 7 7 e r f C a 7 1 , # @ + X ",
"h h - # - # # @ @ @ @ @ @ # # # # # @ N '.F.k + + O X o . . . . . . . ` ` O + & @ $ - - > 1 3 7 7 e u l l l :.:X*XF.A H 3.R.U.U.I.I.P.P.P.P.I.I.U.U.M.:.P.P.u.l e 7 7 4 3 X.1.2 < > > > , > q.m.< - - = = # # # = = - - - > > < 2 2 4 7 7 7 w 7 7 2 > - # @ @ @ 0 j , # - # @ @ @ @ @ @ @ # # @ @ @ @ B R.S.v & + O X o . . .   F ' . X X X + + @ $ - > < 3 7 w e j x c c c } :X$X'.Z C :.I.I.I.I.I.I.P.P.P.I.I.I.P.M.3.I.I.u.j e w 7 7 7 X.1.3 < < > > , - >.D.1 - - = = # # # = = = - - > > < < 2 4 7 7 7 7 7 7 2 > - @ + O X ",
"= # # # # # # # # # @ @ @ @ @ @ @ @ @ - q.F = & + X X o .   . . . . . ` ` O + & @ $ - - > 1 3 7 7 y u j l x A F..X:.C D S K K S H H H H S G G K K S C b c x j r w 7 3 2 2 2 2 < > , - - - = I 9.- = # # # @ @ @ $ $ $ = - - > > < < 2 2 4 4 4 3 < > - # @ + + + + + @ @ @ $ @ @ @ @ @ @ @ @ @ @ @ @ @ =  .N # & + X X o . . .   F ' . X X X + + # = - > 1 3 7 w y u l l c b A N..X,.Z A S S S S S S S S G G G G G S H D C c a e w 7 7 3 3 4 2 < > , - - - # F t.- = # # @ @ @ @ # # # = = - - > > < 2 2 4 4 4 2 1 > - # @ + X X "
};
